; generated by Slic3r 1.37.2.1-prusa3d-win64 on 2018-03-09 at 05:02:20

; 

; external perimeters extrusion width = 0.70mm
; perimeters extrusion width = 0.70mm
; infill extrusion width = 0.70mm
; solid infill extrusion width = 0.70mm
; top infill extrusion width = 0.74mm
; first layer extrusion width = 0.42mm

M107 ; disable fan
M115 U3.1.0 ; tell printer latest fw version
M83  ; extruder relative mode
M104 S255 ; set extruder temp
M140 S75 ; set bed temp
M190 S75 ; wait for bed temp
M109 S255 ; wait for extruder temp
G28 W ; home all without mesh bed level
G80 ; mesh bed leveling
G1 Y-3.0 F1000.0 ; go outside pritn area
G1 X60.0 E9.0  F1000.0 ; intro line
G1 X100.0 E12.5  F1000.0 ; intro line
G92 E0.0
M900 K30
G21 ; set units to millimeters
G90 ; use absolute coordinates
M83 ; use relative distances for extrusion
;BEFORE_LAYER_CHANGE
;0.2


G1 E-0.80000 F2100.00000 ; retract
G1 Z0.600 F7200.000 ; lift Z
;AFTER_LAYER_CHANGE
;0.2
G1 X50.804 Y23.796 F7200.000 ; move to first skirt point
G1 Z0.200 F7200.000 ; restore layer Z
G1 E0.80000 F2100.00000 ; unretract
M204 S1000 ; adjust acceleration
G1 F1800
G1 X51.481 Y22.465 E0.04681 ; skirt
G1 X52.284 Y21.226 E0.04629 ; skirt
G1 X53.218 Y20.071 E0.04655 ; skirt
G1 X54.172 Y19.111 E0.04244 ; skirt
G1 X55.549 Y17.996 E0.05556 ; skirt
G1 X56.700 Y17.255 E0.04291 ; skirt
G1 X58.118 Y16.545 E0.04975 ; skirt
G1 X59.395 Y16.059 E0.04282 ; skirt
G1 X60.830 Y15.676 E0.04655 ; skirt
G1 X62.284 Y15.446 E0.04617 ; skirt
G1 X63.771 Y15.369 E0.04668 ; skirt
G1 X65.249 Y15.446 E0.04642 ; skirt
G1 X66.716 Y15.679 E0.04655 ; skirt
G1 X68.150 Y16.063 E0.04655 ; skirt
G1 X69.525 Y16.590 E0.04616 ; skirt
G1 X70.855 Y17.267 E0.04681 ; skirt
G1 X72.094 Y18.070 E0.04629 ; skirt
G1 X73.249 Y19.003 E0.04655 ; skirt
G1 X74.209 Y19.957 E0.04244 ; skirt
G1 X75.324 Y21.334 E0.05556 ; skirt
G1 X76.063 Y22.482 E0.04278 ; skirt
G1 X76.775 Y23.904 E0.04988 ; skirt
G1 X77.261 Y25.181 E0.04282 ; skirt
G1 X77.644 Y26.615 E0.04655 ; skirt
G1 X77.874 Y28.070 E0.04617 ; skirt
G1 X77.951 Y29.552 E0.04655 ; skirt
G1 X77.874 Y31.035 E0.04655 ; skirt
G1 X77.644 Y32.489 E0.04617 ; skirt
G1 X77.261 Y33.924 E0.04655 ; skirt
G1 X76.776 Y35.200 E0.04282 ; skirt
G1 X76.064 Y36.623 E0.04988 ; skirt
G1 X75.324 Y37.771 E0.04282 ; skirt
G1 X74.209 Y39.149 E0.05556 ; skirt
G1 X73.250 Y40.101 E0.04239 ; skirt
G1 X72.095 Y41.035 E0.04655 ; skirt
G1 X70.856 Y41.838 E0.04629 ; skirt
G1 X69.526 Y42.515 E0.04681 ; skirt
G1 X68.147 Y43.044 E0.04629 ; skirt
G1 X66.717 Y43.427 E0.04642 ; skirt
G1 X65.251 Y43.659 E0.04655 ; skirt
G1 X63.768 Y43.737 E0.04655 ; skirt
G1 X62.285 Y43.659 E0.04655 ; skirt
G1 X60.831 Y43.430 E0.04617 ; skirt
G1 X59.396 Y43.047 E0.04655 ; skirt
G1 X58.116 Y42.560 E0.04295 ; skirt
G1 X56.697 Y41.849 E0.04976 ; skirt
G1 X55.549 Y41.110 E0.04282 ; skirt
G1 X54.172 Y39.995 E0.05556 ; skirt
G1 X53.219 Y39.035 E0.04240 ; skirt
G1 X52.285 Y37.881 E0.04655 ; skirt
G1 X51.484 Y36.645 E0.04617 ; skirt
G1 X50.805 Y35.311 E0.04693 ; skirt
G1 X50.278 Y33.937 E0.04616 ; skirt
G1 X49.893 Y32.503 E0.04655 ; skirt
G1 X49.661 Y31.036 E0.04655 ; skirt
G1 X49.583 Y29.554 E0.04655 ; skirt
G1 X49.661 Y28.071 E0.04655 ; skirt
G1 X49.893 Y26.604 E0.04655 ; skirt
G1 X50.277 Y25.170 E0.04655 ; skirt
G1 X50.783 Y23.852 E0.04429 ; skirt
G1 X51.134 Y23.986 F7200.000 ; move to first skirt point
G1 F1800
G1 X51.809 Y22.652 E0.04689 ; skirt
G1 X52.591 Y21.446 E0.04507 ; skirt
G1 X53.500 Y20.322 E0.04531 ; skirt
G1 X54.438 Y19.378 E0.04173 ; skirt
G1 X55.754 Y18.312 E0.05309 ; skirt
G1 X56.881 Y17.585 E0.04205 ; skirt
G1 X58.254 Y16.896 E0.04817 ; skirt
G1 X59.509 Y16.419 E0.04209 ; skirt
G1 X60.905 Y16.046 E0.04532 ; skirt
G1 X62.325 Y15.821 E0.04508 ; skirt
G1 X63.772 Y15.746 E0.04543 ; skirt
G1 X65.212 Y15.822 E0.04519 ; skirt
G1 X66.635 Y16.047 E0.04520 ; skirt
G1 X68.031 Y16.421 E0.04531 ; skirt
G1 X69.374 Y16.935 E0.04507 ; skirt
G1 X70.669 Y17.594 E0.04555 ; skirt
G1 X71.875 Y18.377 E0.04507 ; skirt
G1 X72.998 Y19.285 E0.04531 ; skirt
G1 X73.942 Y20.224 E0.04173 ; skirt
G1 X75.008 Y21.540 E0.05309 ; skirt
G1 X75.735 Y22.667 E0.04205 ; skirt
G1 X76.424 Y24.040 E0.04817 ; skirt
G1 X76.901 Y25.295 E0.04209 ; skirt
G1 X77.274 Y26.691 E0.04531 ; skirt
G1 X77.499 Y28.111 E0.04507 ; skirt
G1 X77.574 Y29.554 E0.04531 ; skirt
G1 X77.499 Y30.997 E0.04531 ; skirt
G1 X77.273 Y32.421 E0.04520 ; skirt
G1 X76.899 Y33.817 E0.04531 ; skirt
G1 X76.385 Y35.159 E0.04507 ; skirt
G1 X75.726 Y36.454 E0.04555 ; skirt
G1 X74.943 Y37.660 E0.04508 ; skirt
G1 X74.035 Y38.784 E0.04531 ; skirt
G1 X73.096 Y39.728 E0.04173 ; skirt
G1 X71.780 Y40.794 E0.05309 ; skirt
G1 X70.653 Y41.520 E0.04205 ; skirt
G1 X69.280 Y42.209 E0.04817 ; skirt
G1 X68.025 Y42.687 E0.04209 ; skirt
G1 X66.629 Y43.060 E0.04532 ; skirt
G1 X65.209 Y43.284 E0.04507 ; skirt
G1 X63.766 Y43.360 E0.04531 ; skirt
G1 X62.323 Y43.284 E0.04531 ; skirt
G1 X60.899 Y43.059 E0.04520 ; skirt
G1 X59.503 Y42.685 E0.04531 ; skirt
G1 X58.161 Y42.170 E0.04507 ; skirt
G1 X56.866 Y41.511 E0.04555 ; skirt
G1 X55.660 Y40.729 E0.04508 ; skirt
G1 X54.536 Y39.820 E0.04531 ; skirt
G1 X53.592 Y38.882 E0.04173 ; skirt
G1 X52.527 Y37.566 E0.05309 ; skirt
G1 X51.800 Y36.439 E0.04205 ; skirt
G1 X51.111 Y35.066 E0.04817 ; skirt
G1 X50.633 Y33.811 E0.04209 ; skirt
G1 X50.260 Y32.415 E0.04531 ; skirt
G1 X50.036 Y30.995 E0.04507 ; skirt
G1 X49.960 Y29.552 E0.04531 ; skirt
G1 X50.036 Y28.108 E0.04531 ; skirt
G1 X50.261 Y26.685 E0.04520 ; skirt
G1 X50.635 Y25.289 E0.04531 ; skirt
G1 X51.113 Y24.042 E0.04185 ; skirt
G1 F5760
G1 X51.809 Y22.652 E-0.53864 ; wipe and retract
G1 F5760
G1 X52.157 Y22.115 E-0.22136 ; wipe and retract
G1 E-0.04000 F2100.00000 ; retract
G1 Z0.800 F7200.000 ; lift Z
G1 X54.552 Y25.450 F7200.000 ; move to first perimeter point
G1 Z0.200 F7200.000 ; restore layer Z
G1 E0.80000 F2100.00000 ; unretract
G1 F1800
G1 X55.032 Y24.509 E0.03310 ; perimeter
G1 X55.607 Y23.624 E0.03310 ; perimeter
G1 X56.271 Y22.803 E0.03310 ; perimeter
G1 X57.018 Y22.057 E0.03310 ; perimeter
G1 X57.838 Y21.392 E0.03310 ; perimeter
G1 X58.724 Y20.817 E0.03310 ; perimeter
G1 X59.665 Y20.338 E0.03310 ; perimeter
G1 X60.650 Y19.960 E0.03310 ; perimeter
G1 X61.670 Y19.686 E0.03310 ; perimeter
G1 X62.713 Y19.521 E0.03310 ; perimeter
G1 X63.767 Y19.466 E0.03310 ; perimeter
G1 X64.804 Y19.520 E0.03255 ; perimeter
G1 X65.865 Y19.687 E0.03369 ; perimeter
G1 X66.884 Y19.960 E0.03307 ; perimeter
G1 X67.870 Y20.338 E0.03310 ; perimeter
G1 X68.811 Y20.817 E0.03310 ; perimeter
G1 X69.696 Y21.392 E0.03310 ; perimeter
G1 X70.517 Y22.057 E0.03310 ; perimeter
G1 X71.263 Y22.803 E0.03310 ; perimeter
G1 X71.928 Y23.624 E0.03310 ; perimeter
G1 X72.503 Y24.509 E0.03310 ; perimeter
G1 X72.982 Y25.450 E0.03310 ; perimeter
G1 X73.360 Y26.436 E0.03310 ; perimeter
G1 X73.634 Y27.456 E0.03310 ; perimeter
G1 X73.799 Y28.498 E0.03310 ; perimeter
G1 X73.854 Y29.553 E0.03310 ; perimeter
G1 X73.799 Y30.607 E0.03310 ; perimeter
G1 X73.634 Y31.650 E0.03310 ; perimeter
G1 X73.360 Y32.670 E0.03310 ; perimeter
G1 X72.982 Y33.656 E0.03310 ; perimeter
G1 X72.503 Y34.596 E0.03310 ; perimeter
G1 X71.928 Y35.482 E0.03310 ; perimeter
G1 X71.263 Y36.302 E0.03310 ; perimeter
G1 X70.517 Y37.049 E0.03310 ; perimeter
G1 X69.710 Y37.702 E0.03255 ; perimeter
G1 X68.810 Y38.289 E0.03369 ; perimeter
G1 X67.870 Y38.768 E0.03307 ; perimeter
G1 X66.884 Y39.146 E0.03310 ; perimeter
G1 X65.864 Y39.419 E0.03310 ; perimeter
G1 X64.822 Y39.585 E0.03310 ; perimeter
G1 X63.767 Y39.640 E0.03310 ; perimeter
G1 X62.713 Y39.585 E0.03310 ; perimeter
G1 X61.670 Y39.419 E0.03310 ; perimeter
G1 X60.650 Y39.146 E0.03310 ; perimeter
G1 X59.665 Y38.768 E0.03310 ; perimeter
G1 X58.740 Y38.296 E0.03255 ; perimeter
G1 X57.837 Y37.713 E0.03369 ; perimeter
G1 X57.018 Y37.049 E0.03307 ; perimeter
G1 X56.271 Y36.302 E0.03310 ; perimeter
G1 X55.607 Y35.482 E0.03310 ; perimeter
G1 X55.032 Y34.596 E0.03310 ; perimeter
G1 X54.552 Y33.656 E0.03310 ; perimeter
G1 X54.174 Y32.670 E0.03310 ; perimeter
G1 X53.901 Y31.650 E0.03310 ; perimeter
G1 X53.736 Y30.607 E0.03310 ; perimeter
G1 X53.680 Y29.553 E0.03310 ; perimeter
G1 X53.736 Y28.499 E0.03310 ; perimeter
G1 X53.901 Y27.456 E0.03310 ; perimeter
G1 X54.174 Y26.436 E0.03310 ; perimeter
G1 X54.531 Y25.506 E0.03122 ; perimeter
G1 X54.179 Y25.371 F7200.000 ; move to first perimeter point
G1 F1800
G1 X54.705 Y24.321 E0.03683 ; perimeter
G1 X55.301 Y23.402 E0.03434 ; perimeter
G1 X55.991 Y22.551 E0.03434 ; perimeter
G1 X56.765 Y21.776 E0.03434 ; perimeter
G1 X57.616 Y21.087 E0.03434 ; perimeter
G1 X58.535 Y20.490 E0.03434 ; perimeter
G1 X59.511 Y19.993 E0.03434 ; perimeter
G1 X60.534 Y19.601 E0.03434 ; perimeter
G1 X61.592 Y19.317 E0.03434 ; perimeter
G1 X62.673 Y19.146 E0.03434 ; perimeter
G1 X63.767 Y19.088 E0.03434 ; perimeter
G1 X64.843 Y19.145 E0.03378 ; perimeter
G1 X65.944 Y19.317 E0.03493 ; perimeter
G1 X67.001 Y19.601 E0.03432 ; perimeter
G1 X68.024 Y19.993 E0.03434 ; perimeter
G1 X68.999 Y20.490 E0.03434 ; perimeter
G1 X69.918 Y21.087 E0.03434 ; perimeter
G1 X70.769 Y21.776 E0.03434 ; perimeter
G1 X71.544 Y22.551 E0.03434 ; perimeter
G1 X72.233 Y23.402 E0.03434 ; perimeter
G1 X72.830 Y24.321 E0.03434 ; perimeter
G1 X73.327 Y25.297 E0.03434 ; perimeter
G1 X73.720 Y26.319 E0.03434 ; perimeter
G1 X74.003 Y27.377 E0.03434 ; perimeter
G1 X74.174 Y28.459 E0.03434 ; perimeter
G1 X74.232 Y29.553 E0.03434 ; perimeter
G1 X74.174 Y30.647 E0.03434 ; perimeter
G1 X74.003 Y31.729 E0.03434 ; perimeter
G1 X73.720 Y32.787 E0.03434 ; perimeter
G1 X73.327 Y33.809 E0.03434 ; perimeter
G1 X72.830 Y34.785 E0.03434 ; perimeter
G1 X72.233 Y35.704 E0.03434 ; perimeter
G1 X71.544 Y36.555 E0.03434 ; perimeter
G1 X70.769 Y37.330 E0.03434 ; perimeter
G1 X69.932 Y38.007 E0.03378 ; perimeter
G1 X68.999 Y38.616 E0.03493 ; perimeter
G1 X68.024 Y39.113 E0.03432 ; perimeter
G1 X67.001 Y39.505 E0.03434 ; perimeter
G1 X65.943 Y39.789 E0.03434 ; perimeter
G1 X64.861 Y39.960 E0.03434 ; perimeter
G1 X63.767 Y40.017 E0.03434 ; perimeter
G1 X62.673 Y39.960 E0.03434 ; perimeter
G1 X61.592 Y39.789 E0.03434 ; perimeter
G1 X60.534 Y39.505 E0.03434 ; perimeter
G1 X59.511 Y39.113 E0.03434 ; perimeter
G1 X58.551 Y38.624 E0.03378 ; perimeter
G1 X57.616 Y38.018 E0.03493 ; perimeter
G1 X56.765 Y37.330 E0.03432 ; perimeter
G1 X55.991 Y36.555 E0.03434 ; perimeter
G1 X55.301 Y35.704 E0.03434 ; perimeter
G1 X54.705 Y34.785 E0.03434 ; perimeter
G1 X54.207 Y33.809 E0.03434 ; perimeter
G1 X53.815 Y32.787 E0.03434 ; perimeter
G1 X53.531 Y31.729 E0.03434 ; perimeter
G1 X53.360 Y30.647 E0.03434 ; perimeter
G1 X53.303 Y29.553 E0.03434 ; perimeter
G1 X53.360 Y28.459 E0.03434 ; perimeter
G1 X53.531 Y27.377 E0.03434 ; perimeter
G1 X53.815 Y26.319 E0.03434 ; perimeter
G1 X54.157 Y25.427 E0.02996 ; perimeter
G1 X53.805 Y25.292 F7200.000 ; move to first perimeter point
G1 F1800
G1 X53.862 Y25.143 E0.00500 ; perimeter
G1 X54.378 Y24.132 E0.03558 ; perimeter
G1 X54.996 Y23.180 E0.03558 ; perimeter
G1 X55.710 Y22.298 E0.03558 ; perimeter
G1 X56.512 Y21.496 E0.03558 ; perimeter
G1 X57.394 Y20.781 E0.03558 ; perimeter
G1 X58.346 Y20.163 E0.03558 ; perimeter
G1 X59.357 Y19.648 E0.03558 ; perimeter
G1 X60.417 Y19.241 E0.03558 ; perimeter
G1 X61.513 Y18.948 E0.03558 ; perimeter
G1 X62.634 Y18.770 E0.03558 ; perimeter
G1 X63.767 Y18.711 E0.03558 ; perimeter
G1 X64.882 Y18.769 E0.03501 ; perimeter
G1 X66.022 Y18.948 E0.03617 ; perimeter
G1 X67.118 Y19.241 E0.03557 ; perimeter
G1 X68.177 Y19.648 E0.03558 ; perimeter
G1 X69.188 Y20.163 E0.03558 ; perimeter
G1 X70.140 Y20.781 E0.03558 ; perimeter
G1 X71.022 Y21.496 E0.03558 ; perimeter
G1 X71.824 Y22.298 E0.03558 ; perimeter
G1 X72.539 Y23.180 E0.03558 ; perimeter
G1 X73.157 Y24.132 E0.03558 ; perimeter
G1 X73.672 Y25.143 E0.03558 ; perimeter
G1 X74.079 Y26.202 E0.03558 ; perimeter
G1 X74.372 Y27.299 E0.03558 ; perimeter
G1 X74.550 Y28.420 E0.03558 ; perimeter
G1 X74.609 Y29.553 E0.03558 ; perimeter
G1 X74.550 Y30.686 E0.03558 ; perimeter
G1 X74.372 Y31.807 E0.03558 ; perimeter
G1 X74.079 Y32.903 E0.03558 ; perimeter
G1 X73.672 Y33.963 E0.03558 ; perimeter
G1 X73.157 Y34.974 E0.03558 ; perimeter
G1 X72.539 Y35.926 E0.03558 ; perimeter
G1 X71.824 Y36.808 E0.03558 ; perimeter
G1 X71.022 Y37.610 E0.03558 ; perimeter
G1 X70.154 Y38.313 E0.03501 ; perimeter
G1 X69.188 Y38.943 E0.03617 ; perimeter
G1 X68.177 Y39.458 E0.03557 ; perimeter
G1 X67.118 Y39.864 E0.03558 ; perimeter
G1 X66.021 Y40.158 E0.03558 ; perimeter
G1 X64.901 Y40.336 E0.03558 ; perimeter
G1 X63.767 Y40.395 E0.03558 ; perimeter
G1 X62.634 Y40.336 E0.03558 ; perimeter
G1 X61.513 Y40.158 E0.03558 ; perimeter
G1 X60.417 Y39.864 E0.03558 ; perimeter
G1 X59.357 Y39.458 E0.03558 ; perimeter
G1 X58.363 Y38.951 E0.03501 ; perimeter
G1 X57.394 Y38.324 E0.03617 ; perimeter
G1 X56.512 Y37.610 E0.03557 ; perimeter
G1 X55.710 Y36.808 E0.03558 ; perimeter
G1 X54.996 Y35.926 E0.03558 ; perimeter
G1 X54.378 Y34.974 E0.03558 ; perimeter
G1 X53.862 Y33.963 E0.03558 ; perimeter
G1 X53.456 Y32.903 E0.03558 ; perimeter
G1 X53.162 Y31.807 E0.03558 ; perimeter
G1 X52.985 Y30.686 E0.03558 ; perimeter
G1 X52.925 Y29.553 E0.03558 ; perimeter
G1 X52.985 Y28.420 E0.03558 ; perimeter
G1 X53.162 Y27.299 E0.03558 ; perimeter
G1 X53.456 Y26.202 E0.03558 ; perimeter
G1 X53.784 Y25.348 E0.02870 ; perimeter
G1 X53.518 Y24.989 F7200.000 ; move to first perimeter point
G1 F1800
G1 X54.051 Y23.943 E0.03682 ; perimeter
G1 X54.690 Y22.958 E0.03682 ; perimeter
G1 X55.429 Y22.045 E0.03682 ; perimeter
G1 X56.260 Y21.215 E0.03682 ; perimeter
G1 X57.172 Y20.476 E0.03682 ; perimeter
G1 X58.157 Y19.836 E0.03682 ; perimeter
G1 X59.204 Y19.303 E0.03682 ; perimeter
G1 X60.300 Y18.882 E0.03682 ; perimeter
G1 X61.435 Y18.578 E0.03682 ; perimeter
G1 X62.594 Y18.395 E0.03682 ; perimeter
G1 X63.767 Y18.333 E0.03682 ; perimeter
G1 X64.921 Y18.394 E0.03624 ; perimeter
G1 X66.100 Y18.578 E0.03741 ; perimeter
G1 X67.234 Y18.882 E0.03682 ; perimeter
G1 X68.331 Y19.303 E0.03682 ; perimeter
G1 X69.377 Y19.836 E0.03682 ; perimeter
G1 X70.362 Y20.476 E0.03682 ; perimeter
G1 X71.275 Y21.215 E0.03682 ; perimeter
G1 X72.105 Y22.045 E0.03682 ; perimeter
G1 X72.844 Y22.958 E0.03682 ; perimeter
G1 X73.484 Y23.943 E0.03682 ; perimeter
G1 X74.017 Y24.989 E0.03682 ; perimeter
G1 X74.438 Y26.086 E0.03682 ; perimeter
G1 X74.742 Y27.220 E0.03682 ; perimeter
G1 X74.925 Y28.380 E0.03682 ; perimeter
G1 X74.987 Y29.553 E0.03682 ; perimeter
G1 X74.925 Y30.726 E0.03682 ; perimeter
G1 X74.742 Y31.886 E0.03682 ; perimeter
G1 X74.438 Y33.020 E0.03682 ; perimeter
G1 X74.017 Y34.116 E0.03682 ; perimeter
G1 X73.484 Y35.163 E0.03682 ; perimeter
G1 X72.844 Y36.148 E0.03682 ; perimeter
G1 X72.105 Y37.060 E0.03682 ; perimeter
G1 X71.275 Y37.891 E0.03682 ; perimeter
G1 X70.377 Y38.618 E0.03624 ; perimeter
G1 X69.377 Y39.270 E0.03741 ; perimeter
G1 X68.331 Y39.803 E0.03682 ; perimeter
G1 X67.234 Y40.223 E0.03682 ; perimeter
G1 X66.100 Y40.527 E0.03682 ; perimeter
G1 X64.940 Y40.711 E0.03682 ; perimeter
G1 X63.767 Y40.773 E0.03682 ; perimeter
G1 X62.594 Y40.711 E0.03682 ; perimeter
G1 X61.435 Y40.527 E0.03682 ; perimeter
G1 X60.300 Y40.223 E0.03682 ; perimeter
G1 X59.204 Y39.803 E0.03682 ; perimeter
G1 X58.174 Y39.278 E0.03624 ; perimeter
G1 X57.172 Y38.630 E0.03741 ; perimeter
G1 X56.260 Y37.891 E0.03682 ; perimeter
G1 X55.429 Y37.060 E0.03682 ; perimeter
G1 X54.690 Y36.148 E0.03682 ; perimeter
G1 X54.051 Y35.163 E0.03682 ; perimeter
G1 X53.518 Y34.116 E0.03682 ; perimeter
G1 X53.097 Y33.020 E0.03682 ; perimeter
G1 X52.793 Y31.886 E0.03682 ; perimeter
G1 X52.609 Y30.726 E0.03682 ; perimeter
G1 X52.548 Y29.553 E0.03682 ; perimeter
G1 X52.609 Y28.380 E0.03682 ; perimeter
G1 X52.793 Y27.220 E0.03682 ; perimeter
G1 X53.097 Y26.086 E0.03682 ; perimeter
G1 X53.496 Y25.045 E0.03494 ; perimeter
G1 X53.915 Y24.948 F7200.000 ; move inwards before travel
G1 F5760
G1 X54.051 Y23.943 E-0.42743 ; wipe and retract
G1 F5760
G1 X54.574 Y23.138 E-0.33257 ; wipe and retract
G1 E-0.04000 F2100.00000 ; retract
G1 Z0.800 F7200.000 ; lift Z
G1 X54.791 Y33.875 F7200.000 ; move to first infill point
