; generated by Slic3r 1.37.2.1-prusa3d-win64 on 2018-03-09 at 05:05:39

; 

; external perimeters extrusion width = 0.70mm
; perimeters extrusion width = 0.70mm
; infill extrusion width = 0.70mm
; solid infill extrusion width = 0.70mm
; top infill extrusion width = 0.74mm
; first layer extrusion width = 0.42mm

M107 ; disable fan
M115 U3.1.0 ; tell printer latest fw version
M83  ; extruder relative mode
M104 S255 ; set extruder temp
M140 S75 ; set bed temp
M190 S75 ; wait for bed temp
M109 S255 ; wait for extruder temp
G28 W ; home all without mesh bed level
G80 ; mesh bed leveling
G1 Y-3.0 F1000.0 ; go outside pritn area
G1 X60.0 E9.0  F1000.0 ; intro line
G1 X100.0 E12.5  F1000.0 ; intro line
G92 E0.0
M900 K30
G21 ; set units to millimeters
G90 ; use absolute coordinates
M83 ; use relative distances for extrusion
;BEFORE_LAYER_CHANGE
;0.2


G1 E-0.80000 F2100.00000 ; retract
G1 Z0.600 F7200.000 ; lift Z
;AFTER_LAYER_CHANGE
;0.2
G1 X51.693 Y25.698 F7200.000 ; move to first skirt point
G1 Z0.200 F7200.000 ; restore layer Z
G1 E0.80000 F2100.00000 ; unretract
M204 S1000 ; adjust acceleration
G1 F1800
G1 X52.533 Y24.404 E0.04838 ; skirt
G1 X53.508 Y23.197 E0.04864 ; skirt
G1 X54.509 Y22.190 E0.04453 ; skirt
G1 X55.938 Y21.033 E0.05765 ; skirt
G1 X57.141 Y20.258 E0.04486 ; skirt
G1 X58.623 Y19.515 E0.05197 ; skirt
G1 X59.961 Y19.006 E0.04491 ; skirt
G1 X61.460 Y18.606 E0.04864 ; skirt
G1 X62.980 Y18.366 E0.04825 ; skirt
G1 X64.533 Y18.284 E0.04877 ; skirt
G1 X66.078 Y18.365 E0.04850 ; skirt
G1 X67.610 Y18.608 E0.04864 ; skirt
G1 X69.108 Y19.009 E0.04863 ; skirt
G1 X70.545 Y19.560 E0.04825 ; skirt
G1 X71.939 Y20.269 E0.04902 ; skirt
G1 X73.230 Y21.107 E0.04825 ; skirt
G1 X74.436 Y22.082 E0.04864 ; skirt
G1 X75.443 Y23.083 E0.04452 ; skirt
G1 X76.600 Y24.512 E0.05765 ; skirt
G1 X77.375 Y25.715 E0.04487 ; skirt
G1 X78.118 Y27.197 E0.05197 ; skirt
G1 X78.627 Y28.535 E0.04491 ; skirt
G1 X79.027 Y30.034 E0.04864 ; skirt
G1 X79.267 Y31.554 E0.04825 ; skirt
G1 X79.349 Y33.103 E0.04864 ; skirt
G1 X79.268 Y34.652 E0.04863 ; skirt
G1 X79.028 Y36.172 E0.04825 ; skirt
G1 X78.627 Y37.671 E0.04863 ; skirt
G1 X78.118 Y39.009 E0.04491 ; skirt
G1 X77.376 Y40.491 E0.05196 ; skirt
G1 X76.600 Y41.695 E0.04491 ; skirt
G1 X75.443 Y43.124 E0.05765 ; skirt
G1 X74.437 Y44.124 E0.04448 ; skirt
G1 X73.231 Y45.099 E0.04864 ; skirt
G1 X71.936 Y45.939 E0.04838 ; skirt
G1 X70.546 Y46.646 E0.04889 ; skirt
G1 X69.110 Y47.197 E0.04825 ; skirt
G1 X67.611 Y47.599 E0.04864 ; skirt
G1 X66.079 Y47.841 E0.04863 ; skirt
G1 X64.530 Y47.923 E0.04864 ; skirt
G1 X62.981 Y47.842 E0.04863 ; skirt
G1 X61.461 Y47.601 E0.04825 ; skirt
G1 X59.962 Y47.201 E0.04863 ; skirt
G1 X58.624 Y46.692 E0.04491 ; skirt
G1 X57.142 Y45.950 E0.05196 ; skirt
G1 X55.938 Y45.174 E0.04491 ; skirt
G1 X54.509 Y44.017 E0.05765 ; skirt
G1 X53.509 Y43.011 E0.04448 ; skirt
G1 X52.531 Y41.801 E0.04876 ; skirt
G1 X51.694 Y40.510 E0.04825 ; skirt
G1 X50.987 Y39.120 E0.04889 ; skirt
G1 X50.436 Y37.684 E0.04825 ; skirt
G1 X50.034 Y36.185 E0.04864 ; skirt
G1 X49.792 Y34.653 E0.04863 ; skirt
G1 X49.710 Y33.104 E0.04864 ; skirt
G1 X49.792 Y31.555 E0.04863 ; skirt
G1 X50.034 Y30.023 E0.04864 ; skirt
G1 X50.436 Y28.525 E0.04863 ; skirt
G1 X50.986 Y27.088 E0.04825 ; skirt
G1 X51.666 Y25.752 E0.04701 ; skirt
G1 X52.002 Y25.922 F7200.000 ; move to first skirt point
G1 F1800
G1 X52.840 Y24.623 E0.04848 ; skirt
G1 X53.790 Y23.447 E0.04740 ; skirt
G1 X54.776 Y22.457 E0.04382 ; skirt
G1 X56.143 Y21.349 E0.05518 ; skirt
G1 X57.326 Y20.586 E0.04413 ; skirt
G1 X58.762 Y19.866 E0.05037 ; skirt
G1 X60.075 Y19.366 E0.04406 ; skirt
G1 X61.536 Y18.975 E0.04740 ; skirt
G1 X63.021 Y18.740 E0.04716 ; skirt
G1 X64.535 Y18.661 E0.04752 ; skirt
G1 X66.040 Y18.741 E0.04727 ; skirt
G1 X67.530 Y18.977 E0.04728 ; skirt
G1 X68.990 Y19.367 E0.04739 ; skirt
G1 X70.394 Y19.906 E0.04716 ; skirt
G1 X71.748 Y20.595 E0.04764 ; skirt
G1 X73.010 Y21.414 E0.04716 ; skirt
G1 X74.186 Y22.364 E0.04740 ; skirt
G1 X75.177 Y23.350 E0.04382 ; skirt
G1 X76.284 Y24.717 E0.05517 ; skirt
G1 X77.047 Y25.900 E0.04413 ; skirt
G1 X77.766 Y27.333 E0.05026 ; skirt
G1 X78.268 Y28.649 E0.04417 ; skirt
G1 X78.658 Y30.110 E0.04740 ; skirt
G1 X78.893 Y31.595 E0.04716 ; skirt
G1 X78.972 Y33.105 E0.04740 ; skirt
G1 X78.892 Y34.614 E0.04739 ; skirt
G1 X78.657 Y36.104 E0.04728 ; skirt
G1 X78.266 Y37.564 E0.04740 ; skirt
G1 X77.727 Y38.968 E0.04716 ; skirt
G1 X77.038 Y40.322 E0.04763 ; skirt
G1 X76.219 Y41.584 E0.04716 ; skirt
G1 X75.269 Y42.760 E0.04740 ; skirt
G1 X74.283 Y43.750 E0.04382 ; skirt
G1 X72.916 Y44.858 E0.05518 ; skirt
G1 X71.733 Y45.621 E0.04413 ; skirt
G1 X70.301 Y46.340 E0.05026 ; skirt
G1 X68.984 Y46.841 E0.04417 ; skirt
G1 X67.524 Y47.232 E0.04740 ; skirt
G1 X66.038 Y47.467 E0.04716 ; skirt
G1 X64.528 Y47.546 E0.04740 ; skirt
G1 X63.019 Y47.466 E0.04739 ; skirt
G1 X61.529 Y47.231 E0.04728 ; skirt
G1 X60.069 Y46.840 E0.04740 ; skirt
G1 X58.665 Y46.301 E0.04716 ; skirt
G1 X57.311 Y45.612 E0.04763 ; skirt
G1 X56.049 Y44.793 E0.04716 ; skirt
G1 X54.874 Y43.843 E0.04740 ; skirt
G1 X53.883 Y42.857 E0.04382 ; skirt
G1 X52.775 Y41.490 E0.05518 ; skirt
G1 X52.012 Y40.307 E0.04413 ; skirt
G1 X51.293 Y38.875 E0.05025 ; skirt
G1 X50.792 Y37.558 E0.04418 ; skirt
G1 X50.401 Y36.097 E0.04740 ; skirt
G1 X50.166 Y34.612 E0.04716 ; skirt
G1 X50.088 Y33.102 E0.04740 ; skirt
G1 X50.167 Y31.593 E0.04739 ; skirt
G1 X50.403 Y30.103 E0.04728 ; skirt
G1 X50.794 Y28.643 E0.04739 ; skirt
G1 X51.332 Y27.239 E0.04716 ; skirt
G1 X51.975 Y25.976 E0.04443 ; skirt
G1 F5760
G1 X52.840 Y24.623 E-0.55619 ; wipe and retract
G1 F5760
G1 X53.210 Y24.165 E-0.20381 ; wipe and retract
G1 E-0.04000 F2100.00000 ; retract
G1 Z0.800 F7200.000 ; lift Z
G1 X55.244 Y27.743 F7200.000 ; move to first perimeter point
G1 Z0.200 F7200.000 ; restore layer Z
G1 E0.80000 F2100.00000 ; unretract
G1 F1800
G1 X55.855 Y26.801 E0.03519 ; perimeter
G1 X56.562 Y25.929 E0.03519 ; perimeter
G1 X57.355 Y25.136 E0.03519 ; perimeter
G1 X58.227 Y24.429 E0.03519 ; perimeter
G1 X59.169 Y23.818 E0.03519 ; perimeter
G1 X60.169 Y23.309 E0.03519 ; perimeter
G1 X61.216 Y22.906 E0.03519 ; perimeter
G1 X62.300 Y22.616 E0.03519 ; perimeter
G1 X63.409 Y22.440 E0.03519 ; perimeter
G1 X64.530 Y22.382 E0.03519 ; perimeter
G1 X65.632 Y22.439 E0.03460 ; perimeter
G1 X66.760 Y22.616 E0.03581 ; perimeter
G1 X67.843 Y22.906 E0.03515 ; perimeter
G1 X68.891 Y23.309 E0.03519 ; perimeter
G1 X69.891 Y23.818 E0.03519 ; perimeter
G1 X70.832 Y24.429 E0.03519 ; perimeter
G1 X71.704 Y25.136 E0.03519 ; perimeter
G1 X72.498 Y25.929 E0.03519 ; perimeter
G1 X73.204 Y26.801 E0.03519 ; perimeter
G1 X73.815 Y27.743 E0.03519 ; perimeter
G1 X74.325 Y28.743 E0.03519 ; perimeter
G1 X74.727 Y29.790 E0.03519 ; perimeter
G1 X75.017 Y30.874 E0.03519 ; perimeter
G1 X75.193 Y31.983 E0.03519 ; perimeter
G1 X75.252 Y33.104 E0.03519 ; perimeter
G1 X75.193 Y34.224 E0.03519 ; perimeter
G1 X75.017 Y35.333 E0.03519 ; perimeter
G1 X74.727 Y36.417 E0.03519 ; perimeter
G1 X74.325 Y37.465 E0.03519 ; perimeter
G1 X73.815 Y38.464 E0.03519 ; perimeter
G1 X73.204 Y39.406 E0.03519 ; perimeter
G1 X72.509 Y40.263 E0.03460 ; perimeter
G1 X71.703 Y41.072 E0.03581 ; perimeter
G1 X70.832 Y41.778 E0.03515 ; perimeter
G1 X69.891 Y42.389 E0.03519 ; perimeter
G1 X68.891 Y42.898 E0.03519 ; perimeter
G1 X67.843 Y43.301 E0.03519 ; perimeter
G1 X66.759 Y43.591 E0.03519 ; perimeter
G1 X65.650 Y43.767 E0.03519 ; perimeter
G1 X64.530 Y43.825 E0.03519 ; perimeter
G1 X63.409 Y43.767 E0.03519 ; perimeter
G1 X62.300 Y43.591 E0.03519 ; perimeter
G1 X61.216 Y43.301 E0.03519 ; perimeter
G1 X60.169 Y42.898 E0.03519 ; perimeter
G1 X59.169 Y42.389 E0.03519 ; perimeter
G1 X58.227 Y41.778 E0.03519 ; perimeter
G1 X57.355 Y41.071 E0.03519 ; perimeter
G1 X56.562 Y40.278 E0.03519 ; perimeter
G1 X55.867 Y39.420 E0.03460 ; perimeter
G1 X55.244 Y38.464 E0.03581 ; perimeter
G1 X54.735 Y37.465 E0.03515 ; perimeter
G1 X54.332 Y36.417 E0.03519 ; perimeter
G1 X54.042 Y35.333 E0.03519 ; perimeter
G1 X53.866 Y34.224 E0.03519 ; perimeter
G1 X53.808 Y33.104 E0.03519 ; perimeter
G1 X53.866 Y31.983 E0.03519 ; perimeter
G1 X54.042 Y30.874 E0.03519 ; perimeter
G1 X54.332 Y29.790 E0.03519 ; perimeter
G1 X54.735 Y28.743 E0.03519 ; perimeter
G1 X55.217 Y27.796 E0.03331 ; perimeter
G1 X54.881 Y27.625 F7200.000 ; move to first perimeter point
G1 F1800
G1 X55.550 Y26.579 E0.03892 ; perimeter
G1 X56.281 Y25.676 E0.03643 ; perimeter
G1 X57.103 Y24.855 E0.03643 ; perimeter
G1 X58.005 Y24.124 E0.03643 ; perimeter
G1 X58.980 Y23.491 E0.03643 ; perimeter
G1 X60.015 Y22.964 E0.03643 ; perimeter
G1 X61.100 Y22.547 E0.03643 ; perimeter
G1 X62.222 Y22.247 E0.03643 ; perimeter
G1 X63.369 Y22.065 E0.03643 ; perimeter
G1 X64.530 Y22.004 E0.03643 ; perimeter
G1 X65.671 Y22.064 E0.03583 ; perimeter
G1 X66.838 Y22.247 E0.03705 ; perimeter
G1 X67.960 Y22.547 E0.03640 ; perimeter
G1 X69.044 Y22.964 E0.03643 ; perimeter
G1 X70.079 Y23.491 E0.03643 ; perimeter
G1 X71.054 Y24.124 E0.03643 ; perimeter
G1 X71.957 Y24.855 E0.03643 ; perimeter
G1 X72.778 Y25.676 E0.03643 ; perimeter
G1 X73.509 Y26.579 E0.03643 ; perimeter
G1 X74.142 Y27.554 E0.03643 ; perimeter
G1 X74.669 Y28.589 E0.03643 ; perimeter
G1 X75.086 Y29.674 E0.03643 ; perimeter
G1 X75.387 Y30.796 E0.03643 ; perimeter
G1 X75.568 Y31.943 E0.03643 ; perimeter
G1 X75.629 Y33.104 E0.03643 ; perimeter
G1 X75.568 Y34.264 E0.03643 ; perimeter
G1 X75.387 Y35.411 E0.03643 ; perimeter
G1 X75.086 Y36.533 E0.03643 ; perimeter
G1 X74.669 Y37.618 E0.03643 ; perimeter
G1 X74.142 Y38.653 E0.03643 ; perimeter
G1 X73.509 Y39.628 E0.03643 ; perimeter
G1 X72.790 Y40.516 E0.03583 ; perimeter
G1 X71.956 Y41.353 E0.03705 ; perimeter
G1 X71.054 Y42.083 E0.03640 ; perimeter
G1 X70.079 Y42.716 E0.03643 ; perimeter
G1 X69.044 Y43.243 E0.03643 ; perimeter
G1 X67.960 Y43.660 E0.03643 ; perimeter
G1 X66.837 Y43.960 E0.03643 ; perimeter
G1 X65.690 Y44.142 E0.03643 ; perimeter
G1 X64.530 Y44.203 E0.03643 ; perimeter
G1 X63.369 Y44.142 E0.03643 ; perimeter
G1 X62.222 Y43.960 E0.03643 ; perimeter
G1 X61.100 Y43.660 E0.03643 ; perimeter
G1 X60.015 Y43.243 E0.03643 ; perimeter
G1 X58.980 Y42.716 E0.03643 ; perimeter
G1 X58.005 Y42.083 E0.03643 ; perimeter
G1 X57.103 Y41.352 E0.03643 ; perimeter
G1 X56.281 Y40.531 E0.03643 ; perimeter
G1 X55.562 Y39.642 E0.03583 ; perimeter
G1 X54.917 Y38.653 E0.03705 ; perimeter
G1 X54.390 Y37.618 E0.03640 ; perimeter
G1 X53.973 Y36.533 E0.03643 ; perimeter
G1 X53.673 Y35.411 E0.03643 ; perimeter
G1 X53.491 Y34.264 E0.03643 ; perimeter
G1 X53.430 Y33.104 E0.03643 ; perimeter
G1 X53.491 Y31.943 E0.03643 ; perimeter
G1 X53.673 Y30.796 E0.03643 ; perimeter
G1 X53.973 Y29.674 E0.03643 ; perimeter
G1 X54.390 Y28.589 E0.03643 ; perimeter
G1 X54.854 Y27.678 E0.03205 ; perimeter
G1 X54.518 Y27.507 F7200.000 ; move to first perimeter point
G1 F1800
G1 X54.590 Y27.365 E0.00500 ; perimeter
G1 X55.244 Y26.357 E0.03767 ; perimeter
G1 X56.000 Y25.424 E0.03767 ; perimeter
G1 X56.850 Y24.574 E0.03767 ; perimeter
G1 X57.783 Y23.818 E0.03767 ; perimeter
G1 X58.791 Y23.164 E0.03767 ; perimeter
G1 X59.861 Y22.619 E0.03767 ; perimeter
G1 X60.983 Y22.188 E0.03767 ; perimeter
G1 X62.143 Y21.877 E0.03767 ; perimeter
G1 X63.330 Y21.689 E0.03767 ; perimeter
G1 X64.530 Y21.626 E0.03767 ; perimeter
G1 X65.710 Y21.688 E0.03706 ; perimeter
G1 X66.916 Y21.877 E0.03829 ; perimeter
G1 X68.076 Y22.188 E0.03765 ; perimeter
G1 X69.198 Y22.619 E0.03767 ; perimeter
G1 X70.268 Y23.164 E0.03767 ; perimeter
G1 X71.276 Y23.818 E0.03767 ; perimeter
G1 X72.209 Y24.574 E0.03767 ; perimeter
G1 X73.059 Y25.424 E0.03767 ; perimeter
G1 X73.815 Y26.357 E0.03767 ; perimeter
G1 X74.469 Y27.365 E0.03767 ; perimeter
G1 X75.014 Y28.435 E0.03767 ; perimeter
G1 X75.445 Y29.557 E0.03767 ; perimeter
G1 X75.756 Y30.717 E0.03767 ; perimeter
G1 X75.944 Y31.904 E0.03767 ; perimeter
G1 X76.007 Y33.104 E0.03767 ; perimeter
G1 X75.944 Y34.303 E0.03767 ; perimeter
G1 X75.756 Y35.490 E0.03767 ; perimeter
G1 X75.445 Y36.650 E0.03767 ; perimeter
G1 X75.014 Y37.772 E0.03767 ; perimeter
G1 X74.469 Y38.842 E0.03767 ; perimeter
G1 X73.815 Y39.850 E0.03767 ; perimeter
G1 X73.071 Y40.768 E0.03706 ; perimeter
G1 X72.209 Y41.633 E0.03829 ; perimeter
G1 X71.276 Y42.389 E0.03765 ; perimeter
G1 X70.268 Y43.043 E0.03767 ; perimeter
G1 X69.198 Y43.588 E0.03767 ; perimeter
G1 X68.076 Y44.019 E0.03767 ; perimeter
G1 X66.916 Y44.330 E0.03767 ; perimeter
G1 X65.729 Y44.518 E0.03767 ; perimeter
G1 X64.530 Y44.581 E0.03767 ; perimeter
G1 X63.330 Y44.518 E0.03767 ; perimeter
G1 X62.143 Y44.330 E0.03767 ; perimeter
G1 X60.983 Y44.019 E0.03767 ; perimeter
G1 X59.861 Y43.588 E0.03767 ; perimeter
G1 X58.791 Y43.043 E0.03767 ; perimeter
G1 X57.783 Y42.389 E0.03767 ; perimeter
G1 X56.850 Y41.633 E0.03767 ; perimeter
G1 X56.000 Y40.783 E0.03767 ; perimeter
G1 X55.257 Y39.865 E0.03706 ; perimeter
G1 X54.590 Y38.842 E0.03829 ; perimeter
G1 X54.045 Y37.772 E0.03765 ; perimeter
G1 X53.614 Y36.650 E0.03767 ; perimeter
G1 X53.303 Y35.490 E0.03767 ; perimeter
G1 X53.115 Y34.303 E0.03767 ; perimeter
G1 X53.052 Y33.104 E0.03767 ; perimeter
G1 X53.115 Y31.904 E0.03767 ; perimeter
G1 X53.303 Y30.717 E0.03767 ; perimeter
G1 X53.614 Y29.557 E0.03767 ; perimeter
G1 X54.045 Y28.435 E0.03767 ; perimeter
G1 X54.490 Y27.561 E0.03078 ; perimeter
G1 X54.263 Y27.176 F7200.000 ; move to first perimeter point
G1 F1800
G1 X54.939 Y26.135 E0.03891 ; perimeter
G1 X55.720 Y25.171 E0.03891 ; perimeter
G1 X56.597 Y24.294 E0.03891 ; perimeter
G1 X57.562 Y23.513 E0.03891 ; perimeter
G1 X58.602 Y22.837 E0.03891 ; perimeter
G1 X59.708 Y22.274 E0.03891 ; perimeter
G1 X60.866 Y21.829 E0.03891 ; perimeter
G1 X62.065 Y21.508 E0.03891 ; perimeter
G1 X63.290 Y21.314 E0.03891 ; perimeter
G1 X64.530 Y21.249 E0.03891 ; perimeter
G1 X65.749 Y21.313 E0.03829 ; perimeter
G1 X66.994 Y21.508 E0.03953 ; perimeter
G1 X68.193 Y21.829 E0.03890 ; perimeter
G1 X69.351 Y22.274 E0.03891 ; perimeter
G1 X70.457 Y22.837 E0.03891 ; perimeter
G1 X71.498 Y23.513 E0.03891 ; perimeter
G1 X72.462 Y24.294 E0.03891 ; perimeter
G1 X73.339 Y25.171 E0.03891 ; perimeter
G1 X74.120 Y26.135 E0.03891 ; perimeter
G1 X74.796 Y27.176 E0.03891 ; perimeter
G1 X75.359 Y28.282 E0.03891 ; perimeter
G1 X75.804 Y29.440 E0.03891 ; perimeter
G1 X76.125 Y30.639 E0.03891 ; perimeter
G1 X76.319 Y31.864 E0.03891 ; perimeter
G1 X76.384 Y33.104 E0.03891 ; perimeter
G1 X76.319 Y34.343 E0.03891 ; perimeter
G1 X76.125 Y35.568 E0.03891 ; perimeter
G1 X75.804 Y36.767 E0.03891 ; perimeter
G1 X75.359 Y37.925 E0.03891 ; perimeter
G1 X74.796 Y39.031 E0.03891 ; perimeter
G1 X74.120 Y40.072 E0.03891 ; perimeter
G1 X73.352 Y41.021 E0.03829 ; perimeter
G1 X72.462 Y41.913 E0.03953 ; perimeter
G1 X71.498 Y42.694 E0.03890 ; perimeter
G1 X70.457 Y43.370 E0.03891 ; perimeter
G1 X69.351 Y43.933 E0.03891 ; perimeter
G1 X68.193 Y44.378 E0.03891 ; perimeter
G1 X66.994 Y44.699 E0.03891 ; perimeter
G1 X65.769 Y44.893 E0.03891 ; perimeter
G1 X64.530 Y44.958 E0.03891 ; perimeter
G1 X63.290 Y44.893 E0.03891 ; perimeter
G1 X62.065 Y44.699 E0.03891 ; perimeter
G1 X60.866 Y44.378 E0.03891 ; perimeter
G1 X59.708 Y43.933 E0.03891 ; perimeter
G1 X58.602 Y43.370 E0.03891 ; perimeter
G1 X57.562 Y42.694 E0.03891 ; perimeter
G1 X56.597 Y41.913 E0.03891 ; perimeter
G1 X55.720 Y41.036 E0.03891 ; perimeter
G1 X54.951 Y40.087 E0.03829 ; perimeter
G1 X54.263 Y39.031 E0.03953 ; perimeter
G1 X53.700 Y37.925 E0.03890 ; perimeter
G1 X53.255 Y36.767 E0.03891 ; perimeter
G1 X52.934 Y35.568 E0.03891 ; perimeter
G1 X52.740 Y34.343 E0.03891 ; perimeter
G1 X52.675 Y33.104 E0.03891 ; perimeter
G1 X52.740 Y31.864 E0.03891 ; perimeter
G1 X52.934 Y30.639 E0.03891 ; perimeter
G1 X53.255 Y29.440 E0.03891 ; perimeter
G1 X53.700 Y28.282 E0.03891 ; perimeter
G1 X54.236 Y27.230 E0.03702 ; perimeter
G1 X54.663 Y27.176 F7200.000 ; move inwards before travel
G1 F5760
G1 X54.939 Y26.135 E-0.45045 ; wipe and retract
G1 F5760
G1 X55.501 Y25.441 E-0.30955 ; wipe and retract
G1 E-0.04000 F2100.00000 ; retract
G1 Z0.800 F7200.000 ; lift Z
G1 X55.044 Y37.823 F7200.000 ; move to first infill point
