; generated by Slic3r 1.37.2.1-prusa3d-win64 on 2018-03-09 at 04:59:01

; 

; external perimeters extrusion width = 0.70mm
; perimeters extrusion width = 0.70mm
; infill extrusion width = 0.70mm
; solid infill extrusion width = 0.70mm
; top infill extrusion width = 0.74mm
; first layer extrusion width = 0.42mm

M107 ; disable fan
M115 U3.1.0 ; tell printer latest fw version
M83  ; extruder relative mode
M104 S255 ; set extruder temp
M140 S75 ; set bed temp
M190 S75 ; wait for bed temp
M109 S255 ; wait for extruder temp
G28 W ; home all without mesh bed level
G80 ; mesh bed leveling
G1 Y-3.0 F1000.0 ; go outside pritn area
G1 X60.0 E9.0  F1000.0 ; intro line
G1 X100.0 E12.5  F1000.0 ; intro line
G92 E0.0
M900 K30
G21 ; set units to millimeters
G90 ; use absolute coordinates
M83 ; use relative distances for extrusion
;BEFORE_LAYER_CHANGE
;0.2


G1 E-0.80000 F2100.00000 ; retract
G1 Z0.600 F7200.000 ; lift Z
;AFTER_LAYER_CHANGE
;0.2
G1 X48.219 Y23.622 F7200.000 ; move to first skirt point
G1 Z0.200 F7200.000 ; restore layer Z
G1 E0.80000 F2100.00000 ; unretract
M204 S1000 ; adjust acceleration
G1 F1800
G1 X48.896 Y22.291 E0.04681 ; skirt
G1 X49.700 Y21.052 E0.04629 ; skirt
G1 X50.633 Y19.898 E0.04655 ; skirt
G1 X51.587 Y18.937 E0.04244 ; skirt
G1 X52.964 Y17.822 E0.05557 ; skirt
G1 X54.115 Y17.081 E0.04291 ; skirt
G1 X55.534 Y16.371 E0.04976 ; skirt
G1 X56.810 Y15.886 E0.04282 ; skirt
G1 X58.245 Y15.502 E0.04655 ; skirt
G1 X59.699 Y15.273 E0.04616 ; skirt
G1 X61.186 Y15.195 E0.04668 ; skirt
G1 X62.665 Y15.272 E0.04642 ; skirt
G1 X64.131 Y15.505 E0.04655 ; skirt
G1 X65.565 Y15.889 E0.04655 ; skirt
G1 X66.940 Y16.416 E0.04617 ; skirt
G1 X68.270 Y17.093 E0.04681 ; skirt
G1 X69.509 Y17.896 E0.04629 ; skirt
G1 X70.664 Y18.829 E0.04655 ; skirt
G1 X71.624 Y19.783 E0.04244 ; skirt
G1 X72.739 Y21.161 E0.05557 ; skirt
G1 X73.480 Y22.311 E0.04291 ; skirt
G1 X74.191 Y23.730 E0.04976 ; skirt
G1 X74.676 Y25.007 E0.04283 ; skirt
G1 X75.059 Y26.441 E0.04655 ; skirt
G1 X75.289 Y27.896 E0.04617 ; skirt
G1 X75.367 Y29.378 E0.04655 ; skirt
G1 X75.289 Y30.861 E0.04655 ; skirt
G1 X75.059 Y32.315 E0.04617 ; skirt
G1 X74.676 Y33.750 E0.04655 ; skirt
G1 X74.191 Y35.027 E0.04282 ; skirt
G1 X73.479 Y36.449 E0.04989 ; skirt
G1 X72.739 Y37.597 E0.04282 ; skirt
G1 X71.624 Y38.975 E0.05556 ; skirt
G1 X70.665 Y39.928 E0.04239 ; skirt
G1 X69.507 Y40.863 E0.04668 ; skirt
G1 X68.272 Y41.665 E0.04617 ; skirt
G1 X66.941 Y42.342 E0.04681 ; skirt
G1 X65.562 Y42.870 E0.04629 ; skirt
G1 X64.132 Y43.253 E0.04642 ; skirt
G1 X62.666 Y43.485 E0.04655 ; skirt
G1 X61.183 Y43.563 E0.04655 ; skirt
G1 X59.701 Y43.486 E0.04655 ; skirt
G1 X58.246 Y43.256 E0.04617 ; skirt
G1 X56.812 Y42.873 E0.04655 ; skirt
G1 X55.531 Y42.386 E0.04295 ; skirt
G1 X54.112 Y41.675 E0.04976 ; skirt
G1 X52.961 Y40.934 E0.04295 ; skirt
G1 X51.587 Y39.821 E0.05544 ; skirt
G1 X50.634 Y38.861 E0.04240 ; skirt
G1 X49.698 Y37.704 E0.04668 ; skirt
G1 X48.897 Y36.468 E0.04617 ; skirt
G1 X48.220 Y35.138 E0.04681 ; skirt
G1 X47.693 Y33.763 E0.04617 ; skirt
G1 X47.309 Y32.329 E0.04655 ; skirt
G1 X47.076 Y30.862 E0.04655 ; skirt
G1 X46.998 Y29.380 E0.04655 ; skirt
G1 X47.076 Y27.897 E0.04655 ; skirt
G1 X47.308 Y26.431 E0.04655 ; skirt
G1 X47.692 Y24.997 E0.04655 ; skirt
G1 X48.198 Y23.678 E0.04428 ; skirt
G1 X48.550 Y23.813 F7200.000 ; move to first skirt point
G1 F1800
G1 X49.224 Y22.478 E0.04689 ; skirt
G1 X50.006 Y21.272 E0.04507 ; skirt
G1 X50.915 Y20.148 E0.04531 ; skirt
G1 X51.854 Y19.204 E0.04173 ; skirt
G1 X53.170 Y18.138 E0.05309 ; skirt
G1 X54.297 Y17.412 E0.04205 ; skirt
G1 X55.670 Y16.723 E0.04817 ; skirt
G1 X56.924 Y16.245 E0.04209 ; skirt
G1 X58.321 Y15.872 E0.04532 ; skirt
G1 X59.741 Y15.647 E0.04507 ; skirt
G1 X61.188 Y15.572 E0.04543 ; skirt
G1 X62.627 Y15.648 E0.04519 ; skirt
G1 X64.051 Y15.873 E0.04519 ; skirt
G1 X65.447 Y16.247 E0.04531 ; skirt
G1 X66.789 Y16.762 E0.04507 ; skirt
G1 X68.084 Y17.420 E0.04555 ; skirt
G1 X69.290 Y18.203 E0.04508 ; skirt
G1 X70.414 Y19.112 E0.04531 ; skirt
G1 X71.358 Y20.050 E0.04173 ; skirt
G1 X72.423 Y21.366 E0.05309 ; skirt
G1 X73.150 Y22.493 E0.04205 ; skirt
G1 X73.839 Y23.866 E0.04817 ; skirt
G1 X74.317 Y25.121 E0.04209 ; skirt
G1 X74.690 Y26.517 E0.04531 ; skirt
G1 X74.914 Y27.937 E0.04508 ; skirt
G1 X74.990 Y29.380 E0.04531 ; skirt
G1 X74.914 Y30.823 E0.04531 ; skirt
G1 X74.688 Y32.247 E0.04519 ; skirt
G1 X74.315 Y33.643 E0.04531 ; skirt
G1 X73.800 Y34.986 E0.04508 ; skirt
G1 X73.141 Y36.280 E0.04555 ; skirt
G1 X72.359 Y37.486 E0.04507 ; skirt
G1 X71.450 Y38.610 E0.04531 ; skirt
G1 X70.512 Y39.554 E0.04173 ; skirt
G1 X69.196 Y40.620 E0.05309 ; skirt
G1 X68.068 Y41.346 E0.04205 ; skirt
G1 X66.695 Y42.035 E0.04817 ; skirt
G1 X65.441 Y42.513 E0.04209 ; skirt
G1 X64.045 Y42.886 E0.04532 ; skirt
G1 X62.625 Y43.111 E0.04507 ; skirt
G1 X61.181 Y43.186 E0.04531 ; skirt
G1 X59.738 Y43.110 E0.04531 ; skirt
G1 X58.314 Y42.885 E0.04519 ; skirt
G1 X56.918 Y42.511 E0.04531 ; skirt
G1 X55.576 Y41.997 E0.04508 ; skirt
G1 X54.281 Y41.338 E0.04555 ; skirt
G1 X53.075 Y40.555 E0.04507 ; skirt
G1 X51.951 Y39.646 E0.04531 ; skirt
G1 X51.008 Y38.708 E0.04173 ; skirt
G1 X49.942 Y37.392 E0.05309 ; skirt
G1 X49.215 Y36.265 E0.04205 ; skirt
G1 X48.526 Y34.892 E0.04817 ; skirt
G1 X48.049 Y33.637 E0.04209 ; skirt
G1 X47.675 Y32.241 E0.04532 ; skirt
G1 X47.451 Y30.821 E0.04507 ; skirt
G1 X47.375 Y29.378 E0.04531 ; skirt
G1 X47.451 Y27.935 E0.04531 ; skirt
G1 X47.677 Y26.511 E0.04519 ; skirt
G1 X48.050 Y25.115 E0.04531 ; skirt
G1 X48.528 Y23.869 E0.04185 ; skirt
G1 F5760
G1 X49.224 Y22.478 E-0.53866 ; wipe and retract
G1 F5760
G1 X49.572 Y21.942 E-0.22134 ; wipe and retract
G1 E-0.04000 F2100.00000 ; retract
G1 Z0.800 F7200.000 ; lift Z
G1 X51.968 Y25.276 F7200.000 ; move to first perimeter point
G1 Z0.200 F7200.000 ; restore layer Z
G1 E0.80000 F2100.00000 ; unretract
G1 F1800
G1 X52.431 Y24.367 E0.03199 ; perimeter
G1 X53.023 Y23.448 E0.03428 ; perimeter
G1 X53.687 Y22.630 E0.03304 ; perimeter
G1 X54.433 Y21.883 E0.03310 ; perimeter
G1 X55.254 Y21.219 E0.03310 ; perimeter
G1 X56.139 Y20.643 E0.03310 ; perimeter
G1 X57.080 Y20.164 E0.03310 ; perimeter
G1 X58.066 Y19.786 E0.03310 ; perimeter
G1 X59.085 Y19.513 E0.03310 ; perimeter
G1 X60.128 Y19.347 E0.03310 ; perimeter
G1 X61.183 Y19.292 E0.03310 ; perimeter
G1 X62.201 Y19.346 E0.03199 ; perimeter
G1 X63.282 Y19.513 E0.03428 ; perimeter
G1 X64.300 Y19.786 E0.03304 ; perimeter
G1 X65.285 Y20.164 E0.03310 ; perimeter
G1 X66.226 Y20.643 E0.03310 ; perimeter
G1 X67.112 Y21.219 E0.03310 ; perimeter
G1 X67.932 Y21.883 E0.03310 ; perimeter
G1 X68.679 Y22.630 E0.03310 ; perimeter
G1 X69.343 Y23.450 E0.03310 ; perimeter
G1 X69.918 Y24.336 E0.03310 ; perimeter
G1 X70.397 Y25.276 E0.03310 ; perimeter
G1 X70.776 Y26.262 E0.03310 ; perimeter
G1 X71.049 Y27.282 E0.03310 ; perimeter
G1 X71.214 Y28.325 E0.03310 ; perimeter
G1 X71.269 Y29.379 E0.03310 ; perimeter
G1 X71.214 Y30.433 E0.03310 ; perimeter
G1 X71.049 Y31.476 E0.03310 ; perimeter
G1 X70.776 Y32.496 E0.03310 ; perimeter
G1 X70.397 Y33.482 E0.03310 ; perimeter
G1 X69.918 Y34.422 E0.03310 ; perimeter
G1 X69.343 Y35.308 E0.03310 ; perimeter
G1 X68.679 Y36.128 E0.03310 ; perimeter
G1 X67.932 Y36.875 E0.03310 ; perimeter
G1 X67.112 Y37.540 E0.03310 ; perimeter
G1 X66.226 Y38.115 E0.03310 ; perimeter
G1 X65.285 Y38.594 E0.03310 ; perimeter
G1 X64.300 Y38.972 E0.03310 ; perimeter
G1 X63.314 Y39.236 E0.03199 ; perimeter
G1 X62.235 Y39.411 E0.03428 ; perimeter
G1 X61.183 Y39.466 E0.03304 ; perimeter
G1 X60.128 Y39.411 E0.03310 ; perimeter
G1 X59.085 Y39.246 E0.03310 ; perimeter
G1 X58.066 Y38.972 E0.03310 ; perimeter
G1 X57.080 Y38.594 E0.03310 ; perimeter
G1 X56.171 Y38.131 E0.03199 ; perimeter
G1 X55.252 Y37.538 E0.03428 ; perimeter
G1 X54.433 Y36.875 E0.03304 ; perimeter
G1 X53.687 Y36.128 E0.03310 ; perimeter
G1 X53.022 Y35.308 E0.03310 ; perimeter
G1 X52.447 Y34.422 E0.03310 ; perimeter
G1 X51.968 Y33.482 E0.03310 ; perimeter
G1 X51.589 Y32.496 E0.03310 ; perimeter
G1 X51.316 Y31.476 E0.03310 ; perimeter
G1 X51.151 Y30.433 E0.03310 ; perimeter
G1 X51.096 Y29.379 E0.03310 ; perimeter
G1 X51.151 Y28.325 E0.03310 ; perimeter
G1 X51.316 Y27.282 E0.03310 ; perimeter
G1 X51.589 Y26.262 E0.03310 ; perimeter
G1 X51.946 Y25.332 E0.03122 ; perimeter
G1 X51.594 Y25.197 F7200.000 ; move to first perimeter point
G1 F1800
G1 X52.104 Y24.179 E0.03570 ; perimeter
G1 X52.718 Y23.227 E0.03552 ; perimeter
G1 X53.406 Y22.377 E0.03430 ; perimeter
G1 X54.180 Y21.602 E0.03434 ; perimeter
G1 X55.032 Y20.913 E0.03434 ; perimeter
G1 X55.950 Y20.316 E0.03434 ; perimeter
G1 X56.926 Y19.819 E0.03434 ; perimeter
G1 X57.949 Y19.427 E0.03434 ; perimeter
G1 X59.007 Y19.143 E0.03434 ; perimeter
G1 X60.089 Y18.972 E0.03434 ; perimeter
G1 X61.183 Y18.915 E0.03434 ; perimeter
G1 X62.240 Y18.970 E0.03321 ; perimeter
G1 X63.360 Y19.144 E0.03552 ; perimeter
G1 X64.416 Y19.427 E0.03430 ; perimeter
G1 X65.439 Y19.819 E0.03434 ; perimeter
G1 X66.415 Y20.316 E0.03434 ; perimeter
G1 X67.333 Y20.913 E0.03434 ; perimeter
G1 X68.185 Y21.602 E0.03434 ; perimeter
G1 X68.959 Y22.377 E0.03434 ; perimeter
G1 X69.649 Y23.228 E0.03434 ; perimeter
G1 X70.245 Y24.147 E0.03434 ; perimeter
G1 X70.742 Y25.123 E0.03434 ; perimeter
G1 X71.135 Y26.145 E0.03434 ; perimeter
G1 X71.418 Y27.203 E0.03434 ; perimeter
G1 X71.590 Y28.285 E0.03434 ; perimeter
G1 X71.647 Y29.379 E0.03434 ; perimeter
G1 X71.590 Y30.473 E0.03434 ; perimeter
G1 X71.418 Y31.555 E0.03434 ; perimeter
G1 X71.135 Y32.613 E0.03434 ; perimeter
G1 X70.742 Y33.635 E0.03434 ; perimeter
G1 X70.245 Y34.611 E0.03434 ; perimeter
G1 X69.649 Y35.530 E0.03434 ; perimeter
G1 X68.959 Y36.381 E0.03434 ; perimeter
G1 X68.185 Y37.156 E0.03434 ; perimeter
G1 X67.333 Y37.845 E0.03434 ; perimeter
G1 X66.415 Y38.442 E0.03434 ; perimeter
G1 X65.439 Y38.939 E0.03434 ; perimeter
G1 X64.416 Y39.331 E0.03434 ; perimeter
G1 X63.393 Y39.606 E0.03321 ; perimeter
G1 X62.275 Y39.786 E0.03552 ; perimeter
G1 X61.183 Y39.844 E0.03430 ; perimeter
G1 X60.089 Y39.786 E0.03434 ; perimeter
G1 X59.007 Y39.615 E0.03434 ; perimeter
G1 X57.949 Y39.331 E0.03434 ; perimeter
G1 X56.926 Y38.939 E0.03434 ; perimeter
G1 X55.983 Y38.458 E0.03321 ; perimeter
G1 X55.030 Y37.844 E0.03552 ; perimeter
G1 X54.180 Y37.156 E0.03430 ; perimeter
G1 X53.406 Y36.381 E0.03434 ; perimeter
G1 X52.717 Y35.530 E0.03434 ; perimeter
G1 X52.120 Y34.611 E0.03434 ; perimeter
G1 X51.623 Y33.635 E0.03434 ; perimeter
G1 X51.230 Y32.613 E0.03434 ; perimeter
G1 X50.947 Y31.555 E0.03434 ; perimeter
G1 X50.775 Y30.473 E0.03434 ; perimeter
G1 X50.718 Y29.379 E0.03434 ; perimeter
G1 X50.775 Y28.285 E0.03434 ; perimeter
G1 X50.947 Y27.203 E0.03434 ; perimeter
G1 X51.230 Y26.145 E0.03434 ; perimeter
G1 X51.573 Y25.253 E0.02996 ; perimeter
G1 X51.221 Y25.118 F7200.000 ; move to first perimeter point
G1 F1800
G1 X51.278 Y24.969 E0.00500 ; perimeter
G1 X51.776 Y23.991 E0.03443 ; perimeter
G1 X52.412 Y23.005 E0.03676 ; perimeter
G1 X53.125 Y22.124 E0.03555 ; perimeter
G1 X53.928 Y21.322 E0.03558 ; perimeter
G1 X54.810 Y20.608 E0.03558 ; perimeter
G1 X55.762 Y19.989 E0.03558 ; perimeter
G1 X56.773 Y19.474 E0.03558 ; perimeter
G1 X57.832 Y19.068 E0.03558 ; perimeter
G1 X58.928 Y18.774 E0.03558 ; perimeter
G1 X60.049 Y18.596 E0.03558 ; perimeter
G1 X61.183 Y18.537 E0.03558 ; perimeter
G1 X62.279 Y18.594 E0.03443 ; perimeter
G1 X63.438 Y18.774 E0.03676 ; perimeter
G1 X64.533 Y19.068 E0.03555 ; perimeter
G1 X65.592 Y19.474 E0.03558 ; perimeter
G1 X66.604 Y19.989 E0.03558 ; perimeter
G1 X67.555 Y20.608 E0.03558 ; perimeter
G1 X68.437 Y21.322 E0.03558 ; perimeter
G1 X69.240 Y22.124 E0.03558 ; perimeter
G1 X69.954 Y23.006 E0.03558 ; perimeter
G1 X70.572 Y23.958 E0.03558 ; perimeter
G1 X71.087 Y24.969 E0.03558 ; perimeter
G1 X71.494 Y26.029 E0.03558 ; perimeter
G1 X71.788 Y27.125 E0.03558 ; perimeter
G1 X71.965 Y28.246 E0.03558 ; perimeter
G1 X72.025 Y29.379 E0.03558 ; perimeter
G1 X71.965 Y30.512 E0.03558 ; perimeter
G1 X71.788 Y31.633 E0.03558 ; perimeter
G1 X71.494 Y32.729 E0.03558 ; perimeter
G1 X71.087 Y33.789 E0.03558 ; perimeter
G1 X70.572 Y34.800 E0.03558 ; perimeter
G1 X69.954 Y35.752 E0.03558 ; perimeter
G1 X69.240 Y36.634 E0.03558 ; perimeter
G1 X68.437 Y37.436 E0.03558 ; perimeter
G1 X67.555 Y38.150 E0.03558 ; perimeter
G1 X66.604 Y38.769 E0.03558 ; perimeter
G1 X65.592 Y39.284 E0.03558 ; perimeter
G1 X64.533 Y39.690 E0.03558 ; perimeter
G1 X63.472 Y39.975 E0.03443 ; perimeter
G1 X62.315 Y40.162 E0.03676 ; perimeter
G1 X61.183 Y40.221 E0.03555 ; perimeter
G1 X60.049 Y40.162 E0.03558 ; perimeter
G1 X58.928 Y39.984 E0.03558 ; perimeter
G1 X57.832 Y39.690 E0.03558 ; perimeter
G1 X56.773 Y39.284 E0.03558 ; perimeter
G1 X55.794 Y38.785 E0.03443 ; perimeter
G1 X54.809 Y38.150 E0.03676 ; perimeter
G1 X53.928 Y37.436 E0.03555 ; perimeter
G1 X53.125 Y36.634 E0.03558 ; perimeter
G1 X52.411 Y35.752 E0.03558 ; perimeter
G1 X51.793 Y34.800 E0.03558 ; perimeter
G1 X51.278 Y33.789 E0.03558 ; perimeter
G1 X50.871 Y32.729 E0.03558 ; perimeter
G1 X50.577 Y31.633 E0.03558 ; perimeter
G1 X50.400 Y30.512 E0.03558 ; perimeter
G1 X50.340 Y29.379 E0.03558 ; perimeter
G1 X50.400 Y28.246 E0.03558 ; perimeter
G1 X50.577 Y27.125 E0.03558 ; perimeter
G1 X50.871 Y26.029 E0.03558 ; perimeter
G1 X51.199 Y25.174 E0.02870 ; perimeter
G1 X50.933 Y24.816 F7200.000 ; move to first perimeter point
G1 F1800
G1 X51.449 Y23.802 E0.03565 ; perimeter
G1 X52.106 Y22.784 E0.03800 ; perimeter
G1 X52.845 Y21.872 E0.03681 ; perimeter
G1 X53.675 Y21.041 E0.03682 ; perimeter
G1 X54.588 Y20.302 E0.03682 ; perimeter
G1 X55.573 Y19.662 E0.03682 ; perimeter
G1 X56.619 Y19.129 E0.03682 ; perimeter
G1 X57.715 Y18.708 E0.03682 ; perimeter
G1 X58.850 Y18.404 E0.03682 ; perimeter
G1 X60.010 Y18.221 E0.03682 ; perimeter
G1 X61.183 Y18.159 E0.03682 ; perimeter
G1 X62.318 Y18.219 E0.03565 ; perimeter
G1 X63.516 Y18.405 E0.03800 ; perimeter
G1 X64.650 Y18.708 E0.03681 ; perimeter
G1 X65.746 Y19.129 E0.03682 ; perimeter
G1 X66.792 Y19.662 E0.03682 ; perimeter
G1 X67.777 Y20.302 E0.03682 ; perimeter
G1 X68.690 Y21.041 E0.03682 ; perimeter
G1 X69.520 Y21.872 E0.03682 ; perimeter
G1 X70.260 Y22.784 E0.03682 ; perimeter
G1 X70.899 Y23.769 E0.03682 ; perimeter
G1 X71.432 Y24.816 E0.03682 ; perimeter
G1 X71.853 Y25.912 E0.03682 ; perimeter
G1 X72.157 Y27.046 E0.03682 ; perimeter
G1 X72.341 Y28.206 E0.03682 ; perimeter
G1 X72.402 Y29.379 E0.03682 ; perimeter
G1 X72.341 Y30.552 E0.03682 ; perimeter
G1 X72.157 Y31.712 E0.03682 ; perimeter
G1 X71.853 Y32.846 E0.03682 ; perimeter
G1 X71.432 Y33.942 E0.03682 ; perimeter
G1 X70.899 Y34.989 E0.03682 ; perimeter
G1 X70.260 Y35.974 E0.03682 ; perimeter
G1 X69.520 Y36.886 E0.03682 ; perimeter
G1 X68.690 Y37.717 E0.03682 ; perimeter
G1 X67.777 Y38.456 E0.03682 ; perimeter
G1 X66.792 Y39.096 E0.03682 ; perimeter
G1 X65.746 Y39.629 E0.03682 ; perimeter
G1 X64.650 Y40.050 E0.03682 ; perimeter
G1 X63.551 Y40.344 E0.03565 ; perimeter
G1 X62.355 Y40.537 E0.03800 ; perimeter
G1 X61.183 Y40.599 E0.03681 ; perimeter
G1 X60.010 Y40.537 E0.03682 ; perimeter
G1 X58.850 Y40.354 E0.03682 ; perimeter
G1 X57.715 Y40.050 E0.03682 ; perimeter
G1 X56.619 Y39.629 E0.03682 ; perimeter
G1 X55.606 Y39.113 E0.03565 ; perimeter
G1 X54.588 Y38.456 E0.03800 ; perimeter
G1 X53.675 Y37.717 E0.03681 ; perimeter
G1 X52.845 Y36.886 E0.03682 ; perimeter
G1 X52.106 Y35.974 E0.03682 ; perimeter
G1 X51.466 Y34.989 E0.03682 ; perimeter
G1 X50.933 Y33.942 E0.03682 ; perimeter
G1 X50.512 Y32.846 E0.03682 ; perimeter
G1 X50.208 Y31.712 E0.03682 ; perimeter
G1 X50.024 Y30.552 E0.03682 ; perimeter
G1 X49.963 Y29.379 E0.03682 ; perimeter
G1 X50.024 Y28.206 E0.03682 ; perimeter
G1 X50.208 Y27.046 E0.03682 ; perimeter
G1 X50.512 Y25.912 E0.03682 ; perimeter
G1 X50.911 Y24.872 E0.03494 ; perimeter
G1 X51.331 Y24.774 F7200.000 ; move inwards before travel
G1 F5760
G1 X51.449 Y23.802 E-0.41449 ; wipe and retract
G1 F5760
G1 X51.990 Y22.964 E-0.34551 ; wipe and retract
G1 E-0.04000 F2100.00000 ; retract
G1 Z0.800 F7200.000 ; lift Z
G1 X52.206 Y33.701 F7200.000 ; move to first infill point
