; generated by Slic3r 1.37.2.1-prusa3d-win64 on 2018-03-09 at 05:06:55

; 

; external perimeters extrusion width = 0.70mm
; perimeters extrusion width = 0.70mm
; infill extrusion width = 0.70mm
; solid infill extrusion width = 0.70mm
; top infill extrusion width = 0.74mm
; first layer extrusion width = 0.42mm

M107 ; disable fan
M115 U3.1.0 ; tell printer latest fw version
M83  ; extruder relative mode
M104 S255 ; set extruder temp
M140 S75 ; set bed temp
M190 S75 ; wait for bed temp
M109 S255 ; wait for extruder temp
G28 W ; home all without mesh bed level
G80 ; mesh bed leveling
G1 Y-3.0 F1000.0 ; go outside pritn area
G1 X60.0 E9.0  F1000.0 ; intro line
G1 X100.0 E12.5  F1000.0 ; intro line
G92 E0.0
M900 K30
G21 ; set units to millimeters
G90 ; use absolute coordinates
M83 ; use relative distances for extrusion
;BEFORE_LAYER_CHANGE
;0.2


G1 E-0.80000 F2100.00000 ; retract
G1 Z0.600 F7200.000 ; lift Z
;AFTER_LAYER_CHANGE
;0.2
G1 X58.394 Y25.015 F7200.000 ; move to first skirt point
G1 Z0.200 F7200.000 ; restore layer Z
G1 E0.80000 F2100.00000 ; unretract
M204 S1000 ; adjust acceleration
G1 F1800
G1 X59.103 Y23.622 E0.04902 ; skirt
G1 X59.940 Y22.331 E0.04825 ; skirt
G1 X60.915 Y21.125 E0.04864 ; skirt
G1 X61.916 Y20.118 E0.04452 ; skirt
G1 X63.345 Y18.960 E0.05765 ; skirt
G1 X64.548 Y18.185 E0.04486 ; skirt
G1 X66.030 Y17.443 E0.05197 ; skirt
G1 X67.369 Y16.934 E0.04491 ; skirt
G1 X68.867 Y16.533 E0.04864 ; skirt
G1 X70.387 Y16.293 E0.04825 ; skirt
G1 X71.940 Y16.212 E0.04877 ; skirt
G1 X73.485 Y16.293 E0.04850 ; skirt
G1 X75.017 Y16.536 E0.04864 ; skirt
G1 X76.516 Y16.937 E0.04863 ; skirt
G1 X77.953 Y17.488 E0.04825 ; skirt
G1 X79.342 Y18.195 E0.04889 ; skirt
G1 X80.637 Y19.035 E0.04838 ; skirt
G1 X81.843 Y20.010 E0.04864 ; skirt
G1 X82.850 Y21.011 E0.04452 ; skirt
G1 X84.008 Y22.439 E0.05765 ; skirt
G1 X84.783 Y23.642 E0.04486 ; skirt
G1 X85.525 Y25.124 E0.05197 ; skirt
G1 X86.034 Y26.463 E0.04491 ; skirt
G1 X86.435 Y27.961 E0.04864 ; skirt
G1 X86.675 Y29.481 E0.04825 ; skirt
G1 X86.756 Y31.030 E0.04864 ; skirt
G1 X86.675 Y32.579 E0.04864 ; skirt
G1 X86.435 Y34.099 E0.04825 ; skirt
G1 X86.035 Y35.598 E0.04864 ; skirt
G1 X85.526 Y36.937 E0.04491 ; skirt
G1 X84.783 Y38.419 E0.05197 ; skirt
G1 X84.008 Y39.623 E0.04491 ; skirt
G1 X82.850 Y41.052 E0.05765 ; skirt
G1 X81.844 Y42.052 E0.04448 ; skirt
G1 X80.638 Y43.027 E0.04864 ; skirt
G1 X79.344 Y43.867 E0.04838 ; skirt
G1 X77.954 Y44.574 E0.04889 ; skirt
G1 X76.517 Y45.125 E0.04825 ; skirt
G1 X75.019 Y45.526 E0.04864 ; skirt
G1 X73.487 Y45.769 E0.04863 ; skirt
G1 X71.938 Y45.850 E0.04864 ; skirt
G1 X70.389 Y45.769 E0.04864 ; skirt
G1 X68.869 Y45.529 E0.04825 ; skirt
G1 X67.370 Y45.129 E0.04863 ; skirt
G1 X66.031 Y44.620 E0.04491 ; skirt
G1 X64.549 Y43.877 E0.05197 ; skirt
G1 X63.345 Y43.102 E0.04491 ; skirt
G1 X61.916 Y41.945 E0.05765 ; skirt
G1 X60.916 Y40.938 E0.04448 ; skirt
G1 X59.939 Y39.729 E0.04876 ; skirt
G1 X59.101 Y38.438 E0.04825 ; skirt
G1 X58.394 Y37.048 E0.04889 ; skirt
G1 X57.843 Y35.611 E0.04825 ; skirt
G1 X57.442 Y34.113 E0.04864 ; skirt
G1 X57.199 Y32.581 E0.04863 ; skirt
G1 X57.118 Y31.032 E0.04864 ; skirt
G1 X57.199 Y29.483 E0.04863 ; skirt
G1 X57.441 Y27.951 E0.04864 ; skirt
G1 X57.843 Y26.452 E0.04863 ; skirt
G1 X58.372 Y25.072 E0.04637 ; skirt
G1 X58.724 Y25.206 F7200.000 ; move to first skirt point
G1 F1800
G1 X59.428 Y23.812 E0.04897 ; skirt
G1 X60.247 Y22.551 E0.04716 ; skirt
G1 X61.198 Y21.375 E0.04740 ; skirt
G1 X62.183 Y20.384 E0.04382 ; skirt
G1 X63.551 Y19.277 E0.05518 ; skirt
G1 X64.733 Y18.514 E0.04413 ; skirt
G1 X66.169 Y17.793 E0.05037 ; skirt
G1 X67.483 Y17.293 E0.04406 ; skirt
G1 X68.943 Y16.903 E0.04740 ; skirt
G1 X70.429 Y16.668 E0.04716 ; skirt
G1 X71.942 Y16.589 E0.04752 ; skirt
G1 X73.448 Y16.668 E0.04728 ; skirt
G1 X74.941 Y16.905 E0.04740 ; skirt
G1 X76.397 Y17.295 E0.04728 ; skirt
G1 X77.802 Y17.833 E0.04716 ; skirt
G1 X79.156 Y18.523 E0.04764 ; skirt
G1 X80.418 Y19.341 E0.04716 ; skirt
G1 X81.593 Y20.292 E0.04740 ; skirt
G1 X82.584 Y21.277 E0.04382 ; skirt
G1 X83.691 Y22.645 E0.05518 ; skirt
G1 X84.454 Y23.828 E0.04413 ; skirt
G1 X85.173 Y25.260 E0.05026 ; skirt
G1 X85.675 Y26.577 E0.04417 ; skirt
G1 X86.065 Y28.037 E0.04740 ; skirt
G1 X86.300 Y29.523 E0.04716 ; skirt
G1 X86.379 Y31.032 E0.04740 ; skirt
G1 X86.300 Y32.542 E0.04740 ; skirt
G1 X86.064 Y34.031 E0.04728 ; skirt
G1 X85.673 Y35.492 E0.04740 ; skirt
G1 X85.135 Y36.896 E0.04716 ; skirt
G1 X84.445 Y38.250 E0.04764 ; skirt
G1 X83.627 Y39.512 E0.04716 ; skirt
G1 X82.676 Y40.687 E0.04740 ; skirt
G1 X81.691 Y41.678 E0.04382 ; skirt
G1 X80.323 Y42.785 E0.05518 ; skirt
G1 X79.140 Y43.548 E0.04413 ; skirt
G1 X77.704 Y44.269 E0.05037 ; skirt
G1 X76.391 Y44.769 E0.04406 ; skirt
G1 X74.931 Y45.159 E0.04740 ; skirt
G1 X73.445 Y45.394 E0.04716 ; skirt
G1 X71.936 Y45.473 E0.04740 ; skirt
G1 X70.426 Y45.394 E0.04740 ; skirt
G1 X68.937 Y45.158 E0.04728 ; skirt
G1 X67.477 Y44.767 E0.04740 ; skirt
G1 X66.072 Y44.229 E0.04716 ; skirt
G1 X64.718 Y43.540 E0.04764 ; skirt
G1 X63.456 Y42.721 E0.04716 ; skirt
G1 X62.281 Y41.770 E0.04740 ; skirt
G1 X61.290 Y40.785 E0.04382 ; skirt
G1 X60.183 Y39.417 E0.05518 ; skirt
G1 X59.420 Y38.235 E0.04413 ; skirt
G1 X58.700 Y36.802 E0.05026 ; skirt
G1 X58.199 Y35.486 E0.04417 ; skirt
G1 X57.809 Y34.025 E0.04740 ; skirt
G1 X57.574 Y32.539 E0.04716 ; skirt
G1 X57.495 Y31.030 E0.04740 ; skirt
G1 X57.574 Y29.520 E0.04740 ; skirt
G1 X57.810 Y28.031 E0.04728 ; skirt
G1 X58.201 Y26.571 E0.04740 ; skirt
G1 X58.702 Y25.262 E0.04393 ; skirt
G1 F5760
G1 X59.428 Y23.812 E-0.56167 ; wipe and retract
G1 F5760
G1 X59.740 Y23.332 E-0.19833 ; wipe and retract
G1 E-0.04000 F2100.00000 ; retract
G1 Z0.800 F7200.000 ; lift Z
G1 X62.142 Y26.670 F7200.000 ; move to first perimeter point
G1 Z0.200 F7200.000 ; restore layer Z
G1 E0.80000 F2100.00000 ; unretract
G1 F1800
G1 X62.651 Y25.670 E0.03519 ; perimeter
G1 X63.263 Y24.729 E0.03519 ; perimeter
G1 X63.969 Y23.857 E0.03519 ; perimeter
G1 X64.763 Y23.063 E0.03519 ; perimeter
G1 X65.635 Y22.357 E0.03519 ; perimeter
G1 X66.576 Y21.746 E0.03519 ; perimeter
G1 X67.576 Y21.236 E0.03519 ; perimeter
G1 X68.624 Y20.834 E0.03519 ; perimeter
G1 X69.708 Y20.543 E0.03519 ; perimeter
G1 X70.816 Y20.368 E0.03519 ; perimeter
G1 X71.937 Y20.309 E0.03519 ; perimeter
G1 X73.020 Y20.366 E0.03401 ; perimeter
G1 X74.168 Y20.544 E0.03643 ; perimeter
G1 X75.250 Y20.834 E0.03512 ; perimeter
G1 X76.298 Y21.236 E0.03519 ; perimeter
G1 X77.298 Y21.746 E0.03519 ; perimeter
G1 X78.239 Y22.357 E0.03519 ; perimeter
G1 X79.111 Y23.063 E0.03519 ; perimeter
G1 X79.905 Y23.857 E0.03519 ; perimeter
G1 X80.611 Y24.729 E0.03519 ; perimeter
G1 X81.222 Y25.670 E0.03519 ; perimeter
G1 X81.732 Y26.670 E0.03519 ; perimeter
G1 X82.134 Y27.718 E0.03519 ; perimeter
G1 X82.425 Y28.802 E0.03519 ; perimeter
G1 X82.600 Y29.910 E0.03519 ; perimeter
G1 X82.659 Y31.031 E0.03519 ; perimeter
G1 X82.600 Y32.152 E0.03519 ; perimeter
G1 X82.425 Y33.260 E0.03519 ; perimeter
G1 X82.134 Y34.344 E0.03519 ; perimeter
G1 X81.732 Y35.392 E0.03519 ; perimeter
G1 X81.239 Y36.359 E0.03401 ; perimeter
G1 X80.610 Y37.335 E0.03643 ; perimeter
G1 X79.905 Y38.205 E0.03512 ; perimeter
G1 X79.111 Y38.999 E0.03519 ; perimeter
G1 X78.239 Y39.705 E0.03519 ; perimeter
G1 X77.298 Y40.317 E0.03519 ; perimeter
G1 X76.298 Y40.826 E0.03519 ; perimeter
G1 X75.250 Y41.228 E0.03519 ; perimeter
G1 X74.166 Y41.519 E0.03519 ; perimeter
G1 X73.058 Y41.694 E0.03519 ; perimeter
G1 X71.937 Y41.753 E0.03519 ; perimeter
G1 X70.816 Y41.694 E0.03519 ; perimeter
G1 X69.708 Y41.519 E0.03519 ; perimeter
G1 X68.624 Y41.228 E0.03519 ; perimeter
G1 X67.576 Y40.826 E0.03519 ; perimeter
G1 X66.576 Y40.317 E0.03519 ; perimeter
G1 X65.635 Y39.705 E0.03519 ; perimeter
G1 X64.763 Y38.999 E0.03519 ; perimeter
G1 X63.969 Y38.205 E0.03519 ; perimeter
G1 X63.286 Y37.363 E0.03401 ; perimeter
G1 X62.650 Y36.390 E0.03643 ; perimeter
G1 X62.142 Y35.392 E0.03512 ; perimeter
G1 X61.740 Y34.344 E0.03519 ; perimeter
G1 X61.449 Y33.260 E0.03519 ; perimeter
G1 X61.274 Y32.152 E0.03519 ; perimeter
G1 X61.215 Y31.031 E0.03519 ; perimeter
G1 X61.274 Y29.910 E0.03519 ; perimeter
G1 X61.449 Y28.802 E0.03519 ; perimeter
G1 X61.740 Y27.718 E0.03519 ; perimeter
G1 X62.120 Y26.726 E0.03331 ; perimeter
G1 X61.768 Y26.591 F7200.000 ; move to first perimeter point
G1 F1800
G1 X62.324 Y25.481 E0.03892 ; perimeter
G1 X62.957 Y24.507 E0.03643 ; perimeter
G1 X63.688 Y23.604 E0.03643 ; perimeter
G1 X64.510 Y22.783 E0.03643 ; perimeter
G1 X65.413 Y22.051 E0.03643 ; perimeter
G1 X66.387 Y21.419 E0.03643 ; perimeter
G1 X67.422 Y20.891 E0.03643 ; perimeter
G1 X68.507 Y20.475 E0.03643 ; perimeter
G1 X69.629 Y20.174 E0.03643 ; perimeter
G1 X70.777 Y19.992 E0.03643 ; perimeter
G1 X71.937 Y19.932 E0.03643 ; perimeter
G1 X73.059 Y19.990 E0.03523 ; perimeter
G1 X74.246 Y20.175 E0.03767 ; perimeter
G1 X75.367 Y20.475 E0.03638 ; perimeter
G1 X76.452 Y20.891 E0.03643 ; perimeter
G1 X77.487 Y21.419 E0.03643 ; perimeter
G1 X78.461 Y22.051 E0.03643 ; perimeter
G1 X79.364 Y22.783 E0.03643 ; perimeter
G1 X80.185 Y23.604 E0.03643 ; perimeter
G1 X80.917 Y24.507 E0.03643 ; perimeter
G1 X81.549 Y25.481 E0.03643 ; perimeter
G1 X82.077 Y26.517 E0.03643 ; perimeter
G1 X82.493 Y27.601 E0.03643 ; perimeter
G1 X82.794 Y28.723 E0.03643 ; perimeter
G1 X82.976 Y29.871 E0.03643 ; perimeter
G1 X83.036 Y31.031 E0.03643 ; perimeter
G1 X82.976 Y32.191 E0.03643 ; perimeter
G1 X82.794 Y33.339 E0.03643 ; perimeter
G1 X82.493 Y34.461 E0.03643 ; perimeter
G1 X82.077 Y35.546 E0.03643 ; perimeter
G1 X81.567 Y36.547 E0.03523 ; perimeter
G1 X80.916 Y37.556 E0.03767 ; perimeter
G1 X80.185 Y38.458 E0.03638 ; perimeter
G1 X79.364 Y39.280 E0.03643 ; perimeter
G1 X78.461 Y40.011 E0.03643 ; perimeter
G1 X77.487 Y40.644 E0.03643 ; perimeter
G1 X76.452 Y41.171 E0.03643 ; perimeter
G1 X75.367 Y41.587 E0.03643 ; perimeter
G1 X74.245 Y41.888 E0.03643 ; perimeter
G1 X73.097 Y42.070 E0.03643 ; perimeter
G1 X71.937 Y42.131 E0.03643 ; perimeter
G1 X70.777 Y42.070 E0.03643 ; perimeter
G1 X69.629 Y41.888 E0.03643 ; perimeter
G1 X68.507 Y41.587 E0.03643 ; perimeter
G1 X67.422 Y41.171 E0.03643 ; perimeter
G1 X66.387 Y40.644 E0.03643 ; perimeter
G1 X65.413 Y40.011 E0.03643 ; perimeter
G1 X64.510 Y39.280 E0.03643 ; perimeter
G1 X63.688 Y38.458 E0.03643 ; perimeter
G1 X62.981 Y37.585 E0.03523 ; perimeter
G1 X62.324 Y36.579 E0.03767 ; perimeter
G1 X61.797 Y35.546 E0.03638 ; perimeter
G1 X61.381 Y34.461 E0.03643 ; perimeter
G1 X61.080 Y33.339 E0.03643 ; perimeter
G1 X60.898 Y32.191 E0.03643 ; perimeter
G1 X60.837 Y31.031 E0.03643 ; perimeter
G1 X60.898 Y29.871 E0.03643 ; perimeter
G1 X61.080 Y28.723 E0.03643 ; perimeter
G1 X61.381 Y27.601 E0.03643 ; perimeter
G1 X61.747 Y26.647 E0.03205 ; perimeter
G1 X61.395 Y26.512 F7200.000 ; move to first perimeter point
G1 F1800
G1 X61.452 Y26.363 E0.00500 ; perimeter
G1 X61.997 Y25.293 E0.03767 ; perimeter
G1 X62.652 Y24.285 E0.03767 ; perimeter
G1 X63.408 Y23.351 E0.03767 ; perimeter
G1 X64.257 Y22.502 E0.03767 ; perimeter
G1 X65.191 Y21.746 E0.03767 ; perimeter
G1 X66.198 Y21.092 E0.03767 ; perimeter
G1 X67.269 Y20.546 E0.03767 ; perimeter
G1 X68.390 Y20.116 E0.03767 ; perimeter
G1 X69.551 Y19.805 E0.03767 ; perimeter
G1 X70.737 Y19.617 E0.03767 ; perimeter
G1 X71.937 Y19.554 E0.03767 ; perimeter
G1 X73.098 Y19.615 E0.03645 ; perimeter
G1 X74.324 Y19.805 E0.03891 ; perimeter
G1 X75.484 Y20.116 E0.03764 ; perimeter
G1 X76.605 Y20.546 E0.03767 ; perimeter
G1 X77.675 Y21.092 E0.03767 ; perimeter
G1 X78.683 Y21.746 E0.03767 ; perimeter
G1 X79.617 Y22.502 E0.03767 ; perimeter
G1 X80.466 Y23.351 E0.03767 ; perimeter
G1 X81.222 Y24.285 E0.03767 ; perimeter
G1 X81.876 Y25.293 E0.03767 ; perimeter
G1 X82.422 Y26.363 E0.03767 ; perimeter
G1 X82.852 Y27.484 E0.03767 ; perimeter
G1 X83.163 Y28.645 E0.03767 ; perimeter
G1 X83.351 Y29.831 E0.03767 ; perimeter
G1 X83.414 Y31.031 E0.03767 ; perimeter
G1 X83.351 Y32.231 E0.03767 ; perimeter
G1 X83.163 Y33.417 E0.03767 ; perimeter
G1 X82.852 Y34.578 E0.03767 ; perimeter
G1 X82.422 Y35.699 E0.03767 ; perimeter
G1 X81.894 Y36.735 E0.03645 ; perimeter
G1 X81.222 Y37.778 E0.03891 ; perimeter
G1 X80.466 Y38.711 E0.03764 ; perimeter
G1 X79.617 Y39.560 E0.03767 ; perimeter
G1 X78.683 Y40.316 E0.03767 ; perimeter
G1 X77.675 Y40.971 E0.03767 ; perimeter
G1 X76.605 Y41.516 E0.03767 ; perimeter
G1 X75.484 Y41.946 E0.03767 ; perimeter
G1 X74.323 Y42.257 E0.03767 ; perimeter
G1 X73.137 Y42.445 E0.03767 ; perimeter
G1 X71.937 Y42.508 E0.03767 ; perimeter
G1 X70.737 Y42.445 E0.03767 ; perimeter
G1 X69.551 Y42.257 E0.03767 ; perimeter
G1 X68.390 Y41.946 E0.03767 ; perimeter
G1 X67.269 Y41.516 E0.03767 ; perimeter
G1 X66.198 Y40.971 E0.03767 ; perimeter
G1 X65.191 Y40.316 E0.03767 ; perimeter
G1 X64.257 Y39.560 E0.03767 ; perimeter
G1 X63.408 Y38.711 E0.03767 ; perimeter
G1 X62.676 Y37.807 E0.03645 ; perimeter
G1 X61.997 Y36.769 E0.03891 ; perimeter
G1 X61.452 Y35.699 E0.03764 ; perimeter
G1 X61.022 Y34.578 E0.03767 ; perimeter
G1 X60.711 Y33.417 E0.03767 ; perimeter
G1 X60.523 Y32.231 E0.03767 ; perimeter
G1 X60.460 Y31.031 E0.03767 ; perimeter
G1 X60.523 Y29.831 E0.03767 ; perimeter
G1 X60.711 Y28.645 E0.03767 ; perimeter
G1 X61.022 Y27.484 E0.03767 ; perimeter
G1 X61.373 Y26.568 E0.03078 ; perimeter
G1 X61.107 Y26.209 F7200.000 ; move to first perimeter point
G1 F1800
G1 X61.670 Y25.104 E0.03891 ; perimeter
G1 X62.346 Y24.063 E0.03891 ; perimeter
G1 X63.127 Y23.099 E0.03891 ; perimeter
G1 X64.005 Y22.221 E0.03891 ; perimeter
G1 X64.969 Y21.440 E0.03891 ; perimeter
G1 X66.010 Y20.765 E0.03891 ; perimeter
G1 X67.115 Y20.201 E0.03891 ; perimeter
G1 X68.274 Y19.757 E0.03891 ; perimeter
G1 X69.472 Y19.435 E0.03891 ; perimeter
G1 X70.698 Y19.241 E0.03891 ; perimeter
G1 X71.937 Y19.176 E0.03891 ; perimeter
G1 X73.137 Y19.239 E0.03767 ; perimeter
G1 X74.402 Y19.436 E0.04015 ; perimeter
G1 X75.600 Y19.757 E0.03890 ; perimeter
G1 X76.759 Y20.201 E0.03891 ; perimeter
G1 X77.864 Y20.765 E0.03891 ; perimeter
G1 X78.905 Y21.440 E0.03891 ; perimeter
G1 X79.869 Y22.221 E0.03891 ; perimeter
G1 X80.747 Y23.099 E0.03891 ; perimeter
G1 X81.528 Y24.063 E0.03891 ; perimeter
G1 X82.203 Y25.104 E0.03891 ; perimeter
G1 X82.767 Y26.209 E0.03891 ; perimeter
G1 X83.211 Y27.368 E0.03891 ; perimeter
G1 X83.533 Y28.566 E0.03891 ; perimeter
G1 X83.727 Y29.792 E0.03891 ; perimeter
G1 X83.792 Y31.031 E0.03891 ; perimeter
G1 X83.727 Y32.270 E0.03891 ; perimeter
G1 X83.533 Y33.496 E0.03891 ; perimeter
G1 X83.211 Y34.694 E0.03891 ; perimeter
G1 X82.767 Y35.853 E0.03891 ; perimeter
G1 X82.221 Y36.923 E0.03767 ; perimeter
G1 X81.527 Y37.999 E0.04015 ; perimeter
G1 X80.747 Y38.963 E0.03890 ; perimeter
G1 X79.869 Y39.841 E0.03891 ; perimeter
G1 X78.905 Y40.622 E0.03891 ; perimeter
G1 X77.864 Y41.298 E0.03891 ; perimeter
G1 X76.759 Y41.861 E0.03891 ; perimeter
G1 X75.600 Y42.306 E0.03891 ; perimeter
G1 X74.402 Y42.627 E0.03891 ; perimeter
G1 X73.176 Y42.821 E0.03891 ; perimeter
G1 X71.937 Y42.886 E0.03891 ; perimeter
G1 X70.698 Y42.821 E0.03891 ; perimeter
G1 X69.472 Y42.627 E0.03891 ; perimeter
G1 X68.274 Y42.306 E0.03891 ; perimeter
G1 X67.115 Y41.861 E0.03891 ; perimeter
G1 X66.010 Y41.298 E0.03891 ; perimeter
G1 X64.969 Y40.622 E0.03891 ; perimeter
G1 X64.005 Y39.841 E0.03891 ; perimeter
G1 X63.127 Y38.963 E0.03891 ; perimeter
G1 X62.371 Y38.030 E0.03767 ; perimeter
G1 X61.670 Y36.958 E0.04015 ; perimeter
G1 X61.107 Y35.853 E0.03890 ; perimeter
G1 X60.662 Y34.694 E0.03891 ; perimeter
G1 X60.341 Y33.496 E0.03891 ; perimeter
G1 X60.147 Y32.270 E0.03891 ; perimeter
G1 X60.082 Y31.031 E0.03891 ; perimeter
G1 X60.147 Y29.792 E0.03891 ; perimeter
G1 X60.341 Y28.566 E0.03891 ; perimeter
G1 X60.662 Y27.368 E0.03891 ; perimeter
G1 X61.086 Y26.265 E0.03702 ; perimeter
G1 X61.505 Y26.168 F7200.000 ; move inwards before travel
G1 F5760
G1 X61.670 Y25.104 E-0.45045 ; wipe and retract
G1 F5760
G1 X62.157 Y24.354 E-0.30955 ; wipe and retract
G1 E-0.04000 F2100.00000 ; retract
G1 Z0.800 F7200.000 ; lift Z
G1 X62.452 Y35.751 F7200.000 ; move to first infill point
