; generated by Slic3r 1.37.2.1-prusa3d-win64 on 2018-02-18 at 13:35:07

; 

; external perimeters extrusion width = 0.70mm
; perimeters extrusion width = 0.70mm
; infill extrusion width = 0.70mm
; solid infill extrusion width = 0.70mm
; top infill extrusion width = 0.74mm
; first layer extrusion width = 0.42mm

M107 ; disable fan
M115 U3.1.0 ; tell printer latest fw version
M83  ; extruder relative mode
M104 S255 ; set extruder temp
M140 S70 ; set bed temp
M190 S70 ; wait for bed temp
M109 S255 ; wait for extruder temp
G28 W ; home all without mesh bed level
G80 ; mesh bed leveling
G1 Y-3.0 F1000.0 ; go outside pritn area
G1 X60.0 E9.0  F1000.0 ; intro line
G1 X100.0 E12.5  F1000.0 ; intro line
G92 E0.0
M900 K30
G21 ; set units to millimeters
G90 ; use absolute coordinates
M83 ; use relative distances for extrusion
;BEFORE_LAYER_CHANGE
;0.2


G1 E-0.80000 F2100.00000 ; retract
G1 Z0.600 F7200.000 ; lift Z
;AFTER_LAYER_CHANGE
;0.2
G1 X92.893 Y35.538 F7200.000 ; move to first skirt point
G1 Z0.200 F7200.000 ; restore layer Z
G1 E0.80000 F2100.00000 ; unretract
M204 S1000 ; adjust acceleration
G1 F1800
G1 X94.065 Y32.710 E0.09600 ; skirt
G1 X95.673 Y29.695 E0.10713 ; skirt
G1 X96.246 Y28.777 E0.03392 ; skirt
G1 X98.035 Y26.269 E0.09658 ; skirt
G1 X100.527 Y23.482 E0.11722 ; skirt
G1 X102.805 Y21.395 E0.09688 ; skirt
G1 X105.570 Y19.343 E0.10795 ; skirt
G1 X108.553 Y17.581 E0.10863 ; skirt
G1 X111.651 Y16.173 E0.10669 ; skirt
G1 X114.974 Y15.065 E0.10985 ; skirt
G1 X118.285 Y14.341 E0.10626 ; skirt
G1 X121.753 Y13.956 E0.10940 ; skirt
G1 X124.761 Y13.934 E0.09431 ; skirt
G1 X128.545 Y14.285 E0.11916 ; skirt
G1 X131.563 Y14.905 E0.09661 ; skirt
G1 X132.615 Y15.189 E0.03417 ; skirt
G1 X135.874 Y16.312 E0.10808 ; skirt
G1 X138.691 Y17.609 E0.09724 ; skirt
G1 X141.668 Y19.371 E0.10846 ; skirt
G1 X144.407 Y21.410 E0.10706 ; skirt
G1 X146.923 Y23.732 E0.10735 ; skirt
G1 X149.216 Y26.345 E0.10900 ; skirt
G1 X151.173 Y29.120 E0.10647 ; skirt
G1 X152.854 Y32.130 E0.10811 ; skirt
G1 X154.091 Y34.998 E0.09791 ; skirt
G1 X155.211 Y38.562 E0.11714 ; skirt
G1 X155.815 Y41.603 E0.09723 ; skirt
G1 X155.969 Y42.731 E0.03568 ; skirt
G1 X156.187 Y46.132 E0.10687 ; skirt
G1 X156.087 Y49.176 E0.09549 ; skirt
G1 X155.619 Y52.619 E0.10895 ; skirt
G1 X154.813 Y55.900 E0.10592 ; skirt
G1 X153.629 Y59.188 E0.10957 ; skirt
G1 X152.142 Y62.247 E0.10665 ; skirt
G1 X150.328 Y65.164 E0.10770 ; skirt
G1 X148.184 Y67.913 E0.10932 ; skirt
G1 X146.034 Y70.147 E0.09721 ; skirt
G1 X143.167 Y72.578 E0.11786 ; skirt
G1 X140.614 Y74.301 E0.09658 ; skirt
G1 X139.682 Y74.851 E0.03392 ; skirt
G1 X136.625 Y76.379 E0.10714 ; skirt
G1 X133.789 Y77.471 E0.09529 ; skirt
G1 X130.397 Y78.389 E0.11020 ; skirt
G1 X127.064 Y78.920 E0.10582 ; skirt
G1 X123.386 Y79.105 E0.11548 ; skirt
G1 X120.129 Y78.921 E0.10227 ; skirt
G1 X116.692 Y78.368 E0.10915 ; skirt
G1 X113.393 Y77.469 E0.10721 ; skirt
G1 X110.185 Y76.221 E0.10791 ; skirt
G1 X107.074 Y74.611 E0.10985 ; skirt
G1 X104.229 Y72.732 E0.10688 ; skirt
G1 X101.587 Y70.555 E0.10735 ; skirt
G1 X99.445 Y68.391 E0.09548 ; skirt
G1 X97.261 Y65.708 E0.10846 ; skirt
G1 X96.633 Y64.817 E0.03417 ; skirt
G1 X95.024 Y62.203 E0.09624 ; skirt
G1 X93.408 Y58.797 E0.11821 ; skirt
G1 X92.365 Y55.860 E0.09773 ; skirt
G1 X91.542 Y52.455 E0.10985 ; skirt
G1 X91.097 Y49.105 E0.10594 ; skirt
G1 X91.003 Y45.722 E0.10613 ; skirt
G1 X91.272 Y42.260 E0.10885 ; skirt
G1 X91.894 Y38.908 E0.10689 ; skirt
G1 X92.876 Y35.596 E0.10834 ; skirt
G1 F5760
G1 X93.712 Y33.567 E-0.76000 ; wipe and retract
G1 E-0.04000 F2100.00000 ; retract
G1 Z0.800 F7200.000 ; lift Z
G1 X94.689 Y36.142 F7200.000 ; move to first brim point
G1 Z0.200 F7200.000 ; restore layer Z
G1 E0.80000 F2100.00000 ; unretract
G1 F1800
G1 X95.944 Y33.148 E0.10179 ; brim
G1 X97.495 Y30.324 E0.10101 ; brim
G1 X99.335 Y27.678 E0.10104 ; brim
G1 X101.441 Y25.239 E0.10103 ; brim
G1 X103.792 Y23.034 E0.10108 ; brim
G1 X106.399 Y21.064 E0.10246 ; brim
G1 X109.225 Y19.366 E0.10335 ; brim
G1 X112.650 Y17.813 E0.11791 ; brim
G1 X115.683 Y16.833 E0.09996 ; brim
G1 X118.814 Y16.171 E0.10032 ; brim
G1 X121.988 Y15.839 E0.10008 ; brim
G1 X125.183 Y15.837 E0.10017 ; brim
G1 X128.379 Y16.171 E0.10075 ; brim
G1 X131.530 Y16.839 E0.10100 ; brim
G1 X134.594 Y17.834 E0.10099 ; brim
G1 X137.527 Y19.138 E0.10065 ; brim
G1 X140.767 Y21.046 E0.11788 ; brim
G1 X143.384 Y23.022 E0.10284 ; brim
G1 X145.780 Y25.271 E0.10303 ; brim
G1 X147.870 Y27.696 E0.10038 ; brim
G1 X149.706 Y30.342 E0.10099 ; brim
G1 X151.247 Y33.148 E0.10036 ; brim
G1 X152.487 Y36.099 E0.10038 ; brim
G1 X153.414 Y39.164 E0.10037 ; brim
G1 X154.017 Y42.314 E0.10057 ; brim
G1 X154.288 Y45.504 E0.10038 ; brim
G1 X154.225 Y48.714 E0.10067 ; brim
G1 X153.819 Y51.943 E0.10203 ; brim
G1 X153.066 Y55.139 E0.10297 ; brim
G1 X151.980 Y58.222 E0.10249 ; brim
G1 X150.573 Y61.178 E0.10265 ; brim
G1 X148.579 Y64.363 E0.11781 ; brim
G1 X146.635 Y66.808 E0.09795 ; brim
G1 X144.431 Y69.065 E0.09892 ; brim
G1 X141.970 Y71.110 E0.10031 ; brim
G1 X139.291 Y72.900 E0.10103 ; brim
G1 X136.439 Y74.400 E0.10102 ; brim
G1 X133.458 Y75.588 E0.10064 ; brim
G1 X129.833 Y76.575 E0.11779 ; brim
G1 X126.593 Y77.068 E0.10273 ; brim
G1 X123.332 Y77.214 E0.10236 ; brim
G1 X120.137 Y77.019 E0.10037 ; brim
G1 X116.979 Y76.494 E0.10036 ; brim
G1 X113.894 Y75.642 E0.10034 ; brim
G1 X110.915 Y74.474 E0.10034 ; brim
G1 X108.073 Y73.003 E0.10033 ; brim
G1 X105.384 Y71.232 E0.10097 ; brim
G1 X102.909 Y69.202 E0.10035 ; brim
G1 X100.659 Y66.926 E0.10037 ; brim
G1 X98.620 Y64.375 E0.10238 ; brim
G1 X96.863 Y61.619 E0.10249 ; brim
G1 X95.408 Y58.692 E0.10249 ; brim
G1 X94.269 Y55.619 E0.10274 ; brim
G1 X93.376 Y51.970 E0.11780 ; brim
G1 X92.972 Y48.783 E0.10072 ; brim
G1 X92.900 Y45.569 E0.10080 ; brim
G1 X93.168 Y42.357 E0.10106 ; brim
G1 X93.767 Y39.204 E0.10063 ; brim
G1 X94.672 Y36.199 E0.09839 ; brim
G1 X95.033 Y36.308 F7200.000 ; move to first brim point
G1 F1800
G1 X96.287 Y33.303 E0.10211 ; brim
G1 X97.821 Y30.515 E0.09977 ; brim
G1 X99.639 Y27.902 E0.09980 ; brim
G1 X101.720 Y25.494 E0.09979 ; brim
G1 X104.043 Y23.316 E0.09983 ; brim
G1 X106.619 Y21.371 E0.10121 ; brim
G1 X109.409 Y19.695 E0.10207 ; brim
G1 X112.776 Y18.168 E0.11589 ; brim
G1 X115.790 Y17.195 E0.09932 ; brim
G1 X118.882 Y16.542 E0.09908 ; brim
G1 X122.018 Y16.215 E0.09885 ; brim
G1 X125.173 Y16.215 E0.09893 ; brim
G1 X128.329 Y16.545 E0.09951 ; brim
G1 X131.442 Y17.206 E0.09976 ; brim
G1 X134.468 Y18.189 E0.09975 ; brim
G1 X137.364 Y19.478 E0.09939 ; brim
G1 X140.548 Y21.353 E0.11587 ; brim
G1 X143.133 Y23.304 E0.10155 ; brim
G1 X145.501 Y25.525 E0.10178 ; brim
G1 X147.566 Y27.920 E0.09914 ; brim
G1 X149.381 Y30.533 E0.09975 ; brim
G1 X150.903 Y33.303 E0.09912 ; brim
G1 X152.136 Y36.236 E0.09976 ; brim
G1 X153.050 Y39.263 E0.09913 ; brim
G1 X153.645 Y42.375 E0.09933 ; brim
G1 X153.911 Y45.526 E0.09914 ; brim
G1 X153.848 Y48.696 E0.09944 ; brim
G1 X153.446 Y51.885 E0.10078 ; brim
G1 X152.701 Y55.042 E0.10171 ; brim
G1 X151.628 Y58.087 E0.10122 ; brim
G1 X150.237 Y61.006 E0.10137 ; brim
G1 X148.277 Y64.136 E0.11580 ; brim
G1 X146.346 Y66.566 E0.09731 ; brim
G1 X144.168 Y68.795 E0.09771 ; brim
G1 X141.737 Y70.814 E0.09908 ; brim
G1 X139.090 Y72.581 E0.09980 ; brim
G1 X136.273 Y74.061 E0.09978 ; brim
G1 X133.328 Y75.234 E0.09938 ; brim
G1 X129.765 Y76.204 E0.11578 ; brim
G1 X126.566 Y76.692 E0.10145 ; brim
G1 X123.345 Y76.837 E0.10111 ; brim
G1 X120.189 Y76.646 E0.09913 ; brim
G1 X117.051 Y76.123 E0.09974 ; brim
G1 X114.004 Y75.281 E0.09911 ; brim
G1 X111.062 Y74.127 E0.09910 ; brim
G1 X108.256 Y72.673 E0.09910 ; brim
G1 X105.600 Y70.923 E0.09973 ; brim
G1 X103.156 Y68.917 E0.09912 ; brim
G1 X100.934 Y66.668 E0.09913 ; brim
G1 X98.921 Y64.147 E0.10113 ; brim
G1 X97.186 Y61.425 E0.10123 ; brim
G1 X95.750 Y58.533 E0.10123 ; brim
G1 X94.627 Y55.499 E0.10146 ; brim
G1 X93.749 Y51.912 E0.11579 ; brim
G1 X93.348 Y48.765 E0.09946 ; brim
G1 X93.277 Y45.590 E0.09956 ; brim
G1 X93.540 Y42.418 E0.09982 ; brim
G1 X94.135 Y39.284 E0.10001 ; brim
G1 X95.015 Y36.366 E0.09558 ; brim
G1 X95.376 Y36.474 F7200.000 ; move to first brim point
G1 F1800
G1 X96.623 Y33.476 E0.10182 ; brim
G1 X98.136 Y30.722 E0.09853 ; brim
G1 X99.942 Y28.125 E0.09918 ; brim
G1 X101.999 Y25.748 E0.09855 ; brim
G1 X104.293 Y23.598 E0.09859 ; brim
G1 X106.838 Y21.678 E0.09995 ; brim
G1 X109.594 Y20.024 E0.10079 ; brim
G1 X112.902 Y18.524 E0.11387 ; brim
G1 X115.878 Y17.562 E0.09806 ; brim
G1 X118.931 Y16.916 E0.09785 ; brim
G1 X122.027 Y16.592 E0.09762 ; brim
G1 X125.163 Y16.592 E0.09831 ; brim
G1 X128.280 Y16.919 E0.09827 ; brim
G1 X131.354 Y17.573 E0.09853 ; brim
G1 X134.342 Y18.545 E0.09851 ; brim
G1 X137.200 Y19.818 E0.09813 ; brim
G1 X140.330 Y21.661 E0.11386 ; brim
G1 X142.883 Y23.586 E0.10027 ; brim
G1 X145.222 Y25.779 E0.10052 ; brim
G1 X147.262 Y28.143 E0.09790 ; brim
G1 X149.055 Y30.723 E0.09852 ; brim
G1 X150.559 Y33.459 E0.09789 ; brim
G1 X151.778 Y36.355 E0.09852 ; brim
G1 X152.681 Y39.344 E0.09790 ; brim
G1 X153.270 Y42.416 E0.09809 ; brim
G1 X153.535 Y45.547 E0.09852 ; brim
G1 X153.471 Y48.679 E0.09820 ; brim
G1 X153.073 Y51.828 E0.09953 ; brim
G1 X152.336 Y54.946 E0.10044 ; brim
G1 X151.276 Y57.952 E0.09996 ; brim
G1 X149.901 Y60.834 E0.10010 ; brim
G1 X147.975 Y63.910 E0.11380 ; brim
G1 X146.070 Y66.310 E0.09607 ; brim
G1 X143.919 Y68.511 E0.09649 ; brim
G1 X141.504 Y70.518 E0.09846 ; brim
G1 X138.889 Y72.262 E0.09855 ; brim
G1 X136.106 Y73.723 E0.09854 ; brim
G1 X133.199 Y74.880 E0.09812 ; brim
G1 X129.697 Y75.833 E0.11377 ; brim
G1 X126.539 Y76.315 E0.10017 ; brim
G1 X123.357 Y76.460 E0.09987 ; brim
G1 X120.241 Y76.272 E0.09789 ; brim
G1 X117.142 Y75.757 E0.09850 ; brim
G1 X114.133 Y74.927 E0.09787 ; brim
G1 X111.209 Y73.780 E0.09848 ; brim
G1 X108.438 Y72.343 E0.09786 ; brim
G1 X105.816 Y70.613 E0.09850 ; brim
G1 X103.403 Y68.632 E0.09788 ; brim
G1 X101.210 Y66.410 E0.09790 ; brim
G1 X99.222 Y63.920 E0.09988 ; brim
G1 X97.509 Y61.231 E0.09997 ; brim
G1 X96.092 Y58.375 E0.09997 ; brim
G1 X94.984 Y55.378 E0.10018 ; brim
G1 X94.121 Y51.853 E0.11377 ; brim
G1 X93.725 Y48.747 E0.09820 ; brim
G1 X93.654 Y45.612 E0.09832 ; brim
G1 X93.912 Y42.478 E0.09858 ; brim
G1 X94.499 Y39.383 E0.09876 ; brim
G1 X95.358 Y36.532 E0.09339 ; brim
G1 X95.719 Y36.640 F7200.000 ; move to first brim point
G1 F1800
G1 X95.764 Y36.492 E0.00486 ; brim
G1 X96.966 Y33.631 E0.09730 ; brim
G1 X98.462 Y30.912 E0.09729 ; brim
G1 X100.246 Y28.349 E0.09793 ; brim
G1 X102.277 Y26.002 E0.09731 ; brim
G1 X104.544 Y23.880 E0.09734 ; brim
G1 X107.057 Y21.985 E0.09870 ; brim
G1 X109.779 Y20.353 E0.09951 ; brim
G1 X113.028 Y18.879 E0.11186 ; brim
G1 X115.966 Y17.929 E0.09680 ; brim
G1 X118.980 Y17.290 E0.09662 ; brim
G1 X122.037 Y16.969 E0.09639 ; brim
G1 X125.134 Y16.968 E0.09708 ; brim
G1 X128.212 Y17.290 E0.09704 ; brim
G1 X131.247 Y17.935 E0.09729 ; brim
G1 X134.197 Y18.893 E0.09727 ; brim
G1 X137.037 Y20.158 E0.09748 ; brim
G1 X140.111 Y21.968 E0.11184 ; brim
G1 X142.648 Y23.881 E0.09962 ; brim
G1 X144.943 Y26.033 E0.09864 ; brim
G1 X146.958 Y28.366 E0.09666 ; brim
G1 X148.729 Y30.913 E0.09728 ; brim
G1 X150.216 Y33.614 E0.09665 ; brim
G1 X151.420 Y36.474 E0.09728 ; brim
G1 X152.317 Y39.443 E0.09727 ; brim
G1 X152.897 Y42.477 E0.09686 ; brim
G1 X153.158 Y45.569 E0.09728 ; brim
G1 X153.094 Y48.661 E0.09696 ; brim
G1 X152.701 Y51.771 E0.09829 ; brim
G1 X151.972 Y54.849 E0.09918 ; brim
G1 X150.923 Y57.817 E0.09870 ; brim
G1 X149.566 Y60.662 E0.09883 ; brim
G1 X147.674 Y63.684 E0.11180 ; brim
G1 X145.780 Y66.067 E0.09544 ; brim
G1 X143.656 Y68.240 E0.09527 ; brim
G1 X141.271 Y70.221 E0.09723 ; brim
G1 X138.688 Y71.943 E0.09731 ; brim
G1 X135.940 Y73.384 E0.09730 ; brim
G1 X133.069 Y74.525 E0.09686 ; brim
G1 X129.630 Y75.462 E0.11177 ; brim
G1 X126.512 Y75.939 E0.09889 ; brim
G1 X123.370 Y76.083 E0.09862 ; brim
G1 X120.293 Y75.898 E0.09665 ; brim
G1 X117.232 Y75.391 E0.09727 ; brim
G1 X114.261 Y74.572 E0.09664 ; brim
G1 X111.373 Y73.440 E0.09725 ; brim
G1 X108.637 Y72.022 E0.09663 ; brim
G1 X106.047 Y70.315 E0.09726 ; brim
G1 X103.664 Y68.360 E0.09665 ; brim
G1 X101.485 Y66.152 E0.09727 ; brim
G1 X99.523 Y63.693 E0.09863 ; brim
G1 X97.833 Y61.037 E0.09871 ; brim
G1 X96.434 Y58.216 E0.09871 ; brim
G1 X95.341 Y55.257 E0.09890 ; brim
G1 X94.494 Y51.795 E0.11176 ; brim
G1 X94.100 Y48.709 E0.09756 ; brim
G1 X94.031 Y45.613 E0.09708 ; brim
G1 X94.287 Y42.519 E0.09733 ; brim
G1 X94.868 Y39.464 E0.09752 ; brim
G1 X95.702 Y36.698 E0.09058 ; brim
G1 X96.062 Y36.806 F7200.000 ; move to first brim point
G1 F1800
G1 X96.115 Y36.629 E0.00581 ; brim
G1 X97.310 Y33.786 E0.09668 ; brim
G1 X98.787 Y31.103 E0.09604 ; brim
G1 X100.550 Y28.572 E0.09669 ; brim
G1 X102.556 Y26.257 E0.09606 ; brim
G1 X104.794 Y24.163 E0.09610 ; brim
G1 X107.276 Y22.292 E0.09744 ; brim
G1 X109.963 Y20.682 E0.09824 ; brim
G1 X113.154 Y19.235 E0.10986 ; brim
G1 X116.053 Y18.296 E0.09555 ; brim
G1 X119.049 Y17.661 E0.09600 ; brim
G1 X122.067 Y17.345 E0.09515 ; brim
G1 X125.124 Y17.345 E0.09584 ; brim
G1 X128.162 Y17.664 E0.09580 ; brim
G1 X131.159 Y18.301 E0.09605 ; brim
G1 X134.071 Y19.249 E0.09603 ; brim
G1 X136.874 Y20.498 E0.09622 ; brim
G1 X139.893 Y22.276 E0.10984 ; brim
G1 X142.397 Y24.164 E0.09834 ; brim
G1 X144.664 Y26.287 E0.09739 ; brim
G1 X146.654 Y28.590 E0.09543 ; brim
G1 X148.404 Y31.104 E0.09604 ; brim
G1 X149.881 Y33.787 E0.09603 ; brim
G1 X151.068 Y36.611 E0.09604 ; brim
G1 X151.954 Y39.543 E0.09604 ; brim
G1 X152.525 Y42.538 E0.09562 ; brim
G1 X152.782 Y45.591 E0.09605 ; brim
G1 X152.718 Y48.643 E0.09572 ; brim
G1 X152.328 Y51.713 E0.09704 ; brim
G1 X151.607 Y54.752 E0.09792 ; brim
G1 X150.571 Y57.682 E0.09744 ; brim
G1 X149.230 Y60.489 E0.09755 ; brim
G1 X147.372 Y63.458 E0.10981 ; brim
G1 X145.504 Y65.811 E0.09420 ; brim
G1 X143.408 Y67.956 E0.09404 ; brim
G1 X141.053 Y69.913 E0.09599 ; brim
G1 X138.504 Y71.613 E0.09607 ; brim
G1 X135.791 Y73.037 E0.09606 ; brim
G1 X132.940 Y74.171 E0.09622 ; brim
G1 X129.562 Y75.090 E0.10976 ; brim
G1 X126.485 Y75.563 E0.09762 ; brim
G1 X123.382 Y75.706 E0.09737 ; brim
G1 X120.345 Y75.525 E0.09542 ; brim
G1 X117.323 Y75.025 E0.09603 ; brim
G1 X114.371 Y74.211 E0.09601 ; brim
G1 X111.520 Y73.093 E0.09601 ; brim
G1 X108.820 Y71.692 E0.09539 ; brim
G1 X106.263 Y70.006 E0.09603 ; brim
G1 X103.911 Y68.075 E0.09541 ; brim
G1 X101.760 Y65.894 E0.09603 ; brim
G1 X99.825 Y63.466 E0.09738 ; brim
G1 X98.157 Y60.843 E0.09745 ; brim
G1 X96.777 Y58.058 E0.09746 ; brim
G1 X95.699 Y55.137 E0.09762 ; brim
G1 X94.867 Y51.737 E0.10976 ; brim
G1 X94.477 Y48.690 E0.09630 ; brim
G1 X94.407 Y45.634 E0.09584 ; brim
G1 X94.659 Y42.580 E0.09609 ; brim
G1 X95.232 Y39.563 E0.09628 ; brim
G1 X96.045 Y36.864 E0.08838 ; brim
G1 X96.474 Y36.747 F7200.000 ; move to first brim point
G1 F1800
G1 X97.654 Y33.942 E0.09543 ; brim
G1 X99.113 Y31.293 E0.09480 ; brim
G1 X100.853 Y28.796 E0.09545 ; brim
G1 X102.834 Y26.511 E0.09482 ; brim
G1 X105.044 Y24.445 E0.09486 ; brim
G1 X107.495 Y22.599 E0.09619 ; brim
G1 X110.148 Y21.011 E0.09696 ; brim
G1 X113.281 Y19.590 E0.10786 ; brim
G1 X116.141 Y18.662 E0.09429 ; brim
G1 X119.098 Y18.035 E0.09476 ; brim
G1 X122.096 Y17.721 E0.09453 ; brim
G1 X125.114 Y17.722 E0.09460 ; brim
G1 X128.113 Y18.038 E0.09456 ; brim
G1 X131.070 Y18.668 E0.09481 ; brim
G1 X133.945 Y19.604 E0.09479 ; brim
G1 X136.711 Y20.838 E0.09496 ; brim
G1 X139.674 Y22.583 E0.10784 ; brim
G1 X142.147 Y24.446 E0.09705 ; brim
G1 X144.385 Y26.541 E0.09614 ; brim
G1 X146.350 Y28.814 E0.09419 ; brim
G1 X148.078 Y31.295 E0.09480 ; brim
G1 X149.537 Y33.943 E0.09479 ; brim
G1 X150.710 Y36.729 E0.09480 ; brim
G1 X151.585 Y39.623 E0.09479 ; brim
G1 X152.153 Y42.599 E0.09500 ; brim
G1 X152.405 Y45.612 E0.09480 ; brim
G1 X152.341 Y48.625 E0.09448 ; brim
G1 X151.955 Y51.656 E0.09579 ; brim
G1 X151.243 Y54.655 E0.09666 ; brim
G1 X150.219 Y57.547 E0.09618 ; brim
G1 X148.894 Y60.317 E0.09628 ; brim
G1 X147.070 Y63.232 E0.10782 ; brim
G1 X145.227 Y65.554 E0.09296 ; brim
G1 X143.145 Y67.686 E0.09343 ; brim
G1 X140.820 Y69.616 E0.09476 ; brim
G1 X138.303 Y71.294 E0.09483 ; brim
