; generated by Slic3r 1.37.2.1-prusa3d-win64 on 2018-02-12 at 16:58:09

; 

; external perimeters extrusion width = 0.42mm
; perimeters extrusion width = 0.45mm
; infill extrusion width = 0.45mm
; solid infill extrusion width = 0.45mm
; top infill extrusion width = 0.42mm
; first layer extrusion width = 0.42mm

M107 ; disable fan
M115 U3.1.0 ; tell printer latest fw version
M83  ; extruder relative mode
M104 S255 ; set extruder temp
M140 S100 ; set bed temp
M190 S100 ; wait for bed temp
M109 S255 ; wait for extruder temp
G28 W ; home all without mesh bed level
G80 ; mesh bed leveling
G1 Y-3.0 F1000.0 ; go outside pritn area
G1 X60.0 E9.0  F1000.0 ; intro line
G1 X100.0 E12.5  F1000.0 ; intro line
G92 E0.0
M900 K30
G21 ; set units to millimeters
G90 ; use absolute coordinates
M83 ; use relative distances for extrusion
;BEFORE_LAYER_CHANGE
;0.2


G1 E-0.80000 F2100.00000 ; retract
G1 Z0.600 F7200.000 ; lift Z
;AFTER_LAYER_CHANGE
;0.2
G1 X39.204 Y20.586 F7200.000 ; move to first skirt point
G1 Z0.200 F7200.000 ; restore layer Z
G1 E0.80000 F2100.00000 ; unretract
M204 S1000 ; adjust acceleration
G1 F1800
G1 X40.696 Y18.149 E0.08962 ; skirt
G1 X41.983 Y16.509 E0.06536 ; skirt
G1 X43.252 Y15.178 E0.05766 ; skirt
G1 X45.474 Y13.287 E0.09148 ; skirt
G1 X47.218 Y12.130 E0.06562 ; skirt
G1 X48.853 Y11.257 E0.05812 ; skirt
G1 X51.445 Y10.198 E0.08780 ; skirt
G1 X54.201 Y9.487 E0.08924 ; skirt
G1 X56.039 Y9.213 E0.05825 ; skirt
G1 X58.185 Y9.104 E0.06739 ; skirt
G1 X88.355 Y9.983 E0.94635 ; skirt
G1 X90.450 Y10.116 E0.06583 ; skirt
G1 X93.031 Y10.575 E0.08218 ; skirt
G1 X94.773 Y11.065 E0.05676 ; skirt
G1 X96.439 Y11.700 E0.05590 ; skirt
G1 X98.837 Y12.896 E0.08403 ; skirt
G1 X100.923 Y14.278 E0.07845 ; skirt
G1 X102.598 Y15.674 E0.06837 ; skirt
G1 X104.129 Y17.239 E0.06865 ; skirt
G1 X105.523 Y18.994 E0.07029 ; skirt
G1 X106.624 Y20.708 E0.06386 ; skirt
G1 X107.735 Y22.905 E0.07719 ; skirt
G1 X108.427 Y24.737 E0.06139 ; skirt
G1 X109.023 Y26.927 E0.07118 ; skirt
G1 X109.227 Y27.998 E0.03417 ; skirt
G1 X109.458 Y29.893 E0.05987 ; skirt
G1 X109.505 Y32.172 E0.07147 ; skirt
G1 X109.321 Y34.364 E0.06898 ; skirt
G1 X108.886 Y36.630 E0.07235 ; skirt
G1 X108.245 Y38.748 E0.06939 ; skirt
G1 X107.366 Y40.838 E0.07109 ; skirt
G1 X106.277 Y42.813 E0.07070 ; skirt
G1 X105.039 Y44.597 E0.06810 ; skirt
G1 X103.464 Y46.417 E0.07546 ; skirt
G1 X101.788 Y47.973 E0.07172 ; skirt
G1 X99.929 Y49.360 E0.07272 ; skirt
G1 X97.977 Y50.514 E0.07111 ; skirt
G1 X95.877 Y51.472 E0.07238 ; skirt
G1 X93.684 Y52.199 E0.07243 ; skirt
G1 X91.444 Y52.683 E0.07185 ; skirt
G1 X89.140 Y52.927 E0.07264 ; skirt
G1 X87.151 Y52.938 E0.06237 ; skirt
G1 X57.303 Y52.060 E0.93627 ; skirt
G1 X55.171 Y51.861 E0.06715 ; skirt
G1 X52.572 Y51.327 E0.08318 ; skirt
G1 X50.102 Y50.485 E0.08182 ; skirt
G1 X47.857 Y49.412 E0.07803 ; skirt
G1 X46.362 Y48.514 E0.05466 ; skirt
G1 X44.867 Y47.426 E0.05798 ; skirt
G1 X42.593 Y45.339 E0.09677 ; skirt
G1 X41.310 Y43.858 E0.06144 ; skirt
G1 X40.158 Y42.236 E0.06239 ; skirt
G1 X38.764 Y39.713 E0.09036 ; skirt
G1 X38.037 Y37.977 E0.05900 ; skirt
G1 X37.505 Y36.289 E0.05550 ; skirt
G1 X36.923 Y33.490 E0.08964 ; skirt
G1 X36.732 Y30.660 E0.08892 ; skirt
G1 X36.797 Y28.849 E0.05685 ; skirt
G1 X37.037 Y26.969 E0.05940 ; skirt
G1 X37.775 Y23.974 E0.09671 ; skirt
G1 X38.416 Y22.239 E0.05800 ; skirt
G1 X39.178 Y20.640 E0.05553 ; skirt
G1 F5760
G1 X40.320 Y18.767 E-0.76000 ; wipe and retract
G1 E-0.04000 F2100.00000 ; retract
G1 Z0.800 F7200.000 ; lift Z
G1 X73.488 Y18.349 F7200.000 ; move to first brim point
G1 Z0.200 F7200.000 ; restore layer Z
G1 E0.80000 F2100.00000 ; unretract
G1 F1800
G1 X74.714 Y17.087 E0.05516 ; brim
G1 X76.282 Y15.781 E0.06400 ; brim
G1 X77.981 Y14.642 E0.06411 ; brim
G1 X79.790 Y13.687 E0.06415 ; brim
G1 X81.757 Y12.902 E0.06641 ; brim
G1 X83.925 Y12.306 E0.07050 ; brim
G1 X86.095 Y11.967 E0.06885 ; brim
G1 X88.134 Y11.872 E0.06402 ; brim
G1 X90.181 Y11.990 E0.06428 ; brim
G1 X92.200 Y12.321 E0.06415 ; brim
G1 X94.175 Y12.861 E0.06421 ; brim
G1 X96.086 Y13.605 E0.06429 ; brim
G1 X97.899 Y14.540 E0.06398 ; brim
G1 X99.669 Y15.705 E0.06643 ; brim
G1 X101.335 Y17.083 E0.06777 ; brim
G1 X102.898 Y18.705 E0.07065 ; brim
G1 X104.166 Y20.352 E0.06516 ; brim
G1 X105.232 Y22.085 E0.06380 ; brim
G1 X106.120 Y23.939 E0.06445 ; brim
G1 X106.809 Y25.875 E0.06443 ; brim
G1 X107.291 Y27.873 E0.06445 ; brim
G1 X107.562 Y29.912 E0.06448 ; brim
G1 X107.617 Y31.967 E0.06448 ; brim
G1 X107.454 Y34.040 E0.06517 ; brim
G1 X107.076 Y36.066 E0.06464 ; brim
G1 X106.488 Y38.042 E0.06462 ; brim
G1 X105.704 Y39.926 E0.06399 ; brim
G1 X104.714 Y41.742 E0.06486 ; brim
G1 X103.504 Y43.487 E0.06659 ; brim
G1 X102.087 Y45.118 E0.06772 ; brim
G1 X100.514 Y46.571 E0.06716 ; brim
G1 X98.785 Y47.848 E0.06738 ; brim
G1 X97.129 Y48.822 E0.06024 ; brim
G1 X95.385 Y49.631 E0.06027 ; brim
G1 X93.425 Y50.306 E0.06502 ; brim
G1 X91.413 Y50.770 E0.06473 ; brim
G1 X89.398 Y51.014 E0.06363 ; brim
G1 X88.050 Y51.064 E0.04229 ; brim
G1 X86.799 Y51.025 E0.03925 ; brim
G1 X84.708 Y50.781 E0.06602 ; brim
G1 X82.696 Y50.325 E0.06469 ; brim
G1 X80.749 Y49.663 E0.06446 ; brim
G1 X78.944 Y48.832 E0.06230 ; brim
G1 X77.222 Y47.816 E0.06271 ; brim
G1 X75.596 Y46.617 E0.06333 ; brim
G1 X74.096 Y45.251 E0.06362 ; brim
G1 X72.729 Y43.715 E0.06445 ; brim
G1 X72.152 Y44.368 E0.02732 ; brim
G1 X70.621 Y45.761 E0.06490 ; brim
G1 X69.005 Y46.950 E0.06293 ; brim
G1 X67.276 Y47.968 E0.06288 ; brim
G1 X65.430 Y48.812 E0.06364 ; brim
G1 X63.499 Y49.462 E0.06390 ; brim
G1 X61.449 Y49.919 E0.06586 ; brim
G1 X59.511 Y50.144 E0.06117 ; brim
G1 X58.180 Y50.188 E0.04175 ; brim
G1 X56.911 Y50.143 E0.03981 ; brim
G1 X54.902 Y49.906 E0.06342 ; brim
G1 X52.951 Y49.468 E0.06271 ; brim
G1 X51.038 Y48.826 E0.06326 ; brim
G1 X49.190 Y47.986 E0.06366 ; brim
G1 X47.442 Y46.961 E0.06351 ; brim
G1 X45.685 Y45.659 E0.06858 ; brim
G1 X44.209 Y44.297 E0.06295 ; brim
G1 X42.885 Y42.798 E0.06271 ; brim
G1 X41.608 Y40.994 E0.06932 ; brim
G1 X40.616 Y39.211 E0.06397 ; brim
G1 X39.817 Y37.337 E0.06387 ; brim
G1 X39.230 Y35.447 E0.06208 ; brim
G1 X38.836 Y33.497 E0.06235 ; brim
G1 X38.626 Y31.102 E0.07539 ; brim
G1 X38.701 Y28.800 E0.07222 ; brim
G1 X38.987 Y26.810 E0.06305 ; brim
G1 X39.475 Y24.862 E0.06296 ; brim
G1 X40.145 Y23.009 E0.06179 ; brim
G1 X40.991 Y21.245 E0.06132 ; brim
G1 X42.207 Y19.288 E0.07227 ; brim
G1 X43.385 Y17.782 E0.05992 ; brim
G1 X44.717 Y16.385 E0.06054 ; brim
G1 X46.518 Y14.869 E0.07381 ; brim
G1 X48.130 Y13.789 E0.06082 ; brim
G1 X49.858 Y12.866 E0.06142 ; brim
G1 X52.057 Y11.989 E0.07426 ; brim
G1 X54.349 Y11.379 E0.07435 ; brim
G1 X56.427 Y11.077 E0.06584 ; brim
G1 X58.496 Y10.997 E0.06492 ; brim
G1 X60.392 Y11.116 E0.05955 ; brim
G1 X62.286 Y11.422 E0.06016 ; brim
G1 X64.278 Y11.956 E0.06467 ; brim
G1 X66.191 Y12.691 E0.06424 ; brim
G1 X68.007 Y13.616 E0.06390 ; brim
G1 X69.836 Y14.813 E0.06855 ; brim
G1 X71.602 Y16.279 E0.07197 ; brim
G1 X73.017 Y17.749 E0.06398 ; brim
G1 X73.451 Y18.302 E0.02203 ; brim
G1 X73.457 Y18.923 F7200.000 ; move to first brim point
G1 F1800
G1 X74.963 Y17.371 E0.06780 ; brim
G1 X76.501 Y16.088 E0.06277 ; brim
G1 X78.166 Y14.971 E0.06287 ; brim
G1 X79.957 Y14.025 E0.06352 ; brim
G1 X81.867 Y13.263 E0.06448 ; brim
G1 X84.015 Y12.672 E0.06983 ; brim
G1 X86.122 Y12.343 E0.06688 ; brim
G1 X88.142 Y12.249 E0.06339 ; brim
G1 X90.149 Y12.366 E0.06304 ; brim
G1 X92.129 Y12.691 E0.06292 ; brim
G1 X94.066 Y13.222 E0.06297 ; brim
G1 X95.939 Y13.953 E0.06305 ; brim
G1 X97.718 Y14.870 E0.06274 ; brim
G1 X99.453 Y16.015 E0.06517 ; brim
G1 X101.070 Y17.352 E0.06581 ; brim
G1 X102.619 Y18.959 E0.06998 ; brim
G1 X103.850 Y20.558 E0.06326 ; brim
G1 X104.896 Y22.257 E0.06257 ; brim
G1 X105.768 Y24.075 E0.06321 ; brim
G1 X106.444 Y25.973 E0.06319 ; brim
G1 X106.919 Y27.933 E0.06321 ; brim
G1 X107.185 Y29.932 E0.06324 ; brim
G1 X107.241 Y31.948 E0.06323 ; brim
G1 X107.082 Y33.981 E0.06393 ; brim
G1 X106.712 Y35.968 E0.06340 ; brim
G1 X106.136 Y37.906 E0.06338 ; brim
G1 X105.368 Y39.754 E0.06275 ; brim
G1 X104.399 Y41.535 E0.06359 ; brim
G1 X103.200 Y43.264 E0.06595 ; brim
G1 X101.810 Y44.863 E0.06643 ; brim
G1 X100.266 Y46.287 E0.06586 ; brim
G1 X98.569 Y47.538 E0.06610 ; brim
G1 X96.946 Y48.493 E0.05904 ; brim
G1 X95.253 Y49.278 E0.05851 ; brim
G1 X93.330 Y49.941 E0.06378 ; brim
G1 X91.338 Y50.400 E0.06410 ; brim
G1 X89.376 Y50.638 E0.06196 ; brim
G1 X88.043 Y50.687 E0.04184 ; brim
G1 X86.819 Y50.648 E0.03838 ; brim
G1 X84.762 Y50.408 E0.06496 ; brim
G1 X82.789 Y49.960 E0.06343 ; brim
G1 X80.898 Y49.316 E0.06263 ; brim
G1 X79.127 Y48.503 E0.06110 ; brim
G1 X77.437 Y47.507 E0.06150 ; brim
G1 X75.843 Y46.332 E0.06210 ; brim
G1 X74.358 Y44.979 E0.06300 ; brim
G1 X73.015 Y43.469 E0.06336 ; brim
G1 X72.756 Y43.113 E0.01377 ; brim
G1 X71.891 Y44.097 E0.04108 ; brim
G1 X70.390 Y45.463 E0.06365 ; brim
G1 X68.805 Y46.630 E0.06171 ; brim
G1 X67.093 Y47.638 E0.06227 ; brim
G1 X65.283 Y48.464 E0.06241 ; brim
G1 X63.388 Y49.102 E0.06267 ; brim
G1 X61.396 Y49.546 E0.06400 ; brim
G1 X59.475 Y49.768 E0.06062 ; brim
G1 X58.187 Y49.811 E0.04042 ; brim
G1 X56.947 Y49.768 E0.03889 ; brim
G1 X54.975 Y49.536 E0.06226 ; brim
G1 X53.061 Y49.107 E0.06150 ; brim
G1 X51.185 Y48.479 E0.06204 ; brim
G1 X49.355 Y47.646 E0.06305 ; brim
G1 X47.659 Y46.652 E0.06164 ; brim
G1 X45.933 Y45.374 E0.06732 ; brim
G1 X44.485 Y44.040 E0.06173 ; brim
G1 X43.187 Y42.572 E0.06146 ; brim
G1 X41.932 Y40.802 E0.06804 ; brim
G1 X40.959 Y39.054 E0.06273 ; brim
G1 X40.174 Y37.216 E0.06265 ; brim
G1 X39.593 Y35.344 E0.06147 ; brim
G1 X39.208 Y33.433 E0.06112 ; brim
G1 X39.003 Y31.103 E0.07335 ; brim
G1 X39.075 Y28.843 E0.07088 ; brim
G1 X39.355 Y26.892 E0.06182 ; brim
G1 X39.833 Y24.981 E0.06176 ; brim
G1 X40.490 Y23.163 E0.06060 ; brim
G1 X41.327 Y21.418 E0.06070 ; brim
G1 X42.511 Y19.512 E0.07035 ; brim
G1 X43.676 Y18.022 E0.05931 ; brim
G1 X44.983 Y16.653 E0.05934 ; brim
G1 X46.736 Y15.176 E0.07187 ; brim
G1 X48.332 Y14.108 E0.06020 ; brim
G1 X50.026 Y13.204 E0.06021 ; brim
G1 X52.165 Y12.350 E0.07222 ; brim
G1 X54.414 Y11.751 E0.07298 ; brim
G1 X56.452 Y11.453 E0.06456 ; brim
G1 X58.482 Y11.374 E0.06371 ; brim
G1 X60.341 Y11.490 E0.05839 ; brim
G1 X62.198 Y11.789 E0.05898 ; brim
G1 X64.152 Y12.312 E0.06344 ; brim
G1 X66.029 Y13.032 E0.06301 ; brim
G1 X67.809 Y13.937 E0.06263 ; brim
G1 X69.604 Y15.111 E0.06723 ; brim
G1 X71.338 Y16.549 E0.07064 ; brim
G1 X72.739 Y18.004 E0.06333 ; brim
G1 X73.421 Y18.875 E0.03469 ; brim
G1 X73.463 Y19.543 F7200.000 ; move to first brim point
G1 F1800
G1 X73.821 Y19.089 E0.01813 ; brim
G1 X75.213 Y17.654 E0.06269 ; brim
G1 X76.719 Y16.396 E0.06153 ; brim
G1 X78.351 Y15.300 E0.06162 ; brim
G1 X80.124 Y14.363 E0.06289 ; brim
G1 X81.978 Y13.624 E0.06256 ; brim
G1 X84.104 Y13.038 E0.06916 ; brim
G1 X86.170 Y12.717 E0.06555 ; brim
G1 X88.149 Y12.626 E0.06212 ; brim
G1 X90.117 Y12.742 E0.06180 ; brim
G1 X92.058 Y13.062 E0.06168 ; brim
G1 X93.956 Y13.583 E0.06174 ; brim
G1 X95.793 Y14.300 E0.06182 ; brim
G1 X97.535 Y15.201 E0.06150 ; brim
G1 X99.236 Y16.324 E0.06391 ; brim
G1 X100.806 Y17.621 E0.06386 ; brim
G1 X102.340 Y19.213 E0.06932 ; brim
G1 X103.534 Y20.764 E0.06135 ; brim
G1 X104.570 Y22.447 E0.06195 ; brim
G1 X105.423 Y24.229 E0.06197 ; brim
G1 X106.086 Y26.090 E0.06195 ; brim
G1 X106.550 Y28.012 E0.06197 ; brim
G1 X106.810 Y29.972 E0.06200 ; brim
G1 X106.863 Y31.948 E0.06199 ; brim
G1 X106.709 Y33.922 E0.06207 ; brim
G1 X106.348 Y35.871 E0.06215 ; brim
G1 X105.784 Y37.771 E0.06214 ; brim
G1 X105.032 Y39.583 E0.06151 ; brim
G1 X104.083 Y41.329 E0.06231 ; brim
G1 X102.896 Y43.040 E0.06530 ; brim
G1 X101.532 Y44.607 E0.06513 ; brim
G1 X100.018 Y46.003 E0.06456 ; brim
G1 X98.369 Y47.218 E0.06422 ; brim
G1 X96.779 Y48.154 E0.05786 ; brim
G1 X95.103 Y48.931 E0.05792 ; brim
G1 X93.217 Y49.581 E0.06256 ; brim
G1 X91.263 Y50.030 E0.06285 ; brim
G1 X89.339 Y50.263 E0.06077 ; brim
G1 X88.036 Y50.310 E0.04089 ; brim
G1 X86.839 Y50.272 E0.03753 ; brim
G1 X84.816 Y50.035 E0.06389 ; brim
G1 X82.882 Y49.594 E0.06217 ; brim
G1 X81.047 Y48.970 E0.06080 ; brim
G1 X79.294 Y48.164 E0.06049 ; brim
G1 X77.637 Y47.187 E0.06029 ; brim
G1 X76.075 Y46.034 E0.06089 ; brim
G1 X74.633 Y44.721 E0.06116 ; brim
G1 X73.303 Y43.226 E0.06273 ; brim
G1 X72.786 Y42.508 E0.02773 ; brim
G1 X71.629 Y43.825 E0.05499 ; brim
G1 X70.158 Y45.166 E0.06239 ; brim
G1 X68.589 Y46.321 E0.06109 ; brim
G1 X66.911 Y47.308 E0.06105 ; brim
G1 X65.135 Y48.117 E0.06119 ; brim
G1 X63.278 Y48.741 E0.06144 ; brim
G1 X61.343 Y49.173 E0.06215 ; brim
G1 X59.440 Y49.393 E0.06007 ; brim
G1 X58.193 Y49.434 E0.03909 ; brim
G1 X56.983 Y49.392 E0.03796 ; brim
G1 X55.048 Y49.166 E0.06109 ; brim
G1 X53.153 Y48.741 E0.06088 ; brim
G1 X51.314 Y48.125 E0.06082 ; brim
G1 X49.520 Y47.307 E0.06182 ; brim
G1 X47.858 Y46.332 E0.06041 ; brim
G1 X46.181 Y45.090 E0.06543 ; brim
G1 X44.761 Y43.783 E0.06050 ; brim
G1 X43.476 Y42.330 E0.06083 ; brim
G1 X42.257 Y40.609 E0.06613 ; brim
G1 X41.302 Y38.896 E0.06149 ; brim
G1 X40.531 Y37.095 E0.06143 ; brim
G1 X39.961 Y35.260 E0.06025 ; brim
G1 X39.579 Y33.369 E0.06048 ; brim
G1 X39.380 Y31.104 E0.07130 ; brim
G1 X39.450 Y28.886 E0.06955 ; brim
G1 X39.724 Y26.974 E0.06058 ; brim
G1 X40.191 Y25.100 E0.06055 ; brim
G1 X40.841 Y23.300 E0.05999 ; brim
G1 X41.662 Y21.590 E0.05948 ; brim
G1 X42.814 Y19.736 E0.06844 ; brim
G1 X43.955 Y18.275 E0.05812 ; brim
G1 X45.248 Y16.920 E0.05873 ; brim
G1 X46.955 Y15.484 E0.06994 ; brim
G1 X48.518 Y14.436 E0.05899 ; brim
G1 X50.194 Y13.541 E0.05959 ; brim
G1 X52.274 Y12.712 E0.07019 ; brim
G1 X54.480 Y12.122 E0.07161 ; brim
G1 X56.477 Y11.829 E0.06328 ; brim
G1 X58.468 Y11.751 E0.06249 ; brim
G1 X60.290 Y11.864 E0.05723 ; brim
G1 X62.110 Y12.156 E0.05779 ; brim
G1 X64.027 Y12.668 E0.06221 ; brim
G1 X65.867 Y13.372 E0.06177 ; brim
G1 X67.611 Y14.259 E0.06136 ; brim
G1 X69.371 Y15.408 E0.06590 ; brim
G1 X71.074 Y16.818 E0.06931 ; brim
G1 X72.461 Y18.258 E0.06269 ; brim
G1 X73.426 Y19.496 E0.04923 ; brim
G1 X73.463 Y20.156 F7200.000 ; move to first brim point
G1 F1800
G1 X74.099 Y19.344 E0.03236 ; brim
G1 X75.462 Y17.936 E0.06144 ; brim
G1 X76.938 Y16.703 E0.06029 ; brim
G1 X78.553 Y15.618 E0.06100 ; brim
G1 X80.291 Y14.701 E0.06164 ; brim
G1 X82.107 Y13.978 E0.06129 ; brim
G1 X84.173 Y13.409 E0.06718 ; brim
G1 X86.198 Y13.093 E0.06425 ; brim
G1 X88.137 Y13.003 E0.06087 ; brim
G1 X90.065 Y13.115 E0.06056 ; brim
G1 X91.968 Y13.428 E0.06045 ; brim
G1 X93.829 Y13.938 E0.06050 ; brim
G1 X95.629 Y14.640 E0.06058 ; brim
G1 X97.336 Y15.521 E0.06025 ; brim
G1 X99.004 Y16.621 E0.06264 ; brim
G1 X100.558 Y17.905 E0.06320 ; brim
G1 X102.048 Y19.452 E0.06734 ; brim
G1 X103.218 Y20.970 E0.06010 ; brim
G1 X104.234 Y22.619 E0.06071 ; brim
G1 X105.072 Y24.365 E0.06073 ; brim
G1 X105.722 Y26.189 E0.06071 ; brim
G1 X106.177 Y28.071 E0.06073 ; brim
G1 X106.433 Y29.992 E0.06076 ; brim
G1 X106.487 Y31.929 E0.06075 ; brim
G1 X106.336 Y33.863 E0.06082 ; brim
G1 X105.983 Y35.773 E0.06091 ; brim
G1 X105.432 Y37.636 E0.06091 ; brim
G1 X104.696 Y39.412 E0.06027 ; brim
G1 X103.767 Y41.123 E0.06104 ; brim
G1 X102.604 Y42.801 E0.06400 ; brim
G1 X101.255 Y44.352 E0.06448 ; brim
G1 X99.786 Y45.705 E0.06262 ; brim
G1 X98.169 Y46.898 E0.06299 ; brim
G1 X96.612 Y47.816 E0.05668 ; brim
G1 X94.953 Y48.585 E0.05732 ; brim
G1 X93.104 Y49.222 E0.06133 ; brim
G1 X91.189 Y49.660 E0.06159 ; brim
G1 X89.302 Y49.887 E0.05959 ; brim
G1 X88.029 Y49.933 E0.03995 ; brim
G1 X86.860 Y49.895 E0.03667 ; brim
G1 X84.889 Y49.665 E0.06220 ; brim
G1 X82.994 Y49.234 E0.06094 ; brim
G1 X81.195 Y48.623 E0.05957 ; brim
G1 X79.460 Y47.825 E0.05988 ; brim
G1 X77.838 Y46.867 E0.05907 ; brim
G1 X76.321 Y45.749 E0.05908 ; brim
G1 X74.908 Y44.462 E0.05992 ; brim
G1 X73.592 Y42.982 E0.06210 ; brim
G1 X72.816 Y41.902 E0.04171 ; brim
G1 X71.367 Y43.554 E0.06891 ; brim
G1 X69.927 Y44.868 E0.06113 ; brim
G1 X68.374 Y46.012 E0.06047 ; brim
G1 X66.729 Y46.977 E0.05982 ; brim
G1 X64.988 Y47.770 E0.05997 ; brim
G1 X63.167 Y48.381 E0.06022 ; brim
G1 X61.290 Y48.799 E0.06031 ; brim
G1 X59.404 Y49.017 E0.05952 ; brim
G1 X58.200 Y49.057 E0.03777 ; brim
