; generated by Slic3r 1.37.2.1-prusa3d-win64 on 2018-01-20 at 10:01:05

; 

; external perimeters extrusion width = 0.42mm
; perimeters extrusion width = 0.45mm
; infill extrusion width = 0.45mm
; solid infill extrusion width = 0.45mm
; top infill extrusion width = 0.42mm
; first layer extrusion width = 0.42mm

M107 ; disable fan
M115 U3.1.0 ; tell printer latest fw version
M83  ; extruder relative mode
M104 S225 ; set extruder temp
M140 S50 ; set bed temp
M190 S50 ; wait for bed temp
M109 S225 ; wait for extruder temp
G28 W ; home all without mesh bed level
G80 ; mesh bed leveling
G1 Y-3.0 F1000.0 ; go outside pritn area
G1 X60.0 E9.0  F1000.0 ; intro line
G1 X100.0 E12.5  F1000.0 ; intro line
G92 E0.0
M900 K10
G21 ; set units to millimeters
G90 ; use absolute coordinates
M83 ; use relative distances for extrusion
;BEFORE_LAYER_CHANGE
;0.2


G1 E-0.80000 F2100.00000 ; retract
G1 Z0.600 F7200.000 ; lift Z
;AFTER_LAYER_CHANGE
;0.2
G1 X65.402 Y56.233 F7200.000 ; move to first skirt point
G1 Z0.200 F7200.000 ; restore layer Z
G1 E0.80000 F2100.00000 ; unretract
M204 S1000 ; adjust acceleration
G1 F1800
G1 X64.106 Y57.092 E0.06337 ; skirt
G1 X62.922 Y57.640 E0.05318 ; skirt
G1 X61.578 Y58.021 E0.05696 ; skirt
G1 X60.305 Y58.173 E0.05226 ; skirt
G1 X59.206 Y58.155 E0.04479 ; skirt
G1 X58.184 Y58.013 E0.04207 ; skirt
G1 X56.979 Y57.701 E0.05074 ; skirt
G1 X36.147 Y51.308 E0.88819 ; skirt
G1 X34.373 Y50.575 E0.07826 ; skirt
G1 X32.712 Y49.662 E0.07725 ; skirt
G1 X30.865 Y48.345 E0.09247 ; skirt
G1 X29.467 Y47.079 E0.07688 ; skirt
G1 X28.140 Y45.575 E0.08174 ; skirt
G1 X26.992 Y43.931 E0.08174 ; skirt
G1 X26.089 Y42.265 E0.07724 ; skirt
G1 X25.290 Y40.294 E0.08669 ; skirt
G1 X24.757 Y38.341 E0.08252 ; skirt
G1 X24.452 Y36.343 E0.08236 ; skirt
G1 X24.384 Y34.213 E0.08685 ; skirt
G1 X24.555 Y32.199 E0.08240 ; skirt
G1 X24.916 Y30.356 E0.07657 ; skirt
G1 X25.479 Y28.558 E0.07678 ; skirt
G1 X26.338 Y26.608 E0.08685 ; skirt
G1 X27.358 Y24.881 E0.08174 ; skirt
G1 X28.582 Y23.264 E0.08267 ; skirt
G1 X29.982 Y21.801 E0.08252 ; skirt
G1 X31.534 Y20.513 E0.08221 ; skirt
G1 X33.320 Y19.359 E0.08669 ; skirt
G1 X35.134 Y18.466 E0.08240 ; skirt
G1 X36.900 Y17.825 E0.07657 ; skirt
G1 X38.723 Y17.383 E0.07647 ; skirt
G1 X40.836 Y17.111 E0.08685 ; skirt
G1 X42.754 Y17.092 E0.07818 ; skirt
G1 X44.858 Y17.308 E0.08623 ; skirt
G1 X46.833 Y17.752 E0.08252 ; skirt
G1 X48.741 Y18.417 E0.08236 ; skirt
G1 X50.655 Y19.354 E0.08685 ; skirt
G1 X52.355 Y20.448 E0.08240 ; skirt
G1 X53.815 Y21.630 E0.07657 ; skirt
G1 X55.140 Y22.969 E0.07678 ; skirt
G1 X56.461 Y24.641 E0.08685 ; skirt
G1 X57.520 Y26.370 E0.08267 ; skirt
G1 X58.396 Y28.271 E0.08530 ; skirt
G1 X66.608 Y51.949 E1.02153 ; skirt
G1 X66.625 Y52.858 E0.03703 ; skirt
G1 X66.161 Y54.992 E0.08904 ; skirt
G1 X65.989 Y55.472 E0.02076 ; skirt
G1 X65.438 Y56.185 E0.03672 ; skirt
G1 F5760
G1 X64.106 Y57.092 E-0.55820 ; wipe and retract
G1 F5760
G1 X63.578 Y57.337 E-0.20180 ; wipe and retract
G1 E-0.04000 F2100.00000 ; retract
G1 Z0.800 F7200.000 ; lift Z
G1 X50.005 Y43.078 F7200.000 ; move to first perimeter point
G1 Z0.200 F7200.000 ; restore layer Z
G1 E0.80000 F2100.00000 ; unretract
G1 F1800
G1 X47.258 Y45.074 E0.13839 ; perimeter
G1 X45.730 Y42.970 E0.10598 ; perimeter
G1 X45.182 Y43.214 E0.02446 ; perimeter
G1 X44.119 Y43.540 E0.04531 ; perimeter
G1 X43.544 Y43.641 E0.02377 ; perimeter
G1 X43.544 Y46.186 E0.10374 ; perimeter
G1 X40.149 Y46.186 E0.13839 ; perimeter
G1 X40.149 Y43.586 E0.10598 ; perimeter
G1 X39.562 Y43.461 E0.02446 ; perimeter
G1 X38.511 Y43.100 E0.04531 ; perimeter
G1 X37.987 Y42.844 E0.02377 ; perimeter
G1 X36.491 Y44.903 E0.10374 ; perimeter
G1 X33.744 Y42.908 E0.13839 ; perimeter
G1 X35.272 Y40.804 E0.10598 ; perimeter
G1 X34.870 Y40.358 E0.02446 ; perimeter
G1 X34.249 Y39.471 E0.04416 ; perimeter
G1 X33.960 Y38.932 E0.02490 ; perimeter
G1 X31.538 Y39.719 E0.10380 ; perimeter
G1 X30.489 Y36.490 E0.13839 ; perimeter
G1 X32.962 Y35.687 E0.10598 ; perimeter
G1 X32.899 Y35.090 E0.02446 ; perimeter
G1 X32.918 Y33.978 E0.04531 ; perimeter
G1 X32.999 Y33.401 E0.02377 ; perimeter
G1 X32.679 Y33.297 E0.01370 ; perimeter
G1 X32.818 Y32.422 E0.03609 ; perimeter
G1 X30.641 Y32.422 E0.08873 ; perimeter
G1 X31.628 Y29.385 E0.13016 ; perimeter
G1 X34.101 Y30.189 E0.10598 ; perimeter
G1 X34.401 Y29.669 E0.02446 ; perimeter
G1 X35.069 Y28.781 E0.04531 ; perimeter
G1 X35.474 Y28.361 E0.02377 ; perimeter
G1 X33.979 Y26.302 E0.10374 ; perimeter
G1 X36.725 Y24.307 E0.13839 ; perimeter
G1 X38.254 Y26.410 E0.10598 ; perimeter
G1 X38.802 Y26.166 E0.02446 ; perimeter
G1 X39.865 Y25.841 E0.04531 ; perimeter
G1 X40.439 Y25.739 E0.02377 ; perimeter
G1 X40.439 Y23.194 E0.10374 ; perimeter
G1 X43.834 Y23.194 E0.13839 ; perimeter
G1 X43.834 Y25.794 E0.10598 ; perimeter
G1 X44.421 Y25.919 E0.02446 ; perimeter
G1 X45.473 Y26.281 E0.04531 ; perimeter
G1 X45.997 Y26.536 E0.02377 ; perimeter
G1 X47.493 Y24.477 E0.10374 ; perimeter
G1 X50.240 Y26.473 E0.13839 ; perimeter
G1 X48.711 Y28.577 E0.10598 ; perimeter
G1 X49.113 Y29.022 E0.02446 ; perimeter
G1 X49.751 Y29.933 E0.04531 ; perimeter
G1 X50.025 Y30.448 E0.02377 ; perimeter
G1 X52.445 Y29.661 E0.10374 ; perimeter
G1 X53.342 Y32.422 E0.11833 ; perimeter
G1 X52.104 Y32.422 E0.05046 ; perimeter
G1 X52.243 Y33.297 E0.03609 ; perimeter
G1 X51.022 Y33.694 E0.05234 ; perimeter
G1 X51.084 Y34.291 E0.02446 ; perimeter
G1 X51.065 Y35.402 E0.04531 ; perimeter
G1 X50.984 Y35.980 E0.02377 ; perimeter
G1 X53.405 Y36.766 E0.10374 ; perimeter
G1 X52.356 Y39.995 E0.13839 ; perimeter
G1 X49.883 Y39.192 E0.10598 ; perimeter
G1 X49.583 Y39.712 E0.02446 ; perimeter
G1 X48.914 Y40.600 E0.04531 ; perimeter
G1 X48.509 Y41.019 E0.02377 ; perimeter
G1 X49.970 Y43.030 E0.10129 ; perimeter
G1 X49.478 Y42.995 F7200.000 ; move to first perimeter point
G1 F1800
G1 X47.342 Y44.547 E0.10765 ; perimeter
G1 X45.855 Y42.501 E0.10306 ; perimeter
G1 X45.049 Y42.861 E0.03597 ; perimeter
G1 X44.030 Y43.172 E0.04343 ; perimeter
G1 X43.167 Y43.325 E0.03573 ; perimeter
G1 X43.167 Y45.809 E0.10126 ; perimeter
G1 X40.526 Y45.809 E0.10765 ; perimeter
G1 X40.526 Y43.281 E0.10306 ; perimeter
G1 X39.663 Y43.097 E0.03597 ; perimeter
G1 X38.655 Y42.751 E0.04343 ; perimeter
G1 X37.867 Y42.367 E0.03573 ; perimeter
G1 X36.407 Y44.377 E0.10126 ; perimeter
G1 X34.271 Y42.824 E0.10765 ; perimeter
G1 X35.757 Y40.779 E0.10306 ; perimeter
G1 X35.166 Y40.123 E0.03597 ; perimeter
G1 X34.570 Y39.273 E0.04230 ; perimeter
G1 X34.144 Y38.476 E0.03684 ; perimeter
G1 X31.780 Y39.244 E0.10128 ; perimeter
G1 X30.964 Y36.732 E0.10765 ; perimeter
G1 X33.369 Y35.951 E0.10306 ; perimeter
G1 X33.276 Y35.073 E0.03597 ; perimeter
G1 X33.295 Y34.008 E0.04343 ; perimeter
G1 X33.417 Y33.140 E0.03573 ; perimeter
G1 X33.102 Y33.038 E0.01347 ; perimeter
G1 X33.172 Y32.599 E0.01810 ; perimeter
G1 X36.225 Y32.599 E0.12444 ; perimeter
G1 X36.317 Y33.003 E0.01686 ; perimeter
G1 X35.905 Y33.203 E0.01869 ; perimeter
G1 X35.604 Y33.430 E0.01537 ; perimeter
G1 X35.497 Y33.554 E0.00667 ; perimeter
G1 X35.401 Y33.709 E0.00744 ; perimeter
G1 X35.337 Y33.870 E0.00704 ; perimeter
G1 X35.300 Y34.037 E0.00696 ; perimeter
G1 X35.288 Y34.222 E0.00759 ; perimeter
G1 X35.315 Y34.524 E0.01234 ; perimeter
G1 X35.385 Y34.789 E0.01118 ; perimeter
G1 X35.506 Y35.059 E0.01206 ; perimeter
G1 X35.684 Y35.340 E0.01356 ; perimeter
G1 X35.958 Y35.660 E0.01715 ; perimeter
G1 X36.524 Y36.136 E0.03015 ; perimeter
G1 X37.345 Y36.621 E0.03887 ; perimeter
G1 X37.542 Y36.621 E0.00804 ; perimeter
G1 X37.346 Y36.457 E0.01040 ; perimeter
G1 X36.758 Y35.844 E0.03466 ; perimeter
G1 X36.457 Y35.407 E0.02162 ; perimeter
G1 X36.279 Y35.037 E0.01673 ; perimeter
G1 X36.168 Y34.677 E0.01536 ; perimeter
G1 X36.117 Y34.212 E0.01904 ; perimeter
G1 X36.134 Y33.976 E0.00965 ; perimeter
G1 X36.176 Y33.796 E0.00753 ; perimeter
G1 X36.244 Y33.629 E0.00737 ; perimeter
G1 X36.418 Y33.387 E0.01214 ; perimeter
G1 X36.528 Y33.293 E0.00590 ; perimeter
G1 X36.742 Y33.185 E0.00977 ; perimeter
G1 X37.029 Y33.142 E0.01182 ; perimeter
G1 X37.206 Y33.153 E0.00723 ; perimeter
G1 X37.483 Y33.234 E0.01178 ; perimeter
G1 X37.683 Y33.369 E0.00983 ; perimeter
G1 X37.856 Y33.593 E0.01153 ; perimeter
G1 X38.089 Y34.191 E0.02616 ; perimeter
G1 X37.697 Y34.224 E0.01602 ; perimeter
G1 X37.511 Y34.287 E0.00802 ; perimeter
G1 X37.311 Y34.461 E0.01079 ; perimeter
G1 X37.257 Y34.585 E0.00552 ; perimeter
G1 X37.246 Y34.678 E0.00384 ; perimeter
G1 X37.269 Y34.828 E0.00619 ; perimeter
G1 X37.377 Y34.990 E0.00790 ; perimeter
G1 X37.566 Y35.113 E0.00921 ; perimeter
G1 X37.796 Y35.153 E0.00952 ; perimeter
G1 X38.047 Y35.118 E0.01033 ; perimeter
G1 X38.267 Y35.009 E0.00999 ; perimeter
G1 X38.435 Y34.833 E0.00993 ; perimeter
G1 X38.488 Y34.741 E0.00433 ; perimeter
G1 X38.555 Y34.497 E0.01030 ; perimeter
G1 X38.545 Y34.135 E0.01476 ; perimeter
G1 X38.501 Y33.944 E0.00801 ; perimeter
G1 X38.432 Y33.773 E0.00751 ; perimeter
G1 X38.329 Y33.606 E0.00800 ; perimeter
G1 X38.207 Y33.463 E0.00767 ; perimeter
G1 X38.062 Y33.335 E0.00786 ; perimeter
G1 X37.804 Y33.172 E0.01244 ; perimeter
G1 X37.433 Y33.017 E0.01640 ; perimeter
G1 X37.517 Y32.599 E0.01735 ; perimeter
G1 X39.359 Y32.599 E0.07510 ; perimeter
G1 X39.652 Y33.477 E0.03769 ; perimeter
G1 X40.198 Y33.756 E0.02503 ; perimeter
G1 X40.929 Y34.296 E0.03703 ; perimeter
G1 X41.372 Y34.729 E0.02523 ; perimeter
G1 X41.584 Y35.008 E0.01431 ; perimeter
G1 X41.713 Y35.245 E0.01100 ; perimeter
G1 X41.804 Y35.558 E0.01326 ; perimeter
G1 X41.786 Y35.946 E0.01585 ; perimeter
G1 X41.703 Y36.167 E0.00961 ; perimeter
G1 X41.591 Y36.304 E0.00722 ; perimeter
G1 X41.431 Y36.404 E0.00767 ; perimeter
G1 X40.941 Y36.481 E0.02023 ; perimeter
G1 X40.947 Y36.074 E0.01662 ; perimeter
G1 X40.924 Y36.002 E0.00309 ; perimeter
G1 X40.865 Y35.921 E0.00408 ; perimeter
G1 X40.706 Y35.807 E0.00796 ; perimeter
G1 X40.511 Y35.745 E0.00836 ; perimeter
G1 X40.290 Y35.746 E0.00902 ; perimeter
G1 X40.115 Y35.805 E0.00749 ; perimeter
G1 X39.951 Y35.929 E0.00842 ; perimeter
G1 X39.882 Y36.030 E0.00496 ; perimeter
G1 X39.861 Y36.255 E0.00922 ; perimeter
G1 X39.896 Y36.372 E0.00498 ; perimeter
G1 X39.989 Y36.489 E0.00609 ; perimeter
G1 X40.044 Y36.528 E0.00273 ; perimeter
G1 X40.155 Y36.578 E0.00496 ; perimeter
G1 X40.387 Y36.633 E0.00975 ; perimeter
G1 X41.092 Y36.675 E0.02876 ; perimeter
G1 X41.619 Y36.655 E0.02149 ; perimeter
G1 X42.108 Y36.563 E0.02029 ; perimeter
G1 X42.235 Y36.510 E0.00562 ; perimeter
G1 X42.443 Y36.368 E0.01026 ; perimeter
G1 X42.504 Y36.299 E0.00375 ; perimeter
G1 X42.595 Y36.123 E0.00809 ; perimeter
G1 X42.636 Y35.877 E0.01016 ; perimeter
G1 X42.616 Y35.601 E0.01127 ; perimeter
G1 X42.561 Y35.401 E0.00847 ; perimeter
G1 X42.468 Y35.196 E0.00917 ; perimeter
G1 X42.306 Y34.953 E0.01191 ; perimeter
G1 X41.928 Y34.568 E0.02199 ; perimeter
G1 X41.418 Y34.207 E0.02546 ; perimeter
G1 X40.906 Y33.958 E0.02320 ; perimeter
G1 X40.583 Y33.853 E0.01389 ; perimeter
G1 X40.652 Y33.415 E0.01808 ; perimeter
G1 X42.231 Y33.415 E0.06437 ; perimeter
G1 X41.960 Y32.599 E0.03502 ; perimeter
G1 X43.601 Y32.599 E0.06691 ; perimeter
G1 X44.763 Y36.334 E0.15943 ; perimeter
G1 X44.014 Y36.334 E0.03051 ; perimeter
G1 X44.166 Y36.620 E0.01320 ; perimeter
G1 X45.222 Y36.613 E0.04303 ; perimeter
G1 X45.359 Y36.552 E0.00612 ; perimeter
G1 X45.428 Y36.423 E0.00596 ; perimeter
G1 X45.425 Y36.241 E0.00742 ; perimeter
G1 X45.392 Y36.118 E0.00520 ; perimeter
G1 X44.297 Y32.599 E0.15019 ; perimeter
G1 X46.793 Y32.599 E0.10171 ; perimeter
G1 X47.603 Y34.541 E0.08576 ; perimeter
G1 X46.996 Y34.541 E0.02477 ; perimeter
G1 X47.003 Y34.556 E0.00068 ; perimeter
G1 X47.598 Y34.556 E0.02423 ; perimeter
G1 X48.342 Y36.226 E0.07452 ; perimeter
G1 X46.697 Y36.226 E0.06704 ; perimeter
G1 X46.534 Y35.954 E0.01292 ; perimeter
G1 X46.365 Y35.954 E0.00688 ; perimeter
G1 X46.632 Y36.621 E0.02928 ; perimeter
G1 X49.106 Y36.621 E0.10083 ; perimeter
G1 X48.218 Y34.556 E0.09162 ; perimeter
G1 X48.756 Y34.556 E0.02193 ; perimeter
G1 X48.749 Y34.541 E0.00067 ; perimeter
G1 X48.202 Y34.541 E0.02227 ; perimeter
G1 X47.398 Y32.599 E0.08566 ; perimeter
G1 X51.751 Y32.599 E0.17740 ; perimeter
G1 X51.820 Y33.038 E0.01810 ; perimeter
G1 X50.615 Y33.430 E0.05167 ; perimeter
G1 X50.707 Y34.307 E0.03597 ; perimeter
G1 X50.689 Y35.373 E0.04343 ; perimeter
G1 X50.567 Y36.241 E0.03573 ; perimeter
G1 X52.930 Y37.008 E0.10126 ; perimeter
G1 X52.114 Y39.520 E0.10765 ; perimeter
G1 X49.709 Y38.739 E0.10306 ; perimeter
G1 X49.268 Y39.503 E0.03597 ; perimeter
G1 X48.627 Y40.354 E0.04343 ; perimeter
G1 X48.018 Y40.985 E0.03573 ; perimeter
G1 X49.443 Y42.946 E0.09882 ; perimeter
G1 X49.678 Y43.341 F7200.000 ; move inwards before travel
G1 F5760
G1 X47.697 Y44.276 E-0.76000 ; wipe and retract
G1 E-0.04000 F2100.00000 ; retract
G1 Z0.800 F7200.000 ; lift Z
G1 X40.816 Y23.571 F7200.000 ; move to first perimeter point
G1 Z0.200 F7200.000 ; restore layer Z
G1 E0.80000 F2100.00000 ; unretract
G1 F1800
G1 X43.457 Y23.571 E0.10765 ; perimeter
G1 X43.457 Y26.100 E0.10306 ; perimeter
G1 X44.321 Y26.283 E0.03597 ; perimeter
G1 X45.328 Y26.630 E0.04343 ; perimeter
G1 X46.116 Y27.014 E0.03573 ; perimeter
G1 X47.576 Y25.004 E0.10126 ; perimeter
G1 X49.713 Y26.556 E0.10765 ; perimeter
G1 X48.227 Y28.602 E0.10306 ; perimeter
G1 X48.817 Y29.258 E0.03597 ; perimeter
G1 X49.429 Y30.130 E0.04343 ; perimeter
G1 X49.840 Y30.904 E0.03573 ; perimeter
G1 X52.203 Y30.136 E0.10126 ; perimeter
G1 X52.823 Y32.045 E0.08181 ; perimeter
G1 X31.160 Y32.045 E0.88301 ; perimeter
G1 X31.870 Y29.860 E0.09364 ; perimeter
G1 X34.275 Y30.642 E0.10306 ; perimeter
G1 X34.716 Y29.877 E0.03597 ; perimeter
G1 X35.357 Y29.026 E0.04343 ; perimeter
G1 X35.965 Y28.396 E0.03573 ; perimeter
G1 X34.505 Y26.386 E0.10126 ; perimeter
G1 X36.642 Y24.833 E0.10765 ; perimeter
G1 X38.128 Y26.879 E0.10306 ; perimeter
G1 X38.934 Y26.520 E0.03597 ; perimeter
G1 X39.953 Y26.208 E0.04343 ; perimeter
G1 X40.816 Y26.056 E0.03573 ; perimeter
G1 X40.816 Y23.631 E0.09882 ; perimeter
G1 X40.858 Y23.174 F7200.000 ; move inwards before travel
G1 F5760
G1 X43.010 Y23.582 E-0.76000 ; wipe and retract
G1 E-0.04000 F2100.00000 ; retract
G1 Z0.800 F7200.000 ; lift Z
G1 X52.234 Y45.221 F7200.000 ; move to first perimeter point
G1 Z0.200 F7200.000 ; restore layer Z
G1 E0.80000 F2100.00000 ; unretract
G1 F1800
G1 X54.684 Y48.594 E0.16993 ; perimeter
G1 X53.061 Y49.773 E0.08178 ; perimeter
G1 X54.684 Y52.008 E0.11260 ; perimeter
G1 X54.035 Y52.480 E0.03270 ; perimeter
G1 X56.263 Y53.748 E0.10450 ; perimeter
G1 X57.490 Y54.306 E0.05497 ; perimeter
G1 X58.606 Y54.682 E0.04800 ; perimeter
G1 X59.730 Y54.910 E0.04671 ; perimeter
G1 X60.714 Y54.960 E0.04018 ; perimeter
G1 X61.641 Y54.854 E0.03801 ; perimeter
G1 X62.324 Y54.657 E0.02901 ; perimeter
G1 X61.892 Y54.859 E0.01944 ; perimeter
G1 X61.088 Y55.097 E0.03422 ; perimeter
G1 X60.273 Y55.209 E0.03351 ; perimeter
G1 X59.429 Y55.198 E0.03439 ; perimeter
G1 X58.778 Y55.108 E0.02681 ; perimeter
G1 X57.854 Y54.868 E0.03890 ; perimeter
G1 X56.876 Y54.482 E0.04285 ; perimeter
G1 X55.826 Y53.930 E0.04835 ; perimeter
G1 X54.688 Y53.186 E0.05542 ; perimeter
G1 X53.884 Y52.589 E0.04082 ; perimeter
G1 X53.380 Y52.955 E0.02536 ; perimeter
G1 X51.757 Y50.720 E0.11260 ; perimeter
G1 X50.110 Y51.916 E0.08299 ; perimeter
G1 X47.488 Y48.307 E0.18181 ; perimeter
G1 X45.455 Y48.927 E0.08667 ; perimeter
G1 X43.808 Y49.229 E0.06824 ; perimeter
G1 X42.137 Y49.342 E0.06824 ; perimeter
G1 X40.465 Y49.262 E0.06824 ; perimeter
G1 X38.813 Y48.993 E0.06824 ; perimeter
G1 X37.202 Y48.537 E0.06824 ; perimeter
G1 X35.653 Y47.900 E0.06824 ; perimeter
G1 X34.188 Y47.091 E0.06824 ; perimeter
G1 X32.824 Y46.120 E0.06824 ; perimeter
G1 X31.613 Y45.029 E0.06641 ; perimeter
G1 X30.471 Y43.743 E0.07009 ; perimeter
G1 X29.514 Y42.371 E0.06821 ; perimeter
G1 X28.719 Y40.897 E0.06824 ; perimeter
G1 X28.098 Y39.343 E0.06824 ; perimeter
G1 X27.658 Y37.727 E0.06824 ; perimeter
G1 X27.405 Y36.072 E0.06824 ; perimeter
G1 X27.343 Y34.399 E0.06824 ; perimeter
G1 X27.471 Y32.730 E0.06824 ; perimeter
