; generated by Slic3r 1.37.2.1-prusa3d-win64 on 2018-02-16 at 21:02:20

; 

; external perimeters extrusion width = 0.42mm
; perimeters extrusion width = 0.45mm
; infill extrusion width = 0.45mm
; solid infill extrusion width = 0.45mm
; top infill extrusion width = 0.42mm
; first layer extrusion width = 0.42mm

M107 ; disable fan
M115 U3.1.0 ; tell printer latest fw version
M83  ; extruder relative mode
M104 S255 ; set extruder temp
M140 S100 ; set bed temp
M190 S100 ; wait for bed temp
M109 S255 ; wait for extruder temp
G28 W ; home all without mesh bed level
G80 ; mesh bed leveling
G1 Y-3.0 F1000.0 ; go outside pritn area
G1 X60.0 E9.0  F1000.0 ; intro line
G1 X100.0 E12.5  F1000.0 ; intro line
G92 E0.0
M900 K30
G21 ; set units to millimeters
G90 ; use absolute coordinates
M83 ; use relative distances for extrusion
;BEFORE_LAYER_CHANGE
;0.2


G1 E-0.80000 F2100.00000 ; retract
G1 Z0.600 F7200.000 ; lift Z
;AFTER_LAYER_CHANGE
;0.2
G1 X79.217 Y12.109 F7200.000 ; move to first skirt point
G1 Z0.200 F7200.000 ; restore layer Z
G1 E0.80000 F2100.00000 ; unretract
M204 S1000 ; adjust acceleration
G1 F1800
G1 X79.816 Y10.289 E0.06005 ; skirt
G1 X80.739 Y8.611 E0.06005 ; skirt
G1 X81.954 Y7.131 E0.06005 ; skirt
G1 X83.447 Y5.881 E0.06105 ; skirt
G1 X85.155 Y4.930 E0.06129 ; skirt
G1 X87.010 Y4.315 E0.06129 ; skirt
G1 X88.948 Y4.059 E0.06129 ; skirt
G1 X165.540 Y4.052 E2.40147 ; skirt
G1 X167.447 Y4.230 E0.06005 ; skirt
G1 X169.296 Y4.758 E0.06030 ; skirt
G1 X171.016 Y5.619 E0.06030 ; skirt
G1 X172.547 Y6.782 E0.06030 ; skirt
G1 X173.838 Y8.208 E0.06030 ; skirt
G1 X174.839 Y9.841 E0.06005 ; skirt
G1 X175.526 Y11.637 E0.06030 ; skirt
G1 X175.870 Y13.529 E0.06030 ; skirt
G1 X175.901 Y81.510 E2.13148 ; skirt
G1 X175.650 Y83.408 E0.06005 ; skirt
G1 X175.051 Y85.236 E0.06030 ; skirt
G1 X174.129 Y86.915 E0.06005 ; skirt
G1 X172.909 Y88.401 E0.06030 ; skirt
G1 X172.152 Y89.094 E0.03218 ; skirt
G1 X171.337 Y89.705 E0.03193 ; skirt
G1 X170.459 Y90.236 E0.03218 ; skirt
G1 X169.533 Y90.678 E0.03218 ; skirt
G1 X168.576 Y91.024 E0.03193 ; skirt
G1 X167.581 Y91.277 E0.03218 ; skirt
G1 X166.566 Y91.429 E0.03218 ; skirt
G1 X165.541 Y91.481 E0.03218 ; skirt
G1 X88.958 Y91.474 E2.40122 ; skirt
G1 X87.051 Y91.227 E0.06030 ; skirt
G1 X85.214 Y90.629 E0.06055 ; skirt
G1 X83.527 Y89.706 E0.06030 ; skirt
G1 X82.034 Y88.481 E0.06055 ; skirt
G1 X81.341 Y87.724 E0.03218 ; skirt
G1 X80.731 Y86.909 E0.03193 ; skirt
G1 X80.199 Y86.031 E0.03218 ; skirt
G1 X79.757 Y85.105 E0.03218 ; skirt
G1 X79.411 Y84.148 E0.03193 ; skirt
G1 X79.159 Y83.153 E0.03218 ; skirt
G1 X79.006 Y82.138 E0.03218 ; skirt
G1 X78.955 Y81.113 E0.03218 ; skirt
G1 X78.963 Y14.007 E2.10406 ; skirt
G1 X79.209 Y12.168 E0.05817 ; skirt
G1 F5760
G1 X79.816 Y10.289 E-0.68379 ; wipe and retract
G1 F5760
G1 X79.922 Y10.097 E-0.07621 ; wipe and retract
G1 E-0.04000 F2100.00000 ; retract
G1 Z0.800 F7200.000 ; lift Z
G1 X85.836 Y6.662 F7200.000 ; move to first brim point
G1 Z0.200 F7200.000 ; restore layer Z
G1 E0.80000 F2100.00000 ; unretract
G1 F1800
G1 X88.578 Y5.944 E0.08886 ; brim
G1 X166.192 Y5.948 E2.43355 ; brim
G1 X167.929 Y6.255 E0.05529 ; brim
G1 X169.579 Y6.919 E0.05577 ; brim
G1 X171.692 Y8.571 E0.08409 ; brim
G1 X173.299 Y10.933 E0.08958 ; brim
G1 X174.016 Y13.675 E0.08885 ; brim
G1 X174.016 Y81.709 E2.13318 ; brim
G1 X173.719 Y83.455 E0.05554 ; brim
G1 X173.047 Y85.139 E0.05684 ; brim
G1 X171.391 Y87.262 E0.08442 ; brim
G1 X169.028 Y88.871 E0.08965 ; brim
G1 X166.286 Y89.588 E0.08886 ; brim
G1 X88.726 Y89.588 E2.43183 ; brim
G1 X86.980 Y89.291 E0.05554 ; brim
G1 X85.296 Y88.619 E0.05684 ; brim
G1 X83.173 Y86.963 E0.08442 ; brim
G1 X81.565 Y84.600 E0.08965 ; brim
G1 X80.847 Y81.858 E0.08886 ; brim
G1 X80.847 Y13.823 E2.13318 ; brim
G1 X81.145 Y12.077 E0.05554 ; brim
G1 X81.816 Y10.393 E0.05684 ; brim
G1 X83.472 Y8.270 E0.08442 ; brim
G1 X85.786 Y6.695 E0.08777 ; brim
G1 X85.963 Y7.018 F7200.000 ; move to first brim point
G1 F1800
G1 X88.602 Y6.322 E0.08557 ; brim
G1 X166.175 Y6.325 E2.43225 ; brim
G1 X167.843 Y6.623 E0.05311 ; brim
G1 X169.412 Y7.259 E0.05309 ; brim
G1 X171.436 Y8.849 E0.08072 ; brim
G1 X172.943 Y11.061 E0.08389 ; brim
G1 X173.639 Y13.699 E0.08556 ; brim
G1 X173.639 Y81.693 E2.13190 ; brim
G1 X173.351 Y83.372 E0.05340 ; brim
G1 X172.708 Y84.974 E0.05412 ; brim
G1 X171.113 Y87.006 E0.08101 ; brim
G1 X168.900 Y88.515 E0.08396 ; brim
G1 X166.261 Y89.211 E0.08557 ; brim
G1 X88.742 Y89.211 E2.43055 ; brim
G1 X87.064 Y88.923 E0.05340 ; brim
G1 X85.462 Y88.280 E0.05412 ; brim
G1 X83.429 Y86.685 E0.08101 ; brim
G1 X81.921 Y84.472 E0.08396 ; brim
G1 X81.225 Y81.833 E0.08557 ; brim
G1 X81.225 Y13.839 E2.13190 ; brim
G1 X81.513 Y12.161 E0.05340 ; brim
G1 X82.156 Y10.559 E0.05412 ; brim
G1 X83.751 Y8.526 E0.08101 ; brim
G1 X85.914 Y7.052 E0.08208 ; brim
G1 X86.125 Y7.364 F7200.000 ; move to first brim point
G1 F1800
G1 X88.626 Y6.699 E0.08115 ; brim
G1 X166.158 Y6.702 E2.43096 ; brim
G1 X167.756 Y6.990 E0.05090 ; brim
G1 X169.245 Y7.597 E0.05040 ; brim
G1 X171.179 Y9.127 E0.07732 ; brim
G1 X172.612 Y11.245 E0.08019 ; brim
G1 X173.262 Y13.723 E0.08033 ; brim
G1 X173.262 Y81.677 E2.13063 ; brim
G1 X172.983 Y83.287 E0.05124 ; brim
G1 X172.368 Y84.807 E0.05140 ; brim
G1 X170.835 Y86.750 E0.07760 ; brim
G1 X168.716 Y88.184 E0.08025 ; brim
G1 X166.237 Y88.834 E0.08033 ; brim
G1 X88.759 Y88.834 E2.42928 ; brim
G1 X87.148 Y88.555 E0.05124 ; brim
G1 X85.629 Y87.940 E0.05140 ; brim
G1 X83.686 Y86.407 E0.07760 ; brim
G1 X82.251 Y84.288 E0.08025 ; brim
G1 X81.602 Y81.809 E0.08033 ; brim
G1 X81.602 Y13.856 E2.13063 ; brim
G1 X81.881 Y12.245 E0.05124 ; brim
G1 X82.495 Y10.726 E0.05140 ; brim
G1 X84.028 Y8.783 E0.07760 ; brim
G1 X86.075 Y7.397 E0.07750 ; brim
G1 X86.275 Y7.704 F7200.000 ; move to first brim point
G1 F1800
G1 X88.651 Y7.076 E0.07705 ; brim
G1 X166.142 Y7.079 E2.42967 ; brim
G1 X167.632 Y7.347 E0.04748 ; brim
G1 X169.077 Y7.936 E0.04893 ; brim
G1 X170.922 Y9.404 E0.07391 ; brim
G1 X172.256 Y11.372 E0.07457 ; brim
G1 X172.885 Y13.748 E0.07704 ; brim
G1 X172.885 Y81.660 E2.12934 ; brim
G1 X172.615 Y83.202 E0.04907 ; brim
G1 X172.029 Y84.639 E0.04867 ; brim
G1 X170.558 Y86.493 E0.07420 ; brim
G1 X168.588 Y87.828 E0.07462 ; brim
G1 X166.213 Y88.457 E0.07705 ; brim
G1 X88.775 Y88.457 E2.42799 ; brim
G1 X87.234 Y88.187 E0.04907 ; brim
G1 X85.796 Y87.601 E0.04867 ; brim
G1 X83.943 Y86.130 E0.07420 ; brim
G1 X82.607 Y84.160 E0.07462 ; brim
G1 X81.979 Y81.785 E0.07705 ; brim
G1 X81.979 Y13.872 E2.12934 ; brim
G1 X82.249 Y12.331 E0.04907 ; brim
G1 X82.834 Y10.893 E0.04867 ; brim
G1 X84.306 Y9.040 E0.07420 ; brim
G1 X86.226 Y7.738 E0.07274 ; brim
G1 X86.436 Y8.051 F7200.000 ; move to first brim point
G1 F1800
G1 X88.675 Y7.453 E0.07267 ; brim
G1 X166.125 Y7.456 E2.42837 ; brim
G1 X167.545 Y7.714 E0.04526 ; brim
G1 X168.908 Y8.275 E0.04622 ; brim
G1 X170.663 Y9.680 E0.07050 ; brim
G1 X171.925 Y11.556 E0.07090 ; brim
G1 X172.508 Y13.772 E0.07183 ; brim
G1 X172.508 Y81.644 E2.12808 ; brim
G1 X172.258 Y83.078 E0.04565 ; brim
G1 X171.691 Y84.472 E0.04717 ; brim
G1 X170.282 Y86.234 E0.07075 ; brim
G1 X168.404 Y87.497 E0.07095 ; brim
G1 X166.189 Y88.080 E0.07184 ; brim
G1 X88.792 Y88.080 E2.42673 ; brim
G1 X87.357 Y87.830 E0.04565 ; brim
G1 X85.964 Y87.263 E0.04717 ; brim
G1 X84.201 Y85.854 E0.07075 ; brim
G1 X82.938 Y83.976 E0.07095 ; brim
G1 X82.356 Y81.761 E0.07184 ; brim
G1 X82.356 Y13.889 E2.12808 ; brim
G1 X82.606 Y12.454 E0.04565 ; brim
G1 X83.173 Y11.061 E0.04717 ; brim
G1 X84.582 Y9.298 E0.07075 ; brim
G1 X86.386 Y8.084 E0.06819 ; brim
G1 X86.595 Y8.398 F7200.000 ; move to first brim point
G1 F1800
G1 X86.642 Y8.367 E0.00175 ; brim
G1 X88.699 Y7.830 E0.06666 ; brim
G1 X166.107 Y7.834 E2.42708 ; brim
G1 X167.457 Y8.081 E0.04302 ; brim
G1 X168.739 Y8.612 E0.04350 ; brim
G1 X170.404 Y9.955 E0.06707 ; brim
G1 X171.594 Y11.739 E0.06724 ; brim
G1 X172.131 Y13.796 E0.06666 ; brim
G1 X172.131 Y81.627 E2.12681 ; brim
G1 X171.890 Y82.993 E0.04346 ; brim
G1 X171.352 Y84.303 E0.04441 ; brim
G1 X170.007 Y85.975 E0.06730 ; brim
G1 X168.222 Y87.166 E0.06728 ; brim
G1 X166.165 Y87.703 E0.06666 ; brim
G1 X88.808 Y87.703 E2.42546 ; brim
G1 X87.443 Y87.462 E0.04346 ; brim
G1 X86.133 Y86.924 E0.04441 ; brim
G1 X84.461 Y85.579 E0.06730 ; brim
G1 X83.270 Y83.794 E0.06728 ; brim
G1 X82.733 Y81.737 E0.06666 ; brim
G1 X82.733 Y13.905 E2.12681 ; brim
G1 X82.973 Y12.540 E0.04346 ; brim
G1 X83.511 Y11.230 E0.04441 ; brim
G1 X84.857 Y9.558 E0.06730 ; brim
G1 X86.545 Y8.431 E0.06365 ; brim
G1 X86.749 Y8.736 F7200.000 ; move to first brim point
G1 F1800
G1 X88.724 Y8.207 E0.06409 ; brim
G1 X166.090 Y8.211 E2.42576 ; brim
G1 X167.368 Y8.448 E0.04076 ; brim
G1 X168.568 Y8.950 E0.04078 ; brim
G1 X170.144 Y10.230 E0.06367 ; brim
G1 X171.238 Y11.866 E0.06170 ; brim
G1 X171.754 Y13.821 E0.06339 ; brim
G1 X171.754 Y81.611 E2.12551 ; brim
G1 X171.523 Y82.906 E0.04125 ; brim
G1 X171.015 Y84.133 E0.04164 ; brim
G1 X169.732 Y85.715 E0.06387 ; brim
G1 X168.095 Y86.810 E0.06173 ; brim
G1 X166.140 Y87.326 E0.06340 ; brim
G1 X88.825 Y87.326 E2.42416 ; brim
G1 X87.530 Y87.095 E0.04125 ; brim
G1 X86.303 Y86.587 E0.04164 ; brim
G1 X84.720 Y85.304 E0.06387 ; brim
G1 X83.626 Y83.667 E0.06173 ; brim
G1 X83.110 Y81.712 E0.06340 ; brim
G1 X83.110 Y13.922 E2.12551 ; brim
G1 X83.341 Y12.627 E0.04125 ; brim
G1 X83.849 Y11.400 E0.04164 ; brim
G1 X85.132 Y9.817 E0.06387 ; brim
G1 X86.699 Y8.769 E0.05912 ; brim
G1 X86.907 Y9.083 F7200.000 ; move to first brim point
G1 F1800
G1 X86.950 Y9.055 E0.00161 ; brim
G1 X88.748 Y8.584 E0.05825 ; brim
G1 X166.072 Y8.588 E2.42445 ; brim
G1 X167.278 Y8.815 E0.03847 ; brim
G1 X168.396 Y9.286 E0.03804 ; brim
G1 X169.883 Y10.503 E0.06025 ; brim
G1 X170.906 Y12.047 E0.05808 ; brim
G1 X171.376 Y13.844 E0.05825 ; brim
G1 X171.376 Y81.593 E2.12422 ; brim
G1 X171.155 Y82.818 E0.03902 ; brim
G1 X170.678 Y83.962 E0.03886 ; brim
G1 X169.458 Y85.454 E0.06043 ; brim
G1 X167.913 Y86.478 E0.05811 ; brim
G1 X166.116 Y86.948 E0.05825 ; brim
G1 X88.842 Y86.948 E2.42287 ; brim
G1 X87.617 Y86.727 E0.03902 ; brim
G1 X86.474 Y86.250 E0.03886 ; brim
G1 X84.981 Y85.030 E0.06043 ; brim
G1 X83.958 Y83.485 E0.05811 ; brim
G1 X83.487 Y81.688 E0.05825 ; brim
G1 X83.487 Y13.939 E2.12422 ; brim
G1 X83.708 Y12.714 E0.03902 ; brim
G1 X84.186 Y11.571 E0.03886 ; brim
G1 X85.405 Y10.078 E0.06043 ; brim
G1 X86.857 Y9.116 E0.05462 ; brim
G1 X87.060 Y9.422 F7200.000 ; move to first brim point
G1 F1800
G1 X88.772 Y8.961 E0.05559 ; brim
G1 X166.054 Y8.965 E2.42312 ; brim
G1 X167.150 Y9.170 E0.03494 ; brim
G1 X168.224 Y9.623 E0.03654 ; brim
G1 X169.621 Y10.776 E0.05681 ; brim
G1 X170.550 Y12.174 E0.05263 ; brim
G1 X170.999 Y13.869 E0.05499 ; brim
G1 X170.999 Y81.576 E2.12290 ; brim
G1 X170.788 Y82.730 E0.03676 ; brim
G1 X170.341 Y83.789 E0.03607 ; brim
G1 X169.185 Y85.193 E0.05701 ; brim
G1 X167.786 Y86.121 E0.05265 ; brim
G1 X166.091 Y86.571 E0.05499 ; brim
G1 X88.859 Y86.571 E2.42155 ; brim
G1 X87.706 Y86.360 E0.03676 ; brim
G1 X86.646 Y85.913 E0.03607 ; brim
G1 X85.243 Y84.757 E0.05701 ; brim
G1 X84.314 Y83.358 E0.05265 ; brim
G1 X83.864 Y81.663 E0.05499 ; brim
G1 X83.864 Y13.956 E2.12290 ; brim
G1 X84.075 Y12.803 E0.03676 ; brim
G1 X84.522 Y11.743 E0.03607 ; brim
G1 X85.678 Y10.340 E0.05701 ; brim
G1 X87.010 Y9.455 E0.05013 ; brim
G1 X87.217 Y9.770 F7200.000 ; move to first brim point
G1 F1800
G1 X87.258 Y9.743 E0.00153 ; brim
G1 X88.797 Y9.338 E0.04988 ; brim
G1 X166.036 Y9.342 E2.42180 ; brim
G1 X167.059 Y9.537 E0.03263 ; brim
G1 X168.050 Y9.959 E0.03378 ; brim
G1 X169.358 Y11.047 E0.05336 ; brim
G1 X170.217 Y12.355 E0.04907 ; brim
G1 X170.622 Y13.893 E0.04988 ; brim
G1 X170.622 Y81.559 E2.12162 ; brim
G1 X170.433 Y82.602 E0.03323 ; brim
G1 X170.005 Y83.617 E0.03453 ; brim
G1 X168.914 Y84.930 E0.05353 ; brim
G1 X167.605 Y85.789 E0.04908 ; brim
G1 X166.067 Y86.194 E0.04988 ; brim
G1 X88.876 Y86.194 E2.42027 ; brim
G1 X87.833 Y86.005 E0.03323 ; brim
G1 X86.819 Y85.577 E0.03453 ; brim
G1 X85.506 Y84.486 E0.05353 ; brim
G1 X84.646 Y83.177 E0.04908 ; brim
G1 X84.241 Y81.639 E0.04988 ; brim
G1 X84.241 Y13.973 E2.12162 ; brim
G1 X84.431 Y12.930 E0.03323 ; brim
G1 X84.859 Y11.916 E0.03453 ; brim
G1 X85.950 Y10.603 E0.05353 ; brim
G1 X87.167 Y9.803 E0.04567 ; brim
G1 X87.437 Y10.076 F7200.000 ; move to first brim point
G1 F1800
G1 X88.820 Y9.715 E0.04481 ; brim
G1 X166.018 Y9.719 E2.42048 ; brim
G1 X166.966 Y9.903 E0.03029 ; brim
G1 X167.875 Y10.294 E0.03101 ; brim
G1 X169.094 Y11.317 E0.04990 ; brim
G1 X169.884 Y12.534 E0.04551 ; brim
G1 X170.245 Y13.917 E0.04481 ; brim
G1 X170.245 Y81.542 E2.12032 ; brim
G1 X170.066 Y82.513 E0.03095 ; brim
G1 X169.669 Y83.443 E0.03170 ; brim
G1 X168.644 Y84.665 E0.05004 ; brim
G1 X167.426 Y85.456 E0.04552 ; brim
G1 X166.043 Y85.817 E0.04481 ; brim
G1 X88.894 Y85.817 E2.41897 ; brim
G1 X87.923 Y85.638 E0.03095 ; brim
G1 X86.993 Y85.241 E0.03170 ; brim
G1 X85.770 Y84.216 E0.05004 ; brim
G1 X84.979 Y82.998 E0.04552 ; brim
G1 X84.618 Y81.615 E0.04481 ; brim
G1 X84.618 Y13.991 E2.12032 ; brim
G1 X84.798 Y13.020 E0.03095 ; brim
G1 X85.194 Y12.090 E0.03170 ; brim
G1 X86.220 Y10.867 E0.05004 ; brim
G1 X87.387 Y10.109 E0.04364 ; brim
G1 X87.564 Y10.433 F7200.000 ; move to first brim point
G1 F1800
G1 X88.845 Y10.092 E0.04158 ; brim
G1 X165.999 Y10.096 E2.41911 ; brim
G1 X166.873 Y10.269 E0.02791 ; brim
G1 X167.698 Y10.628 E0.02823 ; brim
G1 X168.829 Y11.587 E0.04647 ; brim
G1 X169.528 Y12.661 E0.04018 ; brim
G1 X169.868 Y13.942 E0.04157 ; brim
G1 X169.868 Y81.524 E2.11898 ; brim
G1 X169.699 Y82.422 E0.02864 ; brim
G1 X169.335 Y83.267 E0.02886 ; brim
G1 X168.374 Y84.400 E0.04659 ; brim
G1 X167.300 Y85.100 E0.04019 ; brim
G1 X166.018 Y85.440 E0.04157 ; brim
G1 X88.912 Y85.440 E2.41763 ; brim
G1 X88.014 Y85.271 E0.02864 ; brim
G1 X87.169 Y84.907 E0.02886 ; brim
G1 X86.035 Y83.946 E0.04659 ; brim
G1 X85.336 Y82.872 E0.04019 ; brim
G1 X84.995 Y81.590 E0.04157 ; brim
G1 X84.995 Y14.009 E2.11898 ; brim
G1 X85.164 Y13.111 E0.02864 ; brim
G1 X85.529 Y12.266 E0.02886 ; brim
G1 X86.490 Y11.132 E0.04659 ; brim
G1 X87.513 Y10.465 E0.03831 ; brim
G1 X87.717 Y10.782 F7200.000 ; move to first brim point
G1 F1800
G1 X88.869 Y10.469 E0.03744 ; brim
G1 X165.980 Y10.473 E2.41775 ; brim
G1 X166.777 Y10.634 E0.02550 ; brim
G1 X167.520 Y10.961 E0.02545 ; brim
G1 X168.562 Y11.854 E0.04302 ; brim
G1 X169.194 Y12.839 E0.03669 ; brim
G1 X169.491 Y13.966 E0.03655 ; brim
G1 X169.491 Y81.506 E2.11765 ; brim
G1 X169.333 Y82.329 E0.02629 ; brim
G1 X169.001 Y83.089 E0.02601 ; brim
G1 X168.106 Y84.134 E0.04312 ; brim
G1 X167.122 Y84.766 E0.03670 ; brim
G1 X165.994 Y85.063 E0.03655 ; brim
G1 X88.930 Y85.063 E2.41630 ; brim
G1 X88.106 Y84.905 E0.02629 ; brim
G1 X87.346 Y84.573 E0.02601 ; brim
G1 X86.302 Y83.678 E0.04312 ; brim
G1 X85.669 Y82.694 E0.03670 ; brim
G1 X85.372 Y81.566 E0.03655 ; brim
G1 X85.372 Y14.027 E2.11765 ; brim
G1 X85.530 Y13.203 E0.02629 ; brim
G1 X85.863 Y12.443 E0.02601 ; brim
G1 X86.757 Y11.399 E0.04312 ; brim
G1 X87.667 Y10.815 E0.03389 ; brim
G1 X87.866 Y11.124 F7200.000 ; move to first brim point
G1 F1800
G1 X88.895 Y10.847 E0.03341 ; brim
G1 X165.960 Y10.850 E2.41634 ; brim
G1 X166.680 Y10.999 E0.02304 ; brim
G1 X167.340 Y11.294 E0.02266 ; brim
G1 X168.294 Y12.121 E0.03960 ; brim
G1 X168.838 Y12.966 E0.03149 ; brim
G1 X169.114 Y13.992 E0.03331 ; brim
G1 X169.114 Y81.488 E2.11631 ; brim
G1 X168.979 Y82.198 E0.02264 ; brim
G1 X168.667 Y82.911 E0.02442 ; brim
G1 X167.839 Y83.866 E0.03962 ; brim
G1 X166.995 Y84.410 E0.03149 ; brim
G1 X165.969 Y84.686 E0.03331 ; brim
G1 X88.947 Y84.686 E2.41496 ; brim
G1 X88.238 Y84.551 E0.02264 ; brim
G1 X87.524 Y84.239 E0.02442 ; brim
G1 X86.569 Y83.411 E0.03962 ; brim
G1 X86.025 Y82.567 E0.03149 ; brim
G1 X85.750 Y81.541 E0.03331 ; brim
G1 X85.750 Y14.044 E2.11631 ; brim
G1 X85.884 Y13.335 E0.02264 ; brim
G1 X86.197 Y12.621 E0.02442 ; brim
G1 X87.024 Y11.666 E0.03962 ; brim
G1 X87.816 Y11.157 E0.02951 ; brim
G1 X88.017 Y11.474 F7200.000 ; move to first brim point
G1 F1800
G1 X88.919 Y11.224 E0.02935 ; brim
G1 X165.941 Y11.227 E2.41498 ; brim
G1 X166.545 Y11.351 E0.01933 ; brim
