; generated by Slic3r 1.37.2.1-prusa3d-win64 on 2018-02-18 at 18:04:38

; 

; external perimeters extrusion width = 0.70mm
; perimeters extrusion width = 0.70mm
; infill extrusion width = 0.70mm
; solid infill extrusion width = 0.70mm
; top infill extrusion width = 0.74mm
; first layer extrusion width = 0.42mm

M107 ; disable fan
M115 U3.1.0 ; tell printer latest fw version
M83  ; extruder relative mode
M104 S255 ; set extruder temp
M140 S70 ; set bed temp
M190 S70 ; wait for bed temp
M109 S255 ; wait for extruder temp
G28 W ; home all without mesh bed level
G80 ; mesh bed leveling
G1 Y-3.0 F1000.0 ; go outside pritn area
G1 X60.0 E9.0  F1000.0 ; intro line
G1 X100.0 E12.5  F1000.0 ; intro line
G92 E0.0
M900 K30
G21 ; set units to millimeters
G90 ; use absolute coordinates
M83 ; use relative distances for extrusion
;BEFORE_LAYER_CHANGE
;0.2


G1 E-0.80000 F2100.00000 ; retract
G1 Z0.600 F7200.000 ; lift Z
;AFTER_LAYER_CHANGE
;0.2
G1 X77.494 Y14.719 F7200.000 ; move to first skirt point
G1 Z0.200 F7200.000 ; restore layer Z
G1 E0.80000 F2100.00000 ; unretract
M204 S1000 ; adjust acceleration
G1 F1800
G1 X78.092 Y12.900 E0.06005 ; skirt
G1 X79.015 Y11.222 E0.06005 ; skirt
G1 X80.231 Y9.741 E0.06005 ; skirt
G1 X81.724 Y8.492 E0.06105 ; skirt
G1 X83.431 Y7.540 E0.06129 ; skirt
G1 X85.287 Y6.925 E0.06129 ; skirt
G1 X87.225 Y6.669 E0.06129 ; skirt
G1 X163.816 Y6.662 E2.40147 ; skirt
G1 X165.723 Y6.840 E0.06005 ; skirt
G1 X167.572 Y7.369 E0.06030 ; skirt
G1 X169.292 Y8.229 E0.06030 ; skirt
G1 X170.823 Y9.393 E0.06030 ; skirt
G1 X172.114 Y10.819 E0.06030 ; skirt
G1 X173.116 Y12.451 E0.06005 ; skirt
G1 X173.802 Y14.247 E0.06030 ; skirt
G1 X174.146 Y16.140 E0.06030 ; skirt
G1 X174.177 Y84.120 E2.13148 ; skirt
G1 X173.926 Y86.019 E0.06005 ; skirt
G1 X173.327 Y87.846 E0.06030 ; skirt
G1 X172.405 Y89.525 E0.06005 ; skirt
G1 X171.185 Y91.012 E0.06030 ; skirt
G1 X170.429 Y91.705 E0.03218 ; skirt
G1 X169.614 Y92.315 E0.03193 ; skirt
G1 X168.736 Y92.847 E0.03218 ; skirt
G1 X167.809 Y93.289 E0.03218 ; skirt
G1 X166.852 Y93.635 E0.03193 ; skirt
G1 X165.857 Y93.887 E0.03218 ; skirt
G1 X164.842 Y94.040 E0.03218 ; skirt
G1 X163.817 Y94.091 E0.03218 ; skirt
G1 X87.234 Y94.085 E2.40122 ; skirt
G1 X85.327 Y93.837 E0.06030 ; skirt
G1 X83.491 Y93.239 E0.06055 ; skirt
G1 X81.804 Y92.316 E0.06030 ; skirt
G1 X80.310 Y91.092 E0.06055 ; skirt
G1 X79.617 Y90.335 E0.03218 ; skirt
G1 X79.007 Y89.520 E0.03193 ; skirt
G1 X78.476 Y88.642 E0.03218 ; skirt
G1 X78.033 Y87.716 E0.03218 ; skirt
G1 X77.687 Y86.758 E0.03193 ; skirt
G1 X77.435 Y85.763 E0.03218 ; skirt
G1 X77.283 Y84.748 E0.03218 ; skirt
G1 X77.231 Y83.724 E0.03218 ; skirt
G1 X77.239 Y16.617 E2.10406 ; skirt
G1 X77.486 Y14.779 E0.05817 ; skirt
G1 F5760
G1 X78.092 Y12.900 E-0.68379 ; wipe and retract
G1 F5760
G1 X78.198 Y12.707 E-0.07621 ; wipe and retract
G1 E-0.04000 F2100.00000 ; retract
G1 Z0.800 F7200.000 ; lift Z
G1 X84.112 Y9.272 F7200.000 ; move to first brim point
G1 Z0.200 F7200.000 ; restore layer Z
G1 E0.80000 F2100.00000 ; unretract
G1 F1800
G1 X86.854 Y8.555 E0.08886 ; brim
G1 X164.469 Y8.559 E2.43355 ; brim
G1 X166.205 Y8.865 E0.05529 ; brim
G1 X167.855 Y9.530 E0.05577 ; brim
G1 X169.968 Y11.181 E0.08409 ; brim
G1 X171.575 Y13.543 E0.08958 ; brim
G1 X172.292 Y16.285 E0.08885 ; brim
G1 X172.292 Y84.320 E2.13318 ; brim
G1 X171.995 Y86.066 E0.05554 ; brim
G1 X171.324 Y87.750 E0.05684 ; brim
G1 X169.668 Y89.873 E0.08442 ; brim
G1 X167.304 Y91.481 E0.08965 ; brim
G1 X164.562 Y92.198 E0.08886 ; brim
G1 X87.003 Y92.198 E2.43183 ; brim
G1 X85.256 Y91.901 E0.05554 ; brim
G1 X83.572 Y91.230 E0.05684 ; brim
G1 X81.450 Y89.574 E0.08442 ; brim
G1 X79.841 Y87.210 E0.08965 ; brim
G1 X79.124 Y84.468 E0.08886 ; brim
G1 X79.124 Y16.434 E2.13318 ; brim
G1 X79.421 Y14.688 E0.05554 ; brim
G1 X80.092 Y13.004 E0.05684 ; brim
G1 X81.748 Y10.881 E0.08442 ; brim
G1 X84.063 Y9.306 E0.08777 ; brim
G1 X84.240 Y9.628 F7200.000 ; move to first brim point
G1 F1800
G1 X86.879 Y8.932 E0.08557 ; brim
G1 X164.452 Y8.936 E2.43225 ; brim
G1 X166.119 Y9.233 E0.05311 ; brim
G1 X167.688 Y9.869 E0.05309 ; brim
G1 X169.712 Y11.460 E0.08072 ; brim
G1 X171.219 Y13.671 E0.08389 ; brim
G1 X171.915 Y16.310 E0.08556 ; brim
G1 X171.915 Y84.303 E2.13190 ; brim
G1 X171.627 Y85.982 E0.05340 ; brim
G1 X170.984 Y87.584 E0.05412 ; brim
G1 X169.389 Y89.617 E0.08101 ; brim
G1 X167.176 Y91.125 E0.08396 ; brim
G1 X164.538 Y91.821 E0.08557 ; brim
G1 X87.019 Y91.821 E2.43055 ; brim
G1 X85.340 Y91.533 E0.05340 ; brim
G1 X83.738 Y90.890 E0.05412 ; brim
G1 X81.705 Y89.295 E0.08101 ; brim
G1 X80.197 Y87.083 E0.08396 ; brim
G1 X79.501 Y84.444 E0.08557 ; brim
G1 X79.501 Y16.450 E2.13190 ; brim
G1 X79.789 Y14.771 E0.05340 ; brim
G1 X80.432 Y13.169 E0.05412 ; brim
G1 X82.027 Y11.136 E0.08101 ; brim
G1 X84.190 Y9.662 E0.08208 ; brim
G1 X84.401 Y9.974 F7200.000 ; move to first brim point
G1 F1800
G1 X86.903 Y9.309 E0.08115 ; brim
G1 X164.435 Y9.313 E2.43096 ; brim
G1 X166.032 Y9.601 E0.05090 ; brim
G1 X167.521 Y10.208 E0.05040 ; brim
G1 X169.455 Y11.737 E0.07732 ; brim
G1 X170.889 Y13.855 E0.08019 ; brim
G1 X171.538 Y16.334 E0.08033 ; brim
G1 X171.538 Y84.287 E2.13063 ; brim
G1 X171.259 Y85.897 E0.05124 ; brim
G1 X170.645 Y87.417 E0.05140 ; brim
G1 X169.111 Y89.360 E0.07760 ; brim
G1 X166.992 Y90.795 E0.08025 ; brim
G1 X164.514 Y91.444 E0.08033 ; brim
G1 X87.035 Y91.444 E2.42928 ; brim
G1 X85.425 Y91.165 E0.05124 ; brim
G1 X83.905 Y90.551 E0.05140 ; brim
G1 X81.962 Y89.018 E0.07760 ; brim
G1 X80.527 Y86.898 E0.08025 ; brim
G1 X79.878 Y84.420 E0.08033 ; brim
G1 X79.878 Y16.466 E2.13063 ; brim
G1 X80.157 Y14.856 E0.05124 ; brim
G1 X80.771 Y13.336 E0.05140 ; brim
G1 X82.305 Y11.393 E0.07760 ; brim
G1 X84.352 Y10.008 E0.07750 ; brim
G1 X84.552 Y10.315 F7200.000 ; move to first brim point
G1 F1800
G1 X86.927 Y9.686 E0.07705 ; brim
G1 X164.418 Y9.690 E2.42967 ; brim
G1 X165.908 Y9.957 E0.04748 ; brim
G1 X167.353 Y10.547 E0.04893 ; brim
G1 X169.198 Y12.014 E0.07391 ; brim
G1 X170.532 Y13.983 E0.07457 ; brim
G1 X171.161 Y16.358 E0.07704 ; brim
G1 X171.161 Y84.271 E2.12934 ; brim
G1 X170.891 Y85.812 E0.04907 ; brim
G1 X170.306 Y87.250 E0.04867 ; brim
G1 X168.834 Y89.103 E0.07420 ; brim
G1 X166.864 Y90.438 E0.07462 ; brim
G1 X164.489 Y91.067 E0.07705 ; brim
G1 X87.052 Y91.067 E2.42799 ; brim
G1 X85.510 Y90.797 E0.04907 ; brim
G1 X84.072 Y90.212 E0.04867 ; brim
G1 X82.219 Y88.740 E0.07420 ; brim
G1 X80.884 Y86.771 E0.07462 ; brim
G1 X80.255 Y84.395 E0.07705 ; brim
G1 X80.255 Y16.483 E2.12934 ; brim
G1 X80.525 Y14.941 E0.04907 ; brim
G1 X81.110 Y13.504 E0.04867 ; brim
G1 X82.582 Y11.650 E0.07420 ; brim
G1 X84.502 Y10.349 E0.07274 ; brim
G1 X84.712 Y10.661 F7200.000 ; move to first brim point
G1 F1800
G1 X86.951 Y10.063 E0.07267 ; brim
G1 X164.401 Y10.067 E2.42837 ; brim
G1 X165.821 Y10.325 E0.04526 ; brim
G1 X167.185 Y10.885 E0.04622 ; brim
G1 X168.940 Y12.290 E0.07050 ; brim
G1 X170.202 Y14.167 E0.07090 ; brim
G1 X170.784 Y16.382 E0.07183 ; brim
G1 X170.784 Y84.254 E2.12808 ; brim
G1 X170.534 Y85.689 E0.04565 ; brim
G1 X169.967 Y87.082 E0.04717 ; brim
G1 X168.558 Y88.845 E0.07075 ; brim
G1 X166.681 Y90.108 E0.07095 ; brim
G1 X164.465 Y90.690 E0.07184 ; brim
G1 X87.068 Y90.690 E2.42673 ; brim
G1 X85.633 Y90.440 E0.04565 ; brim
G1 X84.240 Y89.873 E0.04717 ; brim
G1 X82.477 Y88.464 E0.07075 ; brim
G1 X81.214 Y86.587 E0.07095 ; brim
G1 X80.632 Y84.371 E0.07184 ; brim
G1 X80.632 Y16.499 E2.12808 ; brim
G1 X80.882 Y15.065 E0.04565 ; brim
G1 X81.449 Y13.671 E0.04717 ; brim
G1 X82.858 Y11.909 E0.07075 ; brim
G1 X84.662 Y10.695 E0.06819 ; brim
G1 X84.872 Y11.008 F7200.000 ; move to first brim point
G1 F1800
G1 X84.918 Y10.977 E0.00175 ; brim
G1 X86.975 Y10.440 E0.06666 ; brim
G1 X164.384 Y10.444 E2.42708 ; brim
G1 X165.733 Y10.692 E0.04302 ; brim
G1 X167.015 Y11.223 E0.04350 ; brim
G1 X168.680 Y12.565 E0.06707 ; brim
G1 X169.870 Y14.349 E0.06724 ; brim
G1 X170.407 Y16.406 E0.06666 ; brim
G1 X170.407 Y84.238 E2.12681 ; brim
G1 X170.166 Y85.603 E0.04346 ; brim
G1 X169.629 Y86.913 E0.04441 ; brim
G1 X168.283 Y88.585 E0.06730 ; brim
G1 X166.498 Y89.776 E0.06728 ; brim
G1 X164.441 Y90.313 E0.06666 ; brim
G1 X87.084 Y90.313 E2.42546 ; brim
G1 X85.719 Y90.073 E0.04346 ; brim
G1 X84.409 Y89.535 E0.04441 ; brim
G1 X82.737 Y88.189 E0.06730 ; brim
G1 X81.546 Y86.404 E0.06728 ; brim
G1 X81.009 Y84.347 E0.06666 ; brim
G1 X81.009 Y16.516 E2.12681 ; brim
G1 X81.250 Y15.150 E0.04346 ; brim
G1 X81.787 Y13.840 E0.04441 ; brim
G1 X83.133 Y12.168 E0.06730 ; brim
G1 X84.822 Y11.041 E0.06365 ; brim
G1 X85.026 Y11.346 F7200.000 ; move to first brim point
G1 F1800
G1 X87.000 Y10.817 E0.06409 ; brim
G1 X164.366 Y10.821 E2.42576 ; brim
G1 X165.644 Y11.059 E0.04076 ; brim
G1 X166.844 Y11.560 E0.04078 ; brim
G1 X168.420 Y12.840 E0.06367 ; brim
G1 X169.514 Y14.476 E0.06170 ; brim
G1 X170.030 Y16.431 E0.06339 ; brim
G1 X170.030 Y84.221 E2.12551 ; brim
G1 X169.799 Y85.516 E0.04125 ; brim
G1 X169.291 Y86.743 E0.04164 ; brim
G1 X168.008 Y88.326 E0.06387 ; brim
G1 X166.371 Y89.420 E0.06173 ; brim
G1 X164.416 Y89.936 E0.06340 ; brim
G1 X87.101 Y89.936 E2.42416 ; brim
G1 X85.806 Y89.705 E0.04125 ; brim
G1 X84.579 Y89.197 E0.04164 ; brim
G1 X82.996 Y87.914 E0.06387 ; brim
G1 X81.902 Y86.277 E0.06173 ; brim
G1 X81.386 Y84.322 E0.06340 ; brim
G1 X81.386 Y16.532 E2.12551 ; brim
G1 X81.617 Y15.237 E0.04125 ; brim
G1 X82.125 Y14.010 E0.04164 ; brim
G1 X83.408 Y12.428 E0.06387 ; brim
G1 X84.976 Y11.380 E0.05913 ; brim
G1 X85.184 Y11.694 F7200.000 ; move to first brim point
G1 F1800
G1 X85.227 Y11.665 E0.00161 ; brim
G1 X87.024 Y11.194 E0.05825 ; brim
G1 X164.348 Y11.198 E2.42445 ; brim
G1 X165.554 Y11.425 E0.03847 ; brim
G1 X166.672 Y11.897 E0.03804 ; brim
G1 X168.159 Y13.113 E0.06025 ; brim
G1 X169.182 Y14.658 E0.05808 ; brim
G1 X169.653 Y16.455 E0.05825 ; brim
G1 X169.653 Y84.204 E2.12422 ; brim
G1 X169.432 Y85.429 E0.03902 ; brim
G1 X168.954 Y86.572 E0.03886 ; brim
G1 X167.735 Y88.065 E0.06043 ; brim
G1 X166.189 Y89.088 E0.05811 ; brim
G1 X164.392 Y89.559 E0.05825 ; brim
G1 X87.118 Y89.559 E2.42287 ; brim
G1 X85.894 Y89.338 E0.03902 ; brim
G1 X84.750 Y88.860 E0.03886 ; brim
G1 X83.257 Y87.641 E0.06043 ; brim
G1 X82.234 Y86.096 E0.05811 ; brim
G1 X81.763 Y84.298 E0.05825 ; brim
G1 X81.763 Y16.549 E2.12422 ; brim
G1 X81.984 Y15.325 E0.03902 ; brim
G1 X82.462 Y14.181 E0.03886 ; brim
G1 X83.681 Y12.689 E0.06043 ; brim
G1 X85.134 Y11.727 E0.05462 ; brim
G1 X85.337 Y12.033 F7200.000 ; move to first brim point
G1 F1800
G1 X87.049 Y11.572 E0.05559 ; brim
G1 X164.331 Y11.575 E2.42312 ; brim
G1 X165.426 Y11.781 E0.03494 ; brim
G1 X166.500 Y12.233 E0.03654 ; brim
G1 X167.898 Y13.386 E0.05681 ; brim
G1 X168.826 Y14.785 E0.05263 ; brim
G1 X169.276 Y16.480 E0.05499 ; brim
G1 X169.276 Y84.187 E2.12290 ; brim
G1 X169.065 Y85.340 E0.03676 ; brim
G1 X168.617 Y86.400 E0.03607 ; brim
G1 X167.461 Y87.803 E0.05701 ; brim
G1 X166.063 Y88.732 E0.05265 ; brim
G1 X164.367 Y89.182 E0.05499 ; brim
G1 X87.136 Y89.182 E2.42155 ; brim
G1 X85.982 Y88.971 E0.03676 ; brim
G1 X84.922 Y88.524 E0.03607 ; brim
G1 X83.519 Y87.368 E0.05701 ; brim
G1 X82.590 Y85.969 E0.05265 ; brim
G1 X82.140 Y84.274 E0.05499 ; brim
G1 X82.140 Y16.567 E2.12290 ; brim
G1 X82.351 Y15.413 E0.03676 ; brim
G1 X82.799 Y14.354 E0.03607 ; brim
G1 X83.955 Y12.950 E0.05701 ; brim
G1 X85.287 Y12.066 E0.05013 ; brim
G1 X85.493 Y12.380 F7200.000 ; move to first brim point
G1 F1800
G1 X85.534 Y12.354 E0.00153 ; brim
G1 X87.073 Y11.949 E0.04988 ; brim
G1 X164.313 Y11.952 E2.42180 ; brim
G1 X165.335 Y12.147 E0.03263 ; brim
G1 X166.326 Y12.569 E0.03378 ; brim
G1 X167.634 Y13.658 E0.05336 ; brim
G1 X168.494 Y14.965 E0.04907 ; brim
G1 X168.899 Y16.504 E0.04988 ; brim
G1 X168.899 Y84.170 E2.12162 ; brim
G1 X168.709 Y85.213 E0.03323 ; brim
G1 X168.281 Y86.227 E0.03453 ; brim
G1 X167.190 Y87.540 E0.05353 ; brim
G1 X165.882 Y88.400 E0.04908 ; brim
G1 X164.343 Y88.805 E0.04988 ; brim
G1 X87.152 Y88.805 E2.42027 ; brim
G1 X86.110 Y88.615 E0.03323 ; brim
G1 X85.095 Y88.187 E0.03453 ; brim
G1 X83.782 Y87.096 E0.05353 ; brim
G1 X82.922 Y85.788 E0.04908 ; brim
G1 X82.517 Y84.250 E0.04988 ; brim
G1 X82.517 Y16.584 E2.12162 ; brim
G1 X82.707 Y15.541 E0.03323 ; brim
G1 X83.135 Y14.526 E0.03453 ; brim
G1 X84.226 Y13.213 E0.05353 ; brim
G1 X85.443 Y12.413 E0.04567 ; brim
G1 X85.714 Y12.687 F7200.000 ; move to first brim point
G1 F1800
G1 X87.097 Y12.326 E0.04481 ; brim
G1 X164.294 Y12.329 E2.42048 ; brim
G1 X165.243 Y12.513 E0.03029 ; brim
G1 X166.151 Y12.904 E0.03101 ; brim
G1 X167.370 Y13.928 E0.04990 ; brim
G1 X168.161 Y15.145 E0.04551 ; brim
G1 X168.521 Y16.528 E0.04481 ; brim
G1 X168.521 Y84.152 E2.12032 ; brim
G1 X168.342 Y85.123 E0.03095 ; brim
G1 X167.945 Y86.053 E0.03170 ; brim
G1 X166.920 Y87.276 E0.05004 ; brim
G1 X165.702 Y88.067 E0.04552 ; brim
G1 X164.319 Y88.428 E0.04481 ; brim
G1 X87.170 Y88.428 E2.41897 ; brim
G1 X86.199 Y88.248 E0.03095 ; brim
G1 X85.269 Y87.852 E0.03170 ; brim
G1 X84.046 Y86.826 E0.05004 ; brim
G1 X83.255 Y85.608 E0.04552 ; brim
G1 X82.895 Y84.226 E0.04481 ; brim
G1 X82.895 Y16.601 E2.12032 ; brim
G1 X83.074 Y15.630 E0.03095 ; brim
G1 X83.471 Y14.700 E0.03170 ; brim
G1 X84.496 Y13.478 E0.05004 ; brim
G1 X85.663 Y12.719 E0.04364 ; brim
G1 X85.840 Y13.043 F7200.000 ; move to first brim point
G1 F1800
G1 X87.122 Y12.703 E0.04158 ; brim
G1 X164.276 Y12.706 E2.41911 ; brim
G1 X165.149 Y12.879 E0.02791 ; brim
G1 X165.974 Y13.238 E0.02823 ; brim
G1 X167.105 Y14.197 E0.04647 ; brim
G1 X167.804 Y15.271 E0.04018 ; brim
G1 X168.144 Y16.553 E0.04157 ; brim
G1 X168.144 Y84.134 E2.11898 ; brim
G1 X167.976 Y85.032 E0.02864 ; brim
G1 X167.611 Y85.877 E0.02886 ; brim
G1 X166.650 Y87.011 E0.04659 ; brim
G1 X165.576 Y87.710 E0.04019 ; brim
G1 X164.295 Y88.051 E0.04157 ; brim
G1 X87.188 Y88.051 E2.41763 ; brim
G1 X86.290 Y87.882 E0.02864 ; brim
G1 X85.445 Y87.517 E0.02886 ; brim
G1 X84.311 Y86.556 E0.04659 ; brim
G1 X83.612 Y85.482 E0.04019 ; brim
G1 X83.272 Y84.201 E0.04157 ; brim
G1 X83.272 Y16.619 E2.11898 ; brim
G1 X83.440 Y15.721 E0.02864 ; brim
G1 X83.805 Y14.876 E0.02886 ; brim
G1 X84.766 Y13.742 E0.04659 ; brim
G1 X85.790 Y13.076 E0.03831 ; brim
G1 X85.993 Y13.393 F7200.000 ; move to first brim point
G1 F1800
G1 X87.146 Y13.080 E0.03744 ; brim
G1 X164.256 Y13.083 E2.41775 ; brim
G1 X165.054 Y13.244 E0.02550 ; brim
G1 X165.796 Y13.572 E0.02545 ; brim
G1 X166.838 Y14.465 E0.04302 ; brim
G1 X167.471 Y15.449 E0.03669 ; brim
G1 X167.767 Y16.577 E0.03655 ; brim
G1 X167.767 Y84.116 E2.11765 ; brim
G1 X167.610 Y84.940 E0.02629 ; brim
G1 X167.277 Y85.700 E0.02601 ; brim
G1 X166.382 Y86.744 E0.04312 ; brim
G1 X165.398 Y87.377 E0.03670 ; brim
G1 X164.270 Y87.673 E0.03655 ; brim
G1 X87.206 Y87.673 E2.41630 ; brim
G1 X86.383 Y87.516 E0.02629 ; brim
G1 X85.623 Y87.183 E0.02601 ; brim
G1 X84.578 Y86.289 E0.04312 ; brim
G1 X83.945 Y85.304 E0.03670 ; brim
G1 X83.649 Y84.177 E0.03655 ; brim
G1 X83.649 Y16.637 E2.11765 ; brim
G1 X83.806 Y15.814 E0.02629 ; brim
G1 X84.139 Y15.054 E0.02601 ; brim
G1 X85.034 Y14.009 E0.04312 ; brim
G1 X85.943 Y13.425 E0.03389 ; brim
G1 X86.142 Y13.735 F7200.000 ; move to first brim point
G1 F1800
G1 X87.171 Y13.457 E0.03341 ; brim
G1 X164.237 Y13.461 E2.41634 ; brim
G1 X164.956 Y13.609 E0.02304 ; brim
G1 X165.616 Y13.904 E0.02266 ; brim
G1 X166.570 Y14.732 E0.03960 ; brim
G1 X167.114 Y15.576 E0.03149 ; brim
G1 X167.390 Y16.602 E0.03331 ; brim
G1 X167.390 Y84.099 E2.11631 ; brim
G1 X167.255 Y84.808 E0.02264 ; brim
G1 X166.943 Y85.522 E0.02442 ; brim
G1 X166.116 Y86.476 E0.03962 ; brim
G1 X165.271 Y87.021 E0.03149 ; brim
G1 X164.245 Y87.296 E0.03331 ; brim
G1 X87.223 Y87.296 E2.41496 ; brim
G1 X86.514 Y87.162 E0.02264 ; brim
G1 X85.800 Y86.849 E0.02442 ; brim
G1 X84.846 Y86.022 E0.03962 ; brim
G1 X84.302 Y85.177 E0.03149 ; brim
G1 X84.026 Y84.151 E0.03331 ; brim
G1 X84.026 Y16.655 E2.11631 ; brim
G1 X84.160 Y15.945 E0.02264 ; brim
G1 X84.473 Y15.232 E0.02442 ; brim
G1 X85.300 Y14.277 E0.03962 ; brim
G1 X86.092 Y13.767 E0.02951 ; brim
G1 X86.293 Y14.085 F7200.000 ; move to first brim point
G1 F1800
G1 X87.195 Y13.834 E0.02935 ; brim
