; generated by Slic3r 1.37.2.1-prusa3d-win64 on 2018-02-16 at 13:06:30

; 

; external perimeters extrusion width = 0.70mm
; perimeters extrusion width = 0.70mm
; infill extrusion width = 0.70mm
; solid infill extrusion width = 0.70mm
; top infill extrusion width = 0.74mm
; first layer extrusion width = 0.42mm

M107 ; disable fan
M115 U3.1.0 ; tell printer latest fw version
M83  ; extruder relative mode
M104 S255 ; set extruder temp
M140 S70 ; set bed temp
M190 S70 ; wait for bed temp
M109 S255 ; wait for extruder temp
G28 W ; home all without mesh bed level
G80 ; mesh bed leveling
G1 Y-3.0 F1000.0 ; go outside pritn area
G1 X60.0 E9.0  F1000.0 ; intro line
G1 X100.0 E12.5  F1000.0 ; intro line
G92 E0.0
M900 K30
G21 ; set units to millimeters
G90 ; use absolute coordinates
M83 ; use relative distances for extrusion
;BEFORE_LAYER_CHANGE
;0.2


G1 E-0.80000 F2100.00000 ; retract
G1 Z0.600 F7200.000 ; lift Z
;AFTER_LAYER_CHANGE
;0.2
G1 X78.353 Y11.207 F7200.000 ; move to first skirt point
G1 Z0.200 F7200.000 ; restore layer Z
G1 E0.80000 F2100.00000 ; unretract
M204 S1000 ; adjust acceleration
G1 F1800
G1 X78.952 Y9.388 E0.06005 ; skirt
G1 X79.875 Y7.709 E0.06005 ; skirt
G1 X81.090 Y6.229 E0.06005 ; skirt
G1 X82.583 Y4.980 E0.06105 ; skirt
G1 X84.291 Y4.028 E0.06129 ; skirt
G1 X86.147 Y3.413 E0.06129 ; skirt
G1 X88.085 Y3.157 E0.06129 ; skirt
G1 X164.676 Y3.150 E2.40147 ; skirt
G1 X166.583 Y3.328 E0.06005 ; skirt
G1 X168.432 Y3.857 E0.06030 ; skirt
G1 X170.152 Y4.717 E0.06030 ; skirt
G1 X171.683 Y5.881 E0.06030 ; skirt
G1 X172.974 Y7.306 E0.06030 ; skirt
G1 X173.976 Y8.939 E0.06005 ; skirt
G1 X174.662 Y10.735 E0.06030 ; skirt
G1 X175.006 Y12.627 E0.06030 ; skirt
G1 X175.037 Y80.608 E2.13148 ; skirt
G1 X174.786 Y82.507 E0.06005 ; skirt
G1 X174.187 Y84.334 E0.06030 ; skirt
G1 X173.265 Y86.013 E0.06005 ; skirt
G1 X172.045 Y87.500 E0.06030 ; skirt
G1 X171.288 Y88.193 E0.03218 ; skirt
G1 X170.473 Y88.803 E0.03193 ; skirt
G1 X169.595 Y89.335 E0.03218 ; skirt
G1 X168.669 Y89.777 E0.03218 ; skirt
G1 X167.712 Y90.123 E0.03193 ; skirt
G1 X166.717 Y90.375 E0.03218 ; skirt
G1 X165.702 Y90.527 E0.03218 ; skirt
G1 X164.677 Y90.579 E0.03218 ; skirt
G1 X88.094 Y90.572 E2.40122 ; skirt
G1 X86.187 Y90.325 E0.06030 ; skirt
G1 X84.350 Y89.727 E0.06055 ; skirt
G1 X82.663 Y88.804 E0.06030 ; skirt
G1 X81.170 Y87.580 E0.06055 ; skirt
G1 X80.477 Y86.823 E0.03218 ; skirt
G1 X79.867 Y86.008 E0.03193 ; skirt
G1 X79.335 Y85.130 E0.03218 ; skirt
G1 X78.893 Y84.204 E0.03218 ; skirt
G1 X78.547 Y83.246 E0.03193 ; skirt
G1 X78.295 Y82.251 E0.03218 ; skirt
G1 X78.142 Y81.236 E0.03218 ; skirt
G1 X78.091 Y80.211 E0.03218 ; skirt
G1 X78.099 Y13.105 E2.10406 ; skirt
G1 X78.346 Y11.267 E0.05817 ; skirt
G1 F5760
G1 X78.952 Y9.388 E-0.68379 ; wipe and retract
G1 F5760
G1 X79.058 Y9.195 E-0.07621 ; wipe and retract
G1 E-0.04000 F2100.00000 ; retract
G1 Z0.800 F7200.000 ; lift Z
G1 X84.972 Y5.760 F7200.000 ; move to first brim point
G1 Z0.200 F7200.000 ; restore layer Z
G1 E0.80000 F2100.00000 ; unretract
G1 F1800
G1 X87.714 Y5.043 E0.08886 ; brim
G1 X165.328 Y5.046 E2.43354 ; brim
G1 X167.065 Y5.353 E0.05529 ; brim
G1 X168.715 Y6.018 E0.05577 ; brim
G1 X170.828 Y7.669 E0.08409 ; brim
G1 X172.435 Y10.031 E0.08958 ; brim
G1 X173.152 Y12.773 E0.08885 ; brim
G1 X173.152 Y80.808 E2.13318 ; brim
G1 X172.855 Y82.554 E0.05554 ; brim
G1 X172.183 Y84.238 E0.05684 ; brim
G1 X170.528 Y86.360 E0.08442 ; brim
G1 X168.164 Y87.969 E0.08965 ; brim
G1 X165.422 Y88.686 E0.08886 ; brim
G1 X87.862 Y88.686 E2.43183 ; brim
G1 X86.116 Y88.389 E0.05554 ; brim
G1 X84.432 Y87.718 E0.05684 ; brim
G1 X82.309 Y86.062 E0.08442 ; brim
G1 X80.701 Y83.698 E0.08965 ; brim
G1 X79.984 Y80.956 E0.08886 ; brim
G1 X79.984 Y12.922 E2.13318 ; brim
G1 X80.281 Y11.175 E0.05554 ; brim
G1 X80.952 Y9.492 E0.05684 ; brim
G1 X82.608 Y7.369 E0.08442 ; brim
G1 X84.922 Y5.794 E0.08777 ; brim
G1 X85.100 Y6.116 F7200.000 ; move to first brim point
G1 F1800
G1 X87.739 Y5.420 E0.08557 ; brim
G1 X165.312 Y5.423 E2.43225 ; brim
G1 X166.979 Y5.721 E0.05311 ; brim
G1 X168.548 Y6.357 E0.05309 ; brim
G1 X170.572 Y7.948 E0.08072 ; brim
G1 X172.079 Y10.159 E0.08389 ; brim
G1 X172.775 Y12.797 E0.08556 ; brim
G1 X172.775 Y80.791 E2.13190 ; brim
G1 X172.487 Y82.470 E0.05340 ; brim
G1 X171.844 Y84.072 E0.05412 ; brim
G1 X170.249 Y86.105 E0.08101 ; brim
G1 X168.036 Y87.613 E0.08396 ; brim
G1 X165.397 Y88.309 E0.08557 ; brim
G1 X87.879 Y88.309 E2.43055 ; brim
G1 X86.200 Y88.021 E0.05340 ; brim
G1 X84.598 Y87.378 E0.05412 ; brim
G1 X82.565 Y85.783 E0.08101 ; brim
G1 X81.057 Y83.570 E0.08396 ; brim
G1 X80.361 Y80.932 E0.08557 ; brim
G1 X80.361 Y12.938 E2.13190 ; brim
G1 X80.649 Y11.259 E0.05340 ; brim
G1 X81.292 Y9.657 E0.05412 ; brim
G1 X82.887 Y7.624 E0.08101 ; brim
G1 X85.050 Y6.150 E0.08208 ; brim
G1 X85.261 Y6.462 F7200.000 ; move to first brim point
G1 F1800
G1 X87.763 Y5.797 E0.08115 ; brim
G1 X165.295 Y5.801 E2.43096 ; brim
G1 X166.892 Y6.088 E0.05090 ; brim
G1 X168.381 Y6.696 E0.05040 ; brim
G1 X170.315 Y8.225 E0.07732 ; brim
G1 X171.748 Y10.343 E0.08019 ; brim
G1 X172.398 Y12.821 E0.08033 ; brim
G1 X172.398 Y80.775 E2.13063 ; brim
G1 X172.119 Y82.385 E0.05124 ; brim
G1 X171.504 Y83.905 E0.05140 ; brim
G1 X169.971 Y85.848 E0.07760 ; brim
G1 X167.852 Y87.283 E0.08025 ; brim
G1 X165.373 Y87.932 E0.08033 ; brim
G1 X87.895 Y87.932 E2.42928 ; brim
G1 X86.285 Y87.653 E0.05124 ; brim
G1 X84.765 Y87.039 E0.05140 ; brim
G1 X82.822 Y85.506 E0.07760 ; brim
G1 X81.387 Y83.386 E0.08025 ; brim
G1 X80.738 Y80.908 E0.08033 ; brim
G1 X80.738 Y12.954 E2.13063 ; brim
G1 X81.017 Y11.344 E0.05124 ; brim
G1 X81.631 Y9.824 E0.05140 ; brim
G1 X83.164 Y7.881 E0.07760 ; brim
G1 X85.211 Y6.496 E0.07750 ; brim
G1 X85.412 Y6.803 F7200.000 ; move to first brim point
G1 F1800
G1 X87.787 Y6.174 E0.07705 ; brim
G1 X165.278 Y6.178 E2.42967 ; brim
G1 X166.768 Y6.445 E0.04748 ; brim
G1 X168.213 Y7.035 E0.04893 ; brim
G1 X170.058 Y8.502 E0.07391 ; brim
G1 X171.392 Y10.471 E0.07457 ; brim
G1 X172.021 Y12.846 E0.07704 ; brim
G1 X172.021 Y80.758 E2.12934 ; brim
G1 X171.751 Y82.300 E0.04907 ; brim
G1 X171.166 Y83.738 E0.04867 ; brim
G1 X169.694 Y85.591 E0.07420 ; brim
G1 X167.724 Y86.926 E0.07462 ; brim
G1 X165.349 Y87.555 E0.07705 ; brim
G1 X87.911 Y87.555 E2.42799 ; brim
G1 X86.370 Y87.285 E0.04907 ; brim
G1 X84.932 Y86.700 E0.04867 ; brim
G1 X83.079 Y85.228 E0.07420 ; brim
G1 X81.744 Y83.258 E0.07462 ; brim
G1 X81.115 Y80.883 E0.07705 ; brim
G1 X81.115 Y12.971 E2.12934 ; brim
G1 X81.385 Y11.429 E0.04907 ; brim
G1 X81.970 Y9.991 E0.04867 ; brim
G1 X83.442 Y8.138 E0.07420 ; brim
G1 X85.362 Y6.836 E0.07274 ; brim
G1 X85.572 Y7.149 F7200.000 ; move to first brim point
G1 F1800
G1 X87.811 Y6.551 E0.07267 ; brim
G1 X165.261 Y6.555 E2.42837 ; brim
G1 X166.681 Y6.812 E0.04526 ; brim
G1 X168.044 Y7.373 E0.04622 ; brim
G1 X169.800 Y8.778 E0.07050 ; brim
G1 X171.061 Y10.654 E0.07090 ; brim
G1 X171.644 Y12.870 E0.07183 ; brim
G1 X171.644 Y80.742 E2.12808 ; brim
G1 X171.394 Y82.177 E0.04565 ; brim
G1 X170.827 Y83.570 E0.04717 ; brim
G1 X169.418 Y85.333 E0.07075 ; brim
G1 X167.541 Y86.596 E0.07095 ; brim
G1 X165.325 Y87.178 E0.07184 ; brim
G1 X87.928 Y87.178 E2.42673 ; brim
G1 X86.493 Y86.928 E0.04565 ; brim
G1 X85.100 Y86.361 E0.04717 ; brim
G1 X83.337 Y84.952 E0.07075 ; brim
G1 X82.074 Y83.075 E0.07095 ; brim
G1 X81.492 Y80.859 E0.07184 ; brim
G1 X81.492 Y12.987 E2.12808 ; brim
G1 X81.742 Y11.552 E0.04565 ; brim
G1 X82.309 Y10.159 E0.04717 ; brim
G1 X83.718 Y8.397 E0.07075 ; brim
G1 X85.522 Y7.182 E0.06819 ; brim
G1 X85.731 Y7.496 F7200.000 ; move to first brim point
G1 F1800
G1 X85.778 Y7.465 E0.00175 ; brim
G1 X87.835 Y6.928 E0.06666 ; brim
G1 X165.243 Y6.932 E2.42708 ; brim
G1 X166.593 Y7.180 E0.04302 ; brim
G1 X167.875 Y7.711 E0.04350 ; brim
G1 X169.540 Y9.053 E0.06707 ; brim
G1 X170.730 Y10.837 E0.06724 ; brim
G1 X171.267 Y12.894 E0.06666 ; brim
G1 X171.267 Y80.726 E2.12681 ; brim
G1 X171.026 Y82.091 E0.04346 ; brim
G1 X170.488 Y83.401 E0.04441 ; brim
G1 X169.143 Y85.073 E0.06730 ; brim
G1 X167.358 Y86.264 E0.06728 ; brim
G1 X165.301 Y86.801 E0.06666 ; brim
G1 X87.944 Y86.801 E2.42546 ; brim
G1 X86.579 Y86.561 E0.04346 ; brim
G1 X85.269 Y86.023 E0.04441 ; brim
G1 X83.597 Y84.677 E0.06730 ; brim
G1 X82.406 Y82.892 E0.06728 ; brim
G1 X81.869 Y80.835 E0.06666 ; brim
G1 X81.869 Y13.003 E2.12681 ; brim
G1 X82.109 Y11.638 E0.04346 ; brim
G1 X82.647 Y10.328 E0.04441 ; brim
G1 X83.993 Y8.656 E0.06730 ; brim
G1 X85.682 Y7.529 E0.06365 ; brim
G1 X85.885 Y7.834 F7200.000 ; move to first brim point
G1 F1800
G1 X87.860 Y7.305 E0.06409 ; brim
G1 X165.226 Y7.309 E2.42576 ; brim
G1 X166.504 Y7.546 E0.04076 ; brim
G1 X167.704 Y8.048 E0.04078 ; brim
G1 X169.280 Y9.328 E0.06367 ; brim
G1 X170.374 Y10.964 E0.06170 ; brim
G1 X170.890 Y12.919 E0.06339 ; brim
G1 X170.890 Y80.709 E2.12551 ; brim
G1 X170.659 Y82.004 E0.04125 ; brim
G1 X170.151 Y83.231 E0.04164 ; brim
G1 X168.868 Y84.814 E0.06387 ; brim
G1 X167.231 Y85.908 E0.06173 ; brim
G1 X165.276 Y86.424 E0.06340 ; brim
G1 X87.961 Y86.424 E2.42416 ; brim
G1 X86.666 Y86.193 E0.04125 ; brim
G1 X85.439 Y85.685 E0.04164 ; brim
G1 X83.856 Y84.402 E0.06387 ; brim
G1 X82.762 Y82.765 E0.06173 ; brim
G1 X82.246 Y80.810 E0.06340 ; brim
G1 X82.246 Y13.020 E2.12551 ; brim
G1 X82.477 Y11.725 E0.04125 ; brim
G1 X82.985 Y10.498 E0.04164 ; brim
G1 X84.268 Y8.915 E0.06387 ; brim
G1 X85.836 Y7.867 E0.05912 ; brim
G1 X86.044 Y8.181 F7200.000 ; move to first brim point
G1 F1800
G1 X86.086 Y8.153 E0.00161 ; brim
G1 X87.884 Y7.682 E0.05825 ; brim
G1 X165.208 Y7.686 E2.42445 ; brim
G1 X166.414 Y7.913 E0.03847 ; brim
G1 X167.532 Y8.384 E0.03804 ; brim
G1 X169.019 Y9.601 E0.06025 ; brim
G1 X170.042 Y11.146 E0.05808 ; brim
G1 X170.513 Y12.943 E0.05825 ; brim
G1 X170.513 Y80.692 E2.12422 ; brim
G1 X170.292 Y81.916 E0.03902 ; brim
G1 X169.814 Y83.060 E0.03886 ; brim
G1 X168.594 Y84.553 E0.06043 ; brim
G1 X167.049 Y85.576 E0.05811 ; brim
G1 X165.252 Y86.047 E0.05825 ; brim
G1 X87.978 Y86.047 E2.42287 ; brim
G1 X86.753 Y85.826 E0.03902 ; brim
G1 X85.610 Y85.348 E0.03886 ; brim
G1 X84.117 Y84.129 E0.06043 ; brim
G1 X83.094 Y82.584 E0.05811 ; brim
G1 X82.623 Y80.786 E0.05825 ; brim
G1 X82.623 Y13.037 E2.12422 ; brim
G1 X82.844 Y11.813 E0.03902 ; brim
G1 X83.322 Y10.669 E0.03886 ; brim
G1 X84.541 Y9.177 E0.06043 ; brim
G1 X85.993 Y8.215 E0.05462 ; brim
G1 X86.197 Y8.520 F7200.000 ; move to first brim point
G1 F1800
G1 X87.909 Y8.059 E0.05559 ; brim
G1 X165.191 Y8.063 E2.42312 ; brim
G1 X166.286 Y8.269 E0.03494 ; brim
G1 X167.360 Y8.721 E0.03654 ; brim
G1 X168.757 Y9.874 E0.05681 ; brim
G1 X169.686 Y11.272 E0.05263 ; brim
G1 X170.136 Y12.968 E0.05499 ; brim
G1 X170.136 Y80.674 E2.12290 ; brim
G1 X169.924 Y81.828 E0.03676 ; brim
G1 X169.477 Y82.888 E0.03607 ; brim
G1 X168.321 Y84.291 E0.05701 ; brim
G1 X166.922 Y85.220 E0.05265 ; brim
G1 X165.227 Y85.670 E0.05499 ; brim
G1 X87.995 Y85.670 E2.42155 ; brim
G1 X86.842 Y85.459 E0.03676 ; brim
G1 X85.782 Y85.011 E0.03607 ; brim
G1 X84.379 Y83.856 E0.05701 ; brim
G1 X83.450 Y82.457 E0.05265 ; brim
G1 X83.000 Y80.762 E0.05499 ; brim
G1 X83.000 Y13.055 E2.12290 ; brim
G1 X83.211 Y11.901 E0.03676 ; brim
G1 X83.658 Y10.841 E0.03607 ; brim
G1 X84.814 Y9.438 E0.05701 ; brim
G1 X86.147 Y8.554 E0.05013 ; brim
G1 X86.353 Y8.868 F7200.000 ; move to first brim point
G1 F1800
G1 X86.394 Y8.841 E0.00153 ; brim
G1 X87.933 Y8.436 E0.04988 ; brim
G1 X165.173 Y8.440 E2.42180 ; brim
G1 X166.195 Y8.635 E0.03263 ; brim
G1 X167.186 Y9.057 E0.03378 ; brim
G1 X168.494 Y10.145 E0.05336 ; brim
G1 X169.353 Y11.453 E0.04907 ; brim
G1 X169.758 Y12.992 E0.04988 ; brim
G1 X169.758 Y80.658 E2.12162 ; brim
G1 X169.569 Y81.700 E0.03323 ; brim
G1 X169.141 Y82.715 E0.03453 ; brim
G1 X168.050 Y84.028 E0.05353 ; brim
G1 X166.742 Y84.888 E0.04908 ; brim
G1 X165.203 Y85.293 E0.04988 ; brim
G1 X88.012 Y85.293 E2.42027 ; brim
G1 X86.970 Y85.103 E0.03323 ; brim
G1 X85.955 Y84.675 E0.03453 ; brim
G1 X84.642 Y83.584 E0.05353 ; brim
G1 X83.782 Y82.276 E0.04908 ; brim
G1 X83.377 Y80.737 E0.04988 ; brim
G1 X83.377 Y13.071 E2.12162 ; brim
G1 X83.567 Y12.029 E0.03323 ; brim
G1 X83.995 Y11.014 E0.03453 ; brim
G1 X85.086 Y9.701 E0.05353 ; brim
G1 X86.303 Y8.901 E0.04567 ; brim
G1 X86.574 Y9.174 F7200.000 ; move to first brim point
G1 F1800
G1 X87.957 Y8.814 E0.04481 ; brim
G1 X165.154 Y8.817 E2.42048 ; brim
G1 X166.103 Y9.001 E0.03029 ; brim
G1 X167.011 Y9.392 E0.03101 ; brim
G1 X168.230 Y10.416 E0.04990 ; brim
G1 X169.020 Y11.633 E0.04551 ; brim
G1 X169.381 Y13.016 E0.04481 ; brim
G1 X169.381 Y80.640 E2.12032 ; brim
G1 X169.202 Y81.611 E0.03095 ; brim
G1 X168.805 Y82.541 E0.03170 ; brim
G1 X167.780 Y83.764 E0.05004 ; brim
G1 X166.562 Y84.555 E0.04552 ; brim
G1 X165.179 Y84.916 E0.04481 ; brim
G1 X88.030 Y84.916 E2.41897 ; brim
G1 X87.059 Y84.736 E0.03095 ; brim
G1 X86.129 Y84.340 E0.03170 ; brim
G1 X84.906 Y83.314 E0.05004 ; brim
G1 X84.115 Y82.096 E0.04552 ; brim
G1 X83.754 Y80.714 E0.04481 ; brim
G1 X83.754 Y13.089 E2.12032 ; brim
G1 X83.934 Y12.118 E0.03095 ; brim
G1 X84.330 Y11.188 E0.03170 ; brim
G1 X85.356 Y9.965 E0.05004 ; brim
G1 X86.523 Y9.207 E0.04364 ; brim
G1 X86.700 Y9.531 F7200.000 ; move to first brim point
G1 F1800
G1 X87.981 Y9.191 E0.04158 ; brim
G1 X165.135 Y9.194 E2.41911 ; brim
G1 X166.009 Y9.367 E0.02791 ; brim
G1 X166.834 Y9.726 E0.02823 ; brim
G1 X167.965 Y10.685 E0.04647 ; brim
G1 X168.664 Y11.759 E0.04018 ; brim
G1 X169.004 Y13.040 E0.04157 ; brim
G1 X169.004 Y80.622 E2.11898 ; brim
G1 X168.836 Y81.520 E0.02864 ; brim
G1 X168.471 Y82.365 E0.02886 ; brim
G1 X167.510 Y83.499 E0.04659 ; brim
G1 X166.436 Y84.198 E0.04019 ; brim
G1 X165.154 Y84.538 E0.04157 ; brim
G1 X88.048 Y84.538 E2.41763 ; brim
G1 X87.150 Y84.370 E0.02864 ; brim
G1 X86.305 Y84.005 E0.02886 ; brim
G1 X85.171 Y83.044 E0.04659 ; brim
G1 X84.472 Y81.970 E0.04019 ; brim
G1 X84.131 Y80.689 E0.04157 ; brim
G1 X84.131 Y13.107 E2.11898 ; brim
G1 X84.300 Y12.209 E0.02864 ; brim
G1 X84.665 Y11.364 E0.02886 ; brim
G1 X85.626 Y10.230 E0.04659 ; brim
G1 X86.650 Y9.564 E0.03831 ; brim
G1 X86.853 Y9.880 F7200.000 ; move to first brim point
G1 F1800
G1 X88.006 Y9.568 E0.03744 ; brim
G1 X165.116 Y9.571 E2.41775 ; brim
G1 X165.913 Y9.732 E0.02550 ; brim
G1 X166.656 Y10.060 E0.02545 ; brim
G1 X167.698 Y10.953 E0.04302 ; brim
G1 X168.330 Y11.937 E0.03669 ; brim
G1 X168.627 Y13.065 E0.03655 ; brim
G1 X168.627 Y80.604 E2.11765 ; brim
G1 X168.469 Y81.427 E0.02629 ; brim
G1 X168.137 Y82.187 E0.02601 ; brim
G1 X167.242 Y83.232 E0.04312 ; brim
G1 X166.258 Y83.865 E0.03670 ; brim
G1 X165.130 Y84.161 E0.03655 ; brim
G1 X88.066 Y84.161 E2.41630 ; brim
G1 X87.242 Y84.004 E0.02629 ; brim
G1 X86.483 Y83.671 E0.02601 ; brim
G1 X85.438 Y82.777 E0.04312 ; brim
G1 X84.805 Y81.792 E0.03670 ; brim
G1 X84.509 Y80.665 E0.03655 ; brim
G1 X84.509 Y13.125 E2.11765 ; brim
G1 X84.666 Y12.302 E0.02629 ; brim
G1 X84.999 Y11.542 E0.02601 ; brim
G1 X85.893 Y10.497 E0.04312 ; brim
G1 X86.803 Y9.913 E0.03389 ; brim
G1 X87.002 Y10.222 F7200.000 ; move to first brim point
G1 F1800
G1 X88.031 Y9.945 E0.03341 ; brim
G1 X165.097 Y9.948 E2.41634 ; brim
G1 X165.816 Y10.097 E0.02304 ; brim
G1 X166.476 Y10.392 E0.02266 ; brim
G1 X167.430 Y11.220 E0.03960 ; brim
G1 X167.974 Y12.064 E0.03149 ; brim
G1 X168.250 Y13.090 E0.03331 ; brim
G1 X168.250 Y80.587 E2.11631 ; brim
G1 X168.115 Y81.296 E0.02264 ; brim
G1 X167.803 Y82.010 E0.02442 ; brim
G1 X166.975 Y82.964 E0.03962 ; brim
G1 X166.131 Y83.508 E0.03149 ; brim
G1 X165.105 Y83.784 E0.03331 ; brim
G1 X88.083 Y83.784 E2.41496 ; brim
G1 X87.374 Y83.650 E0.02264 ; brim
G1 X86.660 Y83.337 E0.02442 ; brim
G1 X85.706 Y82.510 E0.03962 ; brim
G1 X85.162 Y81.665 E0.03149 ; brim
G1 X84.886 Y80.639 E0.03331 ; brim
G1 X84.886 Y13.143 E2.11631 ; brim
G1 X85.020 Y12.433 E0.02264 ; brim
G1 X85.333 Y11.720 E0.02442 ; brim
G1 X86.160 Y10.765 E0.03962 ; brim
G1 X86.952 Y10.255 E0.02951 ; brim
G1 X87.153 Y10.573 F7200.000 ; move to first brim point
G1 F1800
G1 X88.055 Y10.322 E0.02935 ; brim
G1 X165.077 Y10.326 E2.41498 ; brim
G1 X165.681 Y10.450 E0.01933 ; brim
