; generated by Slic3r 1.37.2.1-prusa3d-win64 on 2018-02-16 at 12:51:19

; 

; external perimeters extrusion width = 0.70mm
; perimeters extrusion width = 0.70mm
; infill extrusion width = 0.70mm
; solid infill extrusion width = 0.70mm
; top infill extrusion width = 0.74mm
; first layer extrusion width = 0.42mm

M107 ; disable fan
M115 U3.1.0 ; tell printer latest fw version
M83  ; extruder relative mode
M104 S255 ; set extruder temp
M140 S70 ; set bed temp
M190 S70 ; wait for bed temp
M109 S255 ; wait for extruder temp
G28 W ; home all without mesh bed level
G80 ; mesh bed leveling
G1 Y-3.0 F1000.0 ; go outside pritn area
G1 X60.0 E9.0  F1000.0 ; intro line
G1 X100.0 E12.5  F1000.0 ; intro line
G92 E0.0
M900 K30
G21 ; set units to millimeters
G90 ; use absolute coordinates
M83 ; use relative distances for extrusion
;BEFORE_LAYER_CHANGE
;0.2


G1 E-0.80000 F2100.00000 ; retract
G1 Z0.600 F7200.000 ; lift Z
;AFTER_LAYER_CHANGE
;0.2
G1 X80.542 Y3.404 F7200.000 ; move to first skirt point
G1 Z0.200 F7200.000 ; restore layer Z
G1 E0.80000 F2100.00000 ; unretract
M204 S1000 ; adjust acceleration
G1 F1800
G1 X82.271 Y2.409 E0.06254 ; skirt
G1 X84.158 Y1.764 E0.06254 ; skirt
G1 X86.142 Y1.491 E0.06278 ; skirt
G1 X159.833 Y1.483 E2.31054 ; skirt
G1 X161.740 Y1.661 E0.06005 ; skirt
G1 X163.589 Y2.189 E0.06030 ; skirt
G1 X165.302 Y3.046 E0.06005 ; skirt
G1 X166.835 Y4.208 E0.06030 ; skirt
G1 X168.122 Y5.626 E0.06005 ; skirt
G1 X169.126 Y7.257 E0.06005 ; skirt
G1 X169.813 Y9.045 E0.06005 ; skirt
G1 X170.161 Y10.936 E0.06030 ; skirt
G1 X170.195 Y78.925 E2.13172 ; skirt
G1 X169.957 Y80.777 E0.05856 ; skirt
G1 X169.388 Y82.564 E0.05881 ; skirt
G1 X168.511 Y84.213 E0.05856 ; skirt
G1 X167.347 Y85.684 E0.05881 ; skirt
G1 X166.592 Y86.402 E0.03267 ; skirt
G1 X165.768 Y87.041 E0.03267 ; skirt
G1 X164.885 Y87.594 E0.03267 ; skirt
G1 X163.944 Y88.059 E0.03292 ; skirt
G1 X162.968 Y88.425 E0.03267 ; skirt
G1 X161.952 Y88.692 E0.03292 ; skirt
G1 X160.915 Y88.854 E0.03292 ; skirt
G1 X159.874 Y88.912 E0.03267 ; skirt
G1 X86.191 Y88.905 E2.31029 ; skirt
G1 X84.330 Y88.670 E0.05881 ; skirt
G1 X82.542 Y88.104 E0.05881 ; skirt
G1 X80.885 Y87.225 E0.05881 ; skirt
G1 X79.408 Y86.056 E0.05906 ; skirt
G1 X78.689 Y85.301 E0.03267 ; skirt
G1 X78.050 Y84.478 E0.03267 ; skirt
G1 X77.497 Y83.595 E0.03267 ; skirt
G1 X77.032 Y82.653 E0.03292 ; skirt
G1 X76.667 Y81.677 E0.03267 ; skirt
G1 X76.400 Y80.662 E0.03292 ; skirt
G1 X76.237 Y79.624 E0.03292 ; skirt
G1 X76.180 Y78.584 E0.03267 ; skirt
G1 X76.187 Y11.462 E2.10456 ; skirt
G1 X76.428 Y9.602 E0.05881 ; skirt
G1 X76.997 Y7.823 E0.05856 ; skirt
G1 X77.876 Y6.175 E0.05856 ; skirt
G1 X79.035 Y4.711 E0.05856 ; skirt
G1 X80.497 Y3.443 E0.06065 ; skirt
G1 F5760
G1 X82.271 Y2.409 E-0.71121 ; wipe and retract
G1 F5760
G1 X82.404 Y2.364 E-0.04879 ; wipe and retract
G1 E-0.04000 F2100.00000 ; retract
G1 Z0.800 F7200.000 ; lift Z
G1 X84.007 Y4.093 F7200.000 ; move to first brim point
G1 Z0.200 F7200.000 ; restore layer Z
G1 E0.80000 F2100.00000 ; unretract
G1 F1800
G1 X86.749 Y3.375 E0.08886 ; brim
G1 X159.539 Y3.379 E2.28229 ; brim
G1 X161.276 Y3.686 E0.05529 ; brim
G1 X162.926 Y4.350 E0.05577 ; brim
G1 X165.039 Y6.002 E0.08409 ; brim
G1 X166.646 Y8.364 E0.08958 ; brim
G1 X167.363 Y11.106 E0.08885 ; brim
G1 X167.363 Y79.140 E2.13318 ; brim
G1 X167.066 Y80.886 E0.05554 ; brim
G1 X166.395 Y82.570 E0.05684 ; brim
G1 X164.739 Y84.693 E0.08442 ; brim
G1 X162.375 Y86.302 E0.08965 ; brim
G1 X159.633 Y87.019 E0.08886 ; brim
G1 X86.898 Y87.019 E2.28057 ; brim
G1 X85.151 Y86.722 E0.05554 ; brim
G1 X83.467 Y86.050 E0.05684 ; brim
G1 X81.345 Y84.394 E0.08442 ; brim
G1 X79.736 Y82.031 E0.08965 ; brim
G1 X79.019 Y79.289 E0.08886 ; brim
G1 X79.019 Y11.254 E2.13318 ; brim
G1 X79.316 Y9.508 E0.05554 ; brim
G1 X79.987 Y7.824 E0.05684 ; brim
G1 X81.643 Y5.701 E0.08442 ; brim
G1 X83.958 Y4.126 E0.08777 ; brim
G1 X84.135 Y4.449 F7200.000 ; move to first brim point
G1 F1800
G1 X86.774 Y3.753 E0.08558 ; brim
G1 X159.523 Y3.756 E2.28099 ; brim
G1 X161.190 Y4.054 E0.05310 ; brim
G1 X162.759 Y4.690 E0.05309 ; brim
G1 X164.783 Y6.280 E0.08072 ; brim
G1 X166.290 Y8.492 E0.08389 ; brim
G1 X166.986 Y11.130 E0.08556 ; brim
G1 X166.986 Y79.124 E2.13190 ; brim
G1 X166.698 Y80.803 E0.05340 ; brim
G1 X166.055 Y82.405 E0.05412 ; brim
G1 X164.460 Y84.437 E0.08101 ; brim
G1 X162.247 Y85.946 E0.08396 ; brim
G1 X159.609 Y86.642 E0.08557 ; brim
G1 X86.914 Y86.642 E2.27930 ; brim
G1 X85.235 Y86.354 E0.05340 ; brim
G1 X83.633 Y85.711 E0.05412 ; brim
G1 X81.600 Y84.116 E0.08101 ; brim
G1 X80.092 Y81.903 E0.08396 ; brim
G1 X79.396 Y79.264 E0.08557 ; brim
G1 X79.396 Y11.270 E2.13190 ; brim
G1 X79.684 Y9.592 E0.05340 ; brim
G1 X80.327 Y7.990 E0.05412 ; brim
G1 X81.922 Y5.957 E0.08101 ; brim
G1 X84.085 Y4.483 E0.08208 ; brim
G1 X84.296 Y4.795 F7200.000 ; move to first brim point
G1 F1800
G1 X86.798 Y4.130 E0.08115 ; brim
G1 X159.506 Y4.133 E2.27971 ; brim
G1 X161.103 Y4.421 E0.05090 ; brim
G1 X162.592 Y5.028 E0.05040 ; brim
G1 X164.526 Y6.558 E0.07732 ; brim
G1 X165.960 Y8.676 E0.08019 ; brim
G1 X166.609 Y11.154 E0.08033 ; brim
G1 X166.609 Y79.108 E2.13063 ; brim
G1 X166.330 Y80.718 E0.05124 ; brim
G1 X165.716 Y82.238 E0.05140 ; brim
G1 X164.182 Y84.181 E0.07760 ; brim
G1 X162.063 Y85.615 E0.08025 ; brim
G1 X159.585 Y86.265 E0.08033 ; brim
G1 X86.930 Y86.265 E2.27803 ; brim
G1 X85.320 Y85.986 E0.05124 ; brim
G1 X83.800 Y85.371 E0.05140 ; brim
G1 X81.857 Y83.838 E0.07760 ; brim
G1 X80.422 Y81.719 E0.08025 ; brim
G1 X79.773 Y79.240 E0.08033 ; brim
G1 X79.773 Y11.287 E2.13063 ; brim
G1 X80.052 Y9.676 E0.05124 ; brim
G1 X80.666 Y8.157 E0.05140 ; brim
G1 X82.200 Y6.214 E0.07760 ; brim
G1 X84.247 Y4.828 E0.07750 ; brim
G1 X84.447 Y5.135 F7200.000 ; move to first brim point
G1 F1800
G1 X86.822 Y4.507 E0.07705 ; brim
G1 X159.489 Y4.510 E2.27841 ; brim
G1 X160.979 Y4.778 E0.04748 ; brim
G1 X162.424 Y5.367 E0.04893 ; brim
G1 X164.269 Y6.835 E0.07391 ; brim
G1 X165.603 Y8.803 E0.07457 ; brim
G1 X166.232 Y11.179 E0.07704 ; brim
G1 X166.232 Y79.091 E2.12934 ; brim
G1 X165.962 Y80.633 E0.04907 ; brim
G1 X165.377 Y82.070 E0.04867 ; brim
G1 X163.905 Y83.924 E0.07420 ; brim
G1 X161.935 Y85.259 E0.07462 ; brim
G1 X159.560 Y85.888 E0.07705 ; brim
G1 X86.947 Y85.888 E2.27674 ; brim
G1 X85.405 Y85.618 E0.04907 ; brim
G1 X83.967 Y85.032 E0.04867 ; brim
G1 X82.114 Y83.561 E0.07420 ; brim
G1 X80.779 Y81.591 E0.07462 ; brim
G1 X80.150 Y79.216 E0.07705 ; brim
G1 X80.150 Y11.303 E2.12934 ; brim
G1 X80.420 Y9.762 E0.04907 ; brim
G1 X81.005 Y8.324 E0.04867 ; brim
G1 X82.477 Y6.471 E0.07420 ; brim
G1 X84.397 Y5.169 E0.07274 ; brim
G1 X84.607 Y5.482 F7200.000 ; move to first brim point
G1 F1800
G1 X86.846 Y4.884 E0.07267 ; brim
G1 X159.472 Y4.887 E2.27712 ; brim
G1 X160.892 Y5.145 E0.04526 ; brim
G1 X162.255 Y5.706 E0.04622 ; brim
G1 X164.011 Y7.111 E0.07050 ; brim
G1 X165.273 Y8.987 E0.07090 ; brim
G1 X165.855 Y11.203 E0.07183 ; brim
G1 X165.855 Y79.075 E2.12808 ; brim
G1 X165.605 Y80.509 E0.04565 ; brim
G1 X165.038 Y81.903 E0.04717 ; brim
G1 X163.629 Y83.665 E0.07075 ; brim
G1 X161.752 Y84.928 E0.07095 ; brim
G1 X159.536 Y85.511 E0.07184 ; brim
G1 X86.963 Y85.511 E2.27548 ; brim
G1 X85.528 Y85.261 E0.04565 ; brim
G1 X84.135 Y84.694 E0.04717 ; brim
G1 X82.372 Y83.285 E0.07075 ; brim
G1 X81.109 Y81.407 E0.07095 ; brim
G1 X80.527 Y79.192 E0.07184 ; brim
G1 X80.527 Y11.320 E2.12808 ; brim
G1 X80.777 Y9.885 E0.04565 ; brim
G1 X81.344 Y8.492 E0.04717 ; brim
G1 X82.753 Y6.729 E0.07075 ; brim
G1 X84.557 Y5.515 E0.06819 ; brim
G1 X84.767 Y5.828 F7200.000 ; move to first brim point
G1 F1800
G1 X84.813 Y5.798 E0.00175 ; brim
G1 X86.870 Y5.261 E0.06667 ; brim
G1 X159.455 Y5.265 E2.27583 ; brim
G1 X160.804 Y5.512 E0.04302 ; brim
G1 X162.086 Y6.043 E0.04350 ; brim
G1 X163.751 Y7.386 E0.06707 ; brim
G1 X164.941 Y9.170 E0.06724 ; brim
G1 X165.478 Y11.227 E0.06666 ; brim
G1 X165.478 Y79.058 E2.12681 ; brim
G1 X165.237 Y80.424 E0.04346 ; brim
G1 X164.700 Y81.734 E0.04441 ; brim
G1 X163.354 Y83.406 E0.06730 ; brim
G1 X161.569 Y84.597 E0.06728 ; brim
G1 X159.512 Y85.134 E0.06666 ; brim
G1 X86.979 Y85.134 E2.27421 ; brim
G1 X85.614 Y84.893 E0.04346 ; brim
G1 X84.304 Y84.355 E0.04441 ; brim
G1 X82.632 Y83.010 E0.06730 ; brim
G1 X81.441 Y81.225 E0.06728 ; brim
G1 X80.904 Y79.168 E0.06666 ; brim
G1 X80.904 Y11.336 E2.12681 ; brim
G1 X81.145 Y9.971 E0.04346 ; brim
G1 X81.682 Y8.661 E0.04441 ; brim
G1 X83.028 Y6.989 E0.06730 ; brim
G1 X84.717 Y5.862 E0.06365 ; brim
G1 X84.921 Y6.167 F7200.000 ; move to first brim point
G1 F1800
G1 X86.895 Y5.638 E0.06409 ; brim
G1 X159.437 Y5.642 E2.27450 ; brim
G1 X160.715 Y5.879 E0.04075 ; brim
G1 X161.915 Y6.381 E0.04078 ; brim
G1 X163.491 Y7.661 E0.06367 ; brim
G1 X164.585 Y9.297 E0.06170 ; brim
G1 X165.101 Y11.251 E0.06340 ; brim
G1 X165.101 Y79.042 E2.12551 ; brim
G1 X164.870 Y80.337 E0.04125 ; brim
G1 X164.362 Y81.564 E0.04164 ; brim
G1 X163.079 Y83.146 E0.06387 ; brim
G1 X161.442 Y84.241 E0.06173 ; brim
G1 X159.487 Y84.757 E0.06340 ; brim
G1 X86.996 Y84.757 E2.27291 ; brim
G1 X85.701 Y84.526 E0.04125 ; brim
G1 X84.474 Y84.018 E0.04164 ; brim
G1 X82.891 Y82.735 E0.06387 ; brim
G1 X81.797 Y81.098 E0.06173 ; brim
G1 X81.281 Y79.143 E0.06340 ; brim
G1 X81.281 Y11.353 E2.12551 ; brim
G1 X81.512 Y10.058 E0.04125 ; brim
G1 X82.020 Y8.831 E0.04164 ; brim
G1 X83.303 Y7.248 E0.06387 ; brim
G1 X84.871 Y6.200 E0.05912 ; brim
G1 X85.079 Y6.514 F7200.000 ; move to first brim point
G1 F1800
G1 X85.122 Y6.486 E0.00161 ; brim
G1 X86.919 Y6.015 E0.05826 ; brim
G1 X159.419 Y6.019 E2.27319 ; brim
G1 X160.625 Y6.246 E0.03847 ; brim
G1 X161.743 Y6.717 E0.03804 ; brim
G1 X163.230 Y7.934 E0.06025 ; brim
G1 X164.253 Y9.478 E0.05808 ; brim
G1 X164.724 Y11.275 E0.05825 ; brim
G1 X164.724 Y79.024 E2.12422 ; brim
G1 X164.503 Y80.249 E0.03902 ; brim
G1 X164.025 Y81.393 E0.03886 ; brim
G1 X162.806 Y82.885 E0.06043 ; brim
G1 X161.260 Y83.909 E0.05811 ; brim
G1 X159.463 Y84.379 E0.05825 ; brim
G1 X87.013 Y84.379 E2.27162 ; brim
G1 X85.789 Y84.158 E0.03902 ; brim
G1 X84.645 Y83.681 E0.03886 ; brim
G1 X83.152 Y82.461 E0.06043 ; brim
G1 X82.129 Y80.916 E0.05811 ; brim
G1 X81.658 Y79.119 E0.05825 ; brim
G1 X81.658 Y11.370 E2.12422 ; brim
G1 X81.879 Y10.145 E0.03902 ; brim
G1 X82.357 Y9.002 E0.03886 ; brim
G1 X83.576 Y7.509 E0.06043 ; brim
G1 X85.029 Y6.547 E0.05462 ; brim
G1 X85.232 Y6.853 F7200.000 ; move to first brim point
G1 F1800
G1 X86.944 Y6.392 E0.05559 ; brim
G1 X159.402 Y6.396 E2.27187 ; brim
G1 X160.497 Y6.601 E0.03494 ; brim
G1 X161.571 Y7.054 E0.03654 ; brim
G1 X162.969 Y8.207 E0.05681 ; brim
G1 X163.897 Y9.605 E0.05263 ; brim
G1 X164.347 Y11.300 E0.05499 ; brim
G1 X164.347 Y79.007 E2.12290 ; brim
G1 X164.136 Y80.161 E0.03676 ; brim
G1 X163.688 Y81.220 E0.03607 ; brim
G1 X162.532 Y82.624 E0.05701 ; brim
G1 X161.134 Y83.552 E0.05265 ; brim
G1 X159.438 Y84.002 E0.05499 ; brim
G1 X87.031 Y84.002 E2.27030 ; brim
G1 X85.877 Y83.791 E0.03676 ; brim
G1 X84.817 Y83.344 E0.03607 ; brim
G1 X83.414 Y82.188 E0.05701 ; brim
G1 X82.485 Y80.789 E0.05265 ; brim
G1 X82.035 Y79.094 E0.05499 ; brim
G1 X82.035 Y11.387 E2.12290 ; brim
G1 X82.246 Y10.234 E0.03676 ; brim
G1 X82.694 Y9.174 E0.03607 ; brim
G1 X83.850 Y7.771 E0.05701 ; brim
G1 X85.182 Y6.886 E0.05013 ; brim
G1 X85.388 Y7.201 F7200.000 ; move to first brim point
G1 F1800
G1 X85.429 Y7.174 E0.00153 ; brim
G1 X86.968 Y6.769 E0.04988 ; brim
G1 X159.384 Y6.773 E2.27055 ; brim
G1 X160.406 Y6.968 E0.03263 ; brim
G1 X161.397 Y7.390 E0.03378 ; brim
G1 X162.705 Y8.478 E0.05336 ; brim
G1 X163.565 Y9.786 E0.04907 ; brim
G1 X163.970 Y11.324 E0.04988 ; brim
G1 X163.970 Y78.990 E2.12162 ; brim
G1 X163.780 Y80.033 E0.03323 ; brim
G1 X163.352 Y81.048 E0.03453 ; brim
G1 X162.261 Y82.361 E0.05353 ; brim
G1 X160.953 Y83.220 E0.04908 ; brim
G1 X159.414 Y83.625 E0.04988 ; brim
G1 X87.047 Y83.625 E2.26901 ; brim
G1 X86.005 Y83.436 E0.03323 ; brim
G1 X84.990 Y83.008 E0.03453 ; brim
G1 X83.677 Y81.917 E0.05353 ; brim
G1 X82.817 Y80.608 E0.04908 ; brim
G1 X82.412 Y79.070 E0.04988 ; brim
G1 X82.412 Y11.404 E2.12162 ; brim
G1 X82.602 Y10.361 E0.03323 ; brim
G1 X83.030 Y9.347 E0.03453 ; brim
G1 X84.121 Y8.034 E0.05353 ; brim
G1 X85.338 Y7.234 E0.04567 ; brim
G1 X85.609 Y7.507 F7200.000 ; move to first brim point
G1 F1800
G1 X86.992 Y7.146 E0.04481 ; brim
G1 X159.365 Y7.150 E2.26922 ; brim
G1 X160.314 Y7.334 E0.03029 ; brim
G1 X161.222 Y7.725 E0.03101 ; brim
G1 X162.441 Y8.748 E0.04990 ; brim
G1 X163.232 Y9.965 E0.04551 ; brim
G1 X163.592 Y11.348 E0.04481 ; brim
G1 X163.592 Y78.973 E2.12032 ; brim
G1 X163.413 Y79.944 E0.03095 ; brim
G1 X163.016 Y80.874 E0.03170 ; brim
G1 X161.991 Y82.096 E0.05004 ; brim
G1 X160.773 Y82.887 E0.04552 ; brim
G1 X159.390 Y83.248 E0.04481 ; brim
G1 X87.065 Y83.248 E2.26772 ; brim
G1 X86.094 Y83.069 E0.03095 ; brim
G1 X85.164 Y82.672 E0.03170 ; brim
G1 X83.941 Y81.647 E0.05004 ; brim
G1 X83.150 Y80.429 E0.04552 ; brim
G1 X82.790 Y79.046 E0.04481 ; brim
G1 X82.790 Y11.422 E2.12032 ; brim
G1 X82.969 Y10.451 E0.03095 ; brim
G1 X83.366 Y9.521 E0.03170 ; brim
G1 X84.391 Y8.298 E0.05004 ; brim
G1 X85.558 Y7.540 E0.04364 ; brim
G1 X85.735 Y7.864 F7200.000 ; move to first brim point
G1 F1800
G1 X87.017 Y7.523 E0.04158 ; brim
G1 X159.346 Y7.527 E2.26785 ; brim
G1 X160.220 Y7.700 E0.02791 ; brim
G1 X161.045 Y8.059 E0.02823 ; brim
G1 X162.176 Y9.018 E0.04647 ; brim
G1 X162.875 Y10.092 E0.04018 ; brim
G1 X163.215 Y11.373 E0.04157 ; brim
G1 X163.215 Y78.955 E2.11898 ; brim
G1 X163.047 Y79.853 E0.02864 ; brim
G1 X162.682 Y80.698 E0.02886 ; brim
G1 X161.721 Y81.831 E0.04659 ; brim
G1 X160.647 Y82.531 E0.04019 ; brim
G1 X159.366 Y82.871 E0.04157 ; brim
G1 X87.083 Y82.871 E2.26638 ; brim
G1 X86.185 Y82.702 E0.02864 ; brim
G1 X85.340 Y82.338 E0.02886 ; brim
G1 X84.206 Y81.377 E0.04659 ; brim
G1 X83.507 Y80.303 E0.04019 ; brim
G1 X83.167 Y79.021 E0.04157 ; brim
G1 X83.167 Y11.440 E2.11898 ; brim
G1 X83.335 Y10.542 E0.02864 ; brim
G1 X83.700 Y9.697 E0.02886 ; brim
G1 X84.661 Y8.563 E0.04659 ; brim
G1 X85.685 Y7.896 E0.03831 ; brim
G1 X85.888 Y8.213 F7200.000 ; move to first brim point
G1 F1800
G1 X87.041 Y7.900 E0.03744 ; brim
G1 X159.327 Y7.904 E2.26650 ; brim
G1 X160.125 Y8.065 E0.02550 ; brim
G1 X160.867 Y8.392 E0.02545 ; brim
G1 X161.909 Y9.285 E0.04302 ; brim
G1 X162.542 Y10.270 E0.03669 ; brim
G1 X162.838 Y11.397 E0.03655 ; brim
G1 X162.838 Y78.937 E2.11765 ; brim
G1 X162.681 Y79.760 E0.02629 ; brim
G1 X162.348 Y80.520 E0.02601 ; brim
G1 X161.453 Y81.565 E0.04312 ; brim
G1 X160.469 Y82.197 E0.03670 ; brim
G1 X159.341 Y82.494 E0.03655 ; brim
G1 X87.101 Y82.494 E2.26505 ; brim
G1 X86.278 Y82.336 E0.02629 ; brim
G1 X85.518 Y82.004 E0.02601 ; brim
G1 X84.473 Y81.109 E0.04312 ; brim
G1 X83.840 Y80.125 E0.03670 ; brim
G1 X83.544 Y78.997 E0.03655 ; brim
G1 X83.544 Y11.458 E2.11765 ; brim
G1 X83.701 Y10.634 E0.02629 ; brim
G1 X84.034 Y9.874 E0.02601 ; brim
G1 X84.929 Y8.830 E0.04312 ; brim
G1 X85.838 Y8.246 E0.03389 ; brim
G1 X86.037 Y8.555 F7200.000 ; move to first brim point
G1 F1800
G1 X87.066 Y8.278 E0.03341 ; brim
G1 X159.308 Y8.281 E2.26509 ; brim
G1 X160.027 Y8.430 E0.02304 ; brim
G1 X160.687 Y8.725 E0.02266 ; brim
G1 X161.641 Y9.552 E0.03960 ; brim
G1 X162.185 Y10.397 E0.03149 ; brim
G1 X162.461 Y11.423 E0.03331 ; brim
G1 X162.461 Y78.919 E2.11631 ; brim
G1 X162.326 Y79.629 E0.02264 ; brim
G1 X162.014 Y80.342 E0.02442 ; brim
G1 X161.187 Y81.297 E0.03962 ; brim
G1 X160.342 Y81.841 E0.03149 ; brim
G1 X159.316 Y82.117 E0.03331 ; brim
G1 X87.118 Y82.117 E2.26371 ; brim
G1 X86.409 Y81.982 E0.02264 ; brim
G1 X85.695 Y81.670 E0.02442 ; brim
G1 X84.741 Y80.842 E0.03962 ; brim
G1 X84.197 Y79.998 E0.03149 ; brim
G1 X83.921 Y78.972 E0.03331 ; brim
G1 X83.921 Y11.475 E2.11631 ; brim
G1 X84.056 Y10.766 E0.02264 ; brim
G1 X84.368 Y10.052 E0.02442 ; brim
G1 X85.195 Y9.097 E0.03962 ; brim
G1 X85.987 Y8.588 E0.02951 ; brim
G1 X86.188 Y8.905 F7200.000 ; move to first brim point
G1 F1800
G1 X87.090 Y8.655 E0.02935 ; brim
G1 X159.289 Y8.658 E2.26372 ; brim
G1 X159.892 Y8.782 E0.01933 ; brim
G1 X160.507 Y9.057 E0.02110 ; brim
G1 X161.371 Y9.817 E0.03609 ; brim
