; generated by Slic3r 1.37.2.1-prusa3d-win64 on 2018-02-18 at 09:32:43

; 

; external perimeters extrusion width = 0.70mm
; perimeters extrusion width = 0.70mm
; infill extrusion width = 0.70mm
; solid infill extrusion width = 0.70mm
; top infill extrusion width = 0.74mm
; first layer extrusion width = 0.42mm

M107 ; disable fan
M115 U3.1.0 ; tell printer latest fw version
M83  ; extruder relative mode
M104 S255 ; set extruder temp
M140 S100 ; set bed temp
M190 S100 ; wait for bed temp
M109 S255 ; wait for extruder temp
G28 W ; home all without mesh bed level
G80 ; mesh bed leveling
G1 Y-3.0 F1000.0 ; go outside pritn area
G1 X60.0 E9.0  F1000.0 ; intro line
G1 X100.0 E12.5  F1000.0 ; intro line
G92 E0.0
M900 K30
G21 ; set units to millimeters
G90 ; use absolute coordinates
M83 ; use relative distances for extrusion
;BEFORE_LAYER_CHANGE
;0.2


G1 E-0.80000 F2100.00000 ; retract
G1 Z0.600 F7200.000 ; lift Z
;AFTER_LAYER_CHANGE
;0.2
G1 X108.100 Y28.484 F7200.000 ; move to first skirt point
G1 Z0.200 F7200.000 ; restore layer Z
G1 E0.80000 F2100.00000 ; unretract
M204 S1000 ; adjust acceleration
G1 F1800
G1 X108.984 Y26.098 E0.07980 ; skirt
G1 X109.490 Y25.017 E0.03741 ; skirt
G1 X110.761 Y22.809 E0.07989 ; skirt
G1 X112.301 Y20.773 E0.08002 ; skirt
G1 X113.122 Y19.865 E0.03841 ; skirt
G1 X114.925 Y18.162 E0.07774 ; skirt
G1 X116.973 Y16.661 E0.07963 ; skirt
G1 X117.998 Y16.035 E0.03766 ; skirt
G1 X120.312 Y14.879 E0.08110 ; skirt
G1 X122.728 Y14.030 E0.08027 ; skirt
G1 X123.977 Y13.715 E0.04040 ; skirt
G1 X126.395 Y13.304 E0.07691 ; skirt
G1 X129.042 Y13.189 E0.08307 ; skirt
G1 X130.154 Y13.243 E0.03491 ; skirt
G1 X132.618 Y13.547 E0.07784 ; skirt
G1 X135.015 Y14.146 E0.07747 ; skirt
G1 X136.263 Y14.580 E0.04140 ; skirt
G1 X138.524 Y15.570 E0.07741 ; skirt
G1 X140.733 Y16.890 E0.08069 ; skirt
G1 X141.725 Y17.609 E0.03841 ; skirt
G1 X143.790 Y19.395 E0.08559 ; skirt
G1 X145.618 Y21.450 E0.08625 ; skirt
G1 X147.017 Y23.496 E0.07770 ; skirt
G1 X147.632 Y24.554 E0.03841 ; skirt
G1 X148.631 Y26.697 E0.07412 ; skirt
G1 X149.461 Y29.260 E0.08446 ; skirt
G1 X149.716 Y30.295 E0.03342 ; skirt
G1 X150.084 Y32.792 E0.07914 ; skirt
G1 X150.169 Y34.684 E0.05940 ; skirt
G1 X150.084 Y36.552 E0.05863 ; skirt
G1 X149.715 Y39.054 E0.07928 ; skirt
G1 X148.996 Y41.631 E0.08389 ; skirt
G1 X148.633 Y42.642 E0.03367 ; skirt
G1 X147.467 Y45.101 E0.08534 ; skirt
G1 X146.123 Y47.199 E0.07812 ; skirt
G1 X145.387 Y48.178 E0.03841 ; skirt
G1 X143.783 Y49.956 E0.07508 ; skirt
G1 X141.722 Y51.736 E0.08540 ; skirt
G1 X140.744 Y52.447 E0.03791 ; skirt
G1 X138.537 Y53.767 E0.08062 ; skirt
G1 X136.296 Y54.752 E0.07677 ; skirt
G1 X135.074 Y55.181 E0.04059 ; skirt
G1 X132.656 Y55.790 E0.07818 ; skirt
G1 X130.113 Y56.103 E0.08035 ; skirt
G1 X128.996 Y56.154 E0.03505 ; skirt
G1 X126.411 Y56.041 E0.08112 ; skirt
G1 X123.966 Y55.627 E0.07777 ; skirt
G1 X122.734 Y55.315 E0.03985 ; skirt
G1 X120.310 Y54.464 E0.08053 ; skirt
G1 X118.011 Y53.316 E0.08057 ; skirt
G1 X116.986 Y52.690 E0.03766 ; skirt
G1 X114.945 Y51.199 E0.07926 ; skirt
G1 X113.120 Y49.479 E0.07864 ; skirt
G1 X112.309 Y48.582 E0.03791 ; skirt
G1 X110.767 Y46.544 E0.08013 ; skirt
G1 X109.491 Y44.328 E0.08018 ; skirt
G1 X108.985 Y43.248 E0.03741 ; skirt
G1 X108.101 Y40.865 E0.07968 ; skirt
G1 X107.528 Y38.414 E0.07893 ; skirt
G1 X107.350 Y37.218 E0.03791 ; skirt
G1 X107.190 Y34.658 E0.08043 ; skirt
G1 X107.351 Y32.114 E0.07993 ; skirt
G1 X107.529 Y30.926 E0.03766 ; skirt
G1 X108.086 Y28.543 E0.07674 ; skirt
G1 F5760
G1 X108.842 Y26.483 E-0.76000 ; wipe and retract
G1 E-0.04000 F2100.00000 ; retract
G1 Z0.800 F7200.000 ; lift Z
G1 X109.932 Y28.979 F7200.000 ; move to first brim point
G1 Z0.200 F7200.000 ; restore layer Z
G1 E0.80000 F2100.00000 ; unretract
G1 F1800
G1 X110.859 Y26.518 E0.08245 ; brim
G1 X112.530 Y23.568 E0.10631 ; brim
G1 X114.073 Y21.608 E0.07819 ; brim
G1 X115.866 Y19.843 E0.07889 ; brim
G1 X118.488 Y17.934 E0.10169 ; brim
G1 X121.373 Y16.488 E0.10121 ; brim
G1 X123.748 Y15.706 E0.07837 ; brim
G1 X126.182 Y15.233 E0.07777 ; brim
G1 X129.748 Y15.103 E0.11188 ; brim
G1 X132.616 Y15.474 E0.09066 ; brim
G1 X135.106 Y16.159 E0.08099 ; brim
G1 X137.478 Y17.161 E0.08071 ; brim
G1 X140.338 Y18.919 E0.10525 ; brim
G1 X142.269 Y20.553 E0.07933 ; brim
G1 X143.981 Y22.429 E0.07965 ; brim
G1 X145.583 Y24.758 E0.08862 ; brim
G1 X146.837 Y27.302 E0.08893 ; brim
G1 X147.734 Y30.095 E0.09197 ; brim
G1 X148.229 Y33.282 E0.10112 ; brim
G1 X148.276 Y34.667 E0.04348 ; brim
G1 X148.229 Y36.057 E0.04358 ; brim
G1 X147.844 Y38.762 E0.08568 ; brim
G1 X147.089 Y41.389 E0.08571 ; brim
G1 X145.830 Y44.152 E0.09520 ; brim
G1 X144.341 Y46.450 E0.08586 ; brim
G1 X142.558 Y48.507 E0.08537 ; brim
G1 X140.351 Y50.412 E0.09139 ; brim
G1 X137.960 Y51.931 E0.08883 ; brim
G1 X135.400 Y53.079 E0.08797 ; brim
G1 X132.625 Y53.867 E0.09045 ; brim
G1 X129.715 Y54.240 E0.09199 ; brim
G1 X126.900 Y54.188 E0.08826 ; brim
G1 X123.741 Y53.634 E0.10056 ; brim
G1 X120.686 Y52.564 E0.10151 ; brim
G1 X118.149 Y51.199 E0.09034 ; brim
G1 X116.031 Y49.640 E0.08245 ; brim
G1 X114.148 Y47.819 E0.08213 ; brim
G1 X112.265 Y45.376 E0.09671 ; brim
G1 X110.781 Y42.654 E0.09720 ; brim
G1 X109.910 Y40.304 E0.07857 ; brim
G1 X109.343 Y37.869 E0.07840 ; brim
G1 X109.085 Y34.288 E0.11256 ; brim
G1 X109.350 Y31.442 E0.08961 ; brim
G1 X109.918 Y29.037 E0.07749 ; brim
G1 X110.284 Y29.123 F7200.000 ; move to first brim point
G1 F1800
G1 X111.206 Y26.665 E0.08232 ; brim
G1 X112.836 Y23.790 E0.10362 ; brim
G1 X114.361 Y21.851 E0.07737 ; brim
G1 X116.120 Y20.122 E0.07732 ; brim
G1 X118.671 Y18.264 E0.09894 ; brim
G1 X121.505 Y16.841 E0.09943 ; brim
G1 X123.831 Y16.074 E0.07681 ; brim
G1 X126.240 Y15.606 E0.07693 ; brim
G1 X129.716 Y15.479 E0.10905 ; brim
G1 X132.529 Y15.842 E0.08894 ; brim
G1 X134.971 Y16.511 E0.07940 ; brim
G1 X137.318 Y17.503 E0.07987 ; brim
G1 X140.105 Y19.216 E0.10257 ; brim
G1 X142.016 Y20.833 E0.07850 ; brim
G1 X143.694 Y22.674 E0.07810 ; brim
G1 X145.265 Y24.960 E0.08698 ; brim
G1 X146.493 Y27.456 E0.08721 ; brim
G1 X147.370 Y30.196 E0.09020 ; brim
G1 X147.853 Y33.306 E0.09868 ; brim
G1 X147.899 Y34.674 E0.04292 ; brim
G1 X147.852 Y36.034 E0.04266 ; brim
G1 X147.473 Y38.696 E0.08431 ; brim
G1 X146.731 Y41.271 E0.08404 ; brim
G1 X145.492 Y43.982 E0.09345 ; brim
G1 X144.032 Y46.234 E0.08414 ; brim
G1 X142.282 Y48.250 E0.08371 ; brim
G1 X140.116 Y50.117 E0.08968 ; brim
G1 X137.770 Y51.605 E0.08711 ; brim
G1 X135.258 Y52.729 E0.08627 ; brim
G1 X132.536 Y53.500 E0.08872 ; brim
G1 X129.681 Y53.864 E0.09024 ; brim
G1 X126.922 Y53.811 E0.08651 ; brim
G1 X123.822 Y53.265 E0.09870 ; brim
G1 X120.851 Y52.225 E0.09869 ; brim
G1 X118.361 Y50.887 E0.08863 ; brim
G1 X116.284 Y49.359 E0.08085 ; brim
G1 X114.438 Y47.578 E0.08044 ; brim
G1 X112.589 Y45.182 E0.09488 ; brim
G1 X111.130 Y42.510 E0.09546 ; brim
G1 X110.274 Y40.207 E0.07702 ; brim
G1 X109.714 Y37.798 E0.07756 ; brim
G1 X109.462 Y34.307 E0.10972 ; brim
G1 X109.720 Y31.516 E0.08790 ; brim
G1 X110.270 Y29.182 E0.07519 ; brim
G1 X110.636 Y29.268 F7200.000 ; move to first brim point
G1 F1800
G1 X110.660 Y29.163 E0.00336 ; brim
G1 X111.554 Y26.813 E0.07885 ; brim
G1 X113.141 Y24.012 E0.10095 ; brim
G1 X114.634 Y22.111 E0.07579 ; brim
G1 X116.374 Y20.401 E0.07650 ; brim
G1 X118.880 Y18.578 E0.09714 ; brim
G1 X121.636 Y17.195 E0.09669 ; brim
G1 X123.938 Y16.436 E0.07600 ; brim
G1 X126.297 Y15.979 E0.07534 ; brim
G1 X129.683 Y15.855 E0.10624 ; brim
G1 X132.442 Y16.209 E0.08721 ; brim
G1 X134.859 Y16.872 E0.07859 ; brim
G1 X137.158 Y17.844 E0.07825 ; brim
G1 X139.872 Y19.513 E0.09991 ; brim
G1 X141.746 Y21.096 E0.07690 ; brim
G1 X143.406 Y22.918 E0.07730 ; brim
G1 X144.946 Y25.162 E0.08532 ; brim
G1 X146.148 Y27.609 E0.08550 ; brim
G1 X147.007 Y30.296 E0.08844 ; brim
G1 X147.476 Y33.330 E0.09625 ; brim
G1 X147.522 Y34.667 E0.04196 ; brim
G1 X147.476 Y36.011 E0.04214 ; brim
G1 X147.107 Y38.604 E0.08213 ; brim
G1 X146.372 Y41.153 E0.08318 ; brim
G1 X145.155 Y43.813 E0.09170 ; brim
G1 X143.723 Y46.017 E0.08243 ; brim
G1 X142.006 Y47.992 E0.08205 ; brim
G1 X139.880 Y49.823 E0.08797 ; brim
G1 X137.579 Y51.279 E0.08538 ; brim
G1 X135.117 Y52.379 E0.08456 ; brim
G1 X132.447 Y53.134 E0.08700 ; brim
G1 X129.647 Y53.488 E0.08848 ; brim
G1 X126.944 Y53.435 E0.08476 ; brim
G1 X123.932 Y52.904 E0.09591 ; brim
G1 X121.016 Y51.886 E0.09683 ; brim
G1 X118.574 Y50.575 E0.08692 ; brim
G1 X116.536 Y49.079 E0.07924 ; brim
G1 X114.710 Y47.316 E0.07961 ; brim
G1 X112.897 Y44.964 E0.09312 ; brim
G1 X111.479 Y42.366 E0.09280 ; brim
G1 X110.632 Y40.087 E0.07622 ; brim
G1 X110.085 Y37.727 E0.07596 ; brim
G1 X109.839 Y34.326 E0.10690 ; brim
G1 X110.090 Y31.589 E0.08618 ; brim
G1 X110.622 Y29.326 E0.07290 ; brim
G1 X110.988 Y29.412 F7200.000 ; move to first brim point
G1 F1800
G1 X111.017 Y29.285 E0.00407 ; brim
G1 X111.889 Y26.986 E0.07711 ; brim
G1 X113.446 Y24.233 E0.09915 ; brim
G1 X114.923 Y22.354 E0.07496 ; brim
G1 X116.629 Y20.679 E0.07493 ; brim
G1 X119.063 Y18.908 E0.09440 ; brim
G1 X121.768 Y17.549 E0.09491 ; brim
G1 X124.021 Y16.803 E0.07443 ; brim
G1 X126.354 Y16.352 E0.07451 ; brim
G1 X129.651 Y16.231 E0.10342 ; brim
G1 X132.356 Y16.576 E0.08549 ; brim
G1 X134.724 Y17.224 E0.07699 ; brim
G1 X136.998 Y18.186 E0.07741 ; brim
G1 X139.640 Y19.810 E0.09724 ; brim
G1 X141.493 Y21.376 E0.07607 ; brim
G1 X143.119 Y23.162 E0.07573 ; brim
G1 X144.627 Y25.364 E0.08367 ; brim
G1 X145.803 Y27.763 E0.08378 ; brim
G1 X146.643 Y30.397 E0.08667 ; brim
G1 X147.100 Y33.354 E0.09382 ; brim
G1 X147.145 Y34.674 E0.04141 ; brim
G1 X147.099 Y35.987 E0.04121 ; brim
G1 X146.735 Y38.537 E0.08077 ; brim
G1 X146.014 Y41.035 E0.08151 ; brim
G1 X144.818 Y43.643 E0.08995 ; brim
G1 X143.414 Y45.800 E0.08071 ; brim
G1 X141.731 Y47.734 E0.08039 ; brim
G1 X139.645 Y49.528 E0.08625 ; brim
G1 X137.390 Y50.953 E0.08366 ; brim
G1 X134.976 Y52.029 E0.08285 ; brim
G1 X132.358 Y52.767 E0.08528 ; brim
G1 X129.614 Y53.112 E0.08673 ; brim
G1 X126.967 Y53.058 E0.08302 ; brim
G1 X124.012 Y52.536 E0.09407 ; brim
G1 X121.181 Y51.547 E0.09403 ; brim
G1 X118.786 Y50.263 E0.08521 ; brim
G1 X116.770 Y48.783 E0.07842 ; brim
G1 X114.982 Y47.055 E0.07798 ; brim
G1 X113.220 Y44.770 E0.09045 ; brim
G1 X111.827 Y42.221 E0.09107 ; brim
G1 X110.997 Y39.990 E0.07465 ; brim
G1 X110.455 Y37.656 E0.07512 ; brim
G1 X110.216 Y34.345 E0.10408 ; brim
G1 X110.461 Y31.662 E0.08447 ; brim
G1 X110.974 Y29.470 E0.07060 ; brim
G1 X111.341 Y29.556 F7200.000 ; move to first brim point
G1 F1800
G1 X111.382 Y29.384 E0.00556 ; brim
G1 X112.236 Y27.133 E0.07548 ; brim
G1 X113.752 Y24.455 E0.09648 ; brim
G1 X115.196 Y22.614 E0.07337 ; brim
G1 X116.883 Y20.958 E0.07411 ; brim
G1 X119.272 Y19.222 E0.09260 ; brim
G1 X121.899 Y17.903 E0.09218 ; brim
G1 X124.128 Y17.165 E0.07361 ; brim
G1 X126.412 Y16.725 E0.07291 ; brim
G1 X129.619 Y16.607 E0.10063 ; brim
G1 X132.269 Y16.943 E0.08377 ; brim
G1 X134.589 Y17.576 E0.07540 ; brim
G1 X136.813 Y18.515 E0.07568 ; brim
G1 X139.408 Y20.108 E0.09546 ; brim
G1 X141.222 Y21.639 E0.07446 ; brim
G1 X142.831 Y23.406 E0.07493 ; brim
G1 X144.308 Y25.565 E0.08202 ; brim
G1 X145.459 Y27.916 E0.08206 ; brim
G1 X146.279 Y30.497 E0.08491 ; brim
G1 X146.723 Y33.378 E0.09140 ; brim
G1 X146.768 Y34.667 E0.04045 ; brim
G1 X146.723 Y35.964 E0.04069 ; brim
G1 X146.364 Y38.471 E0.07940 ; brim
G1 X145.656 Y40.917 E0.07984 ; brim
G1 X144.495 Y43.449 E0.08734 ; brim
G1 X143.121 Y45.563 E0.07904 ; brim
G1 X141.456 Y47.476 E0.07954 ; brim
G1 X139.410 Y49.232 E0.08453 ; brim
G1 X137.200 Y50.627 E0.08194 ; brim
G1 X134.835 Y51.679 E0.08115 ; brim
G1 X132.270 Y52.400 E0.08355 ; brim
G1 X129.581 Y52.736 E0.08497 ; brim
G1 X126.989 Y52.681 E0.08127 ; brim
G1 X124.122 Y52.175 E0.09129 ; brim
G1 X121.346 Y51.207 E0.09218 ; brim
G1 X118.998 Y49.951 E0.08349 ; brim
G1 X117.022 Y48.503 E0.07681 ; brim
G1 X115.271 Y46.813 E0.07629 ; brim
G1 X113.544 Y44.576 E0.08863 ; brim
G1 X112.176 Y42.077 E0.08932 ; brim
G1 X111.354 Y39.870 E0.07384 ; brim
G1 X110.826 Y37.585 E0.07352 ; brim
G1 X110.593 Y34.364 E0.10127 ; brim
G1 X110.831 Y31.736 E0.08275 ; brim
G1 X111.327 Y29.615 E0.06830 ; brim
G1 X111.693 Y29.700 F7200.000 ; move to first brim point
G1 F1800
G1 X111.739 Y29.506 E0.00626 ; brim
G1 X112.584 Y27.280 E0.07464 ; brim
G1 X114.057 Y24.676 E0.09380 ; brim
G1 X115.485 Y22.857 E0.07254 ; brim
G1 X117.137 Y21.237 E0.07252 ; brim
G1 X119.456 Y19.552 E0.08987 ; brim
G1 X122.031 Y18.256 E0.09040 ; brim
G1 X124.212 Y17.533 E0.07203 ; brim
G1 X126.469 Y17.098 E0.07207 ; brim
G1 X129.587 Y16.983 E0.09783 ; brim
G1 X132.183 Y17.311 E0.08204 ; brim
G1 X134.478 Y17.937 E0.07458 ; brim
G1 X136.653 Y18.857 E0.07405 ; brim
G1 X139.175 Y20.405 E0.09280 ; brim
G1 X140.970 Y21.919 E0.07362 ; brim
G1 X142.543 Y23.650 E0.07335 ; brim
G1 X143.989 Y25.767 E0.08036 ; brim
G1 X145.114 Y28.069 E0.08034 ; brim
G1 X145.915 Y30.597 E0.08315 ; brim
G1 X146.347 Y33.402 E0.08899 ; brim
G1 X146.391 Y34.674 E0.03989 ; brim
G1 X146.346 Y35.941 E0.03975 ; brim
G1 X145.993 Y38.404 E0.07803 ; brim
G1 X145.297 Y40.798 E0.07816 ; brim
G1 X144.158 Y43.279 E0.08560 ; brim
G1 X142.812 Y45.346 E0.07733 ; brim
G1 X141.180 Y47.218 E0.07787 ; brim
G1 X139.175 Y48.937 E0.08281 ; brim
G1 X137.011 Y50.301 E0.08021 ; brim
G1 X134.695 Y51.329 E0.07944 ; brim
G1 X132.182 Y52.033 E0.08183 ; brim
G1 X129.548 Y52.361 E0.08322 ; brim
G1 X127.012 Y52.305 E0.07953 ; brim
G1 X124.203 Y51.806 E0.08946 ; brim
G1 X121.511 Y50.868 E0.08939 ; brim
G1 X119.210 Y49.639 E0.08178 ; brim
G1 X117.275 Y48.222 E0.07519 ; brim
G1 X115.543 Y46.551 E0.07545 ; brim
G1 X113.852 Y44.357 E0.08687 ; brim
G1 X112.524 Y41.932 E0.08667 ; brim
G1 X111.719 Y39.773 E0.07226 ; brim
G1 X111.197 Y37.515 E0.07267 ; brim
G1 X110.970 Y34.382 E0.09847 ; brim
G1 X111.201 Y31.808 E0.08103 ; brim
G1 X111.680 Y29.758 E0.06600 ; brim
G1 F5760
G1 X111.739 Y29.506 E-0.08990 ; wipe and retract
G1 F5760
G1 X112.426 Y27.697 E-0.67010 ; wipe and retract
G1 E-0.04000 F2100.00000 ; retract
G1 Z0.800 F7200.000 ; lift Z
G1 X112.931 Y27.428 F7200.000 ; move to first brim point
G1 Z0.200 F7200.000 ; restore layer Z
G1 E0.80000 F2100.00000 ; unretract
G1 F1800
G1 X114.363 Y24.898 E0.09114 ; brim
G1 X115.758 Y23.117 E0.07094 ; brim
G1 X117.391 Y21.516 E0.07169 ; brim
G1 X119.665 Y19.867 E0.08808 ; brim
G1 X122.163 Y18.610 E0.08769 ; brim
G1 X124.295 Y17.901 E0.07044 ; brim
G1 X126.526 Y17.471 E0.07123 ; brim
G1 X129.555 Y17.359 E0.09505 ; brim
G1 X132.097 Y17.678 E0.08031 ; brim
G1 X134.343 Y18.289 E0.07297 ; brim
G1 X136.493 Y19.198 E0.07321 ; brim
G1 X138.943 Y20.702 E0.09014 ; brim
G1 X140.699 Y22.182 E0.07200 ; brim
G1 X142.255 Y23.894 E0.07255 ; brim
G1 X143.656 Y25.944 E0.07785 ; brim
G1 X144.769 Y28.222 E0.07948 ; brim
G1 X145.551 Y30.697 E0.08138 ; brim
G1 X145.970 Y33.426 E0.08659 ; brim
G1 X146.013 Y34.667 E0.03893 ; brim
G1 X145.970 Y35.917 E0.03923 ; brim
G1 X145.621 Y38.337 E0.07665 ; brim
G1 X144.939 Y40.679 E0.07648 ; brim
G1 X143.821 Y43.109 E0.08386 ; brim
G1 X142.504 Y45.129 E0.07562 ; brim
G1 X140.905 Y46.960 E0.07621 ; brim
G1 X138.941 Y48.641 E0.08109 ; brim
G1 X136.822 Y49.974 E0.07849 ; brim
G1 X134.555 Y50.979 E0.07774 ; brim
G1 X132.094 Y51.666 E0.08010 ; brim
G1 X129.516 Y51.985 E0.08146 ; brim
G1 X127.035 Y51.928 E0.07779 ; brim
G1 X124.313 Y51.445 E0.08670 ; brim
G1 X121.675 Y50.528 E0.08755 ; brim
G1 X119.422 Y49.327 E0.08006 ; brim
G1 X117.508 Y47.926 E0.07436 ; brim
G1 X115.815 Y46.290 E0.07382 ; brim
G1 X114.175 Y44.163 E0.08421 ; brim
G1 X112.873 Y41.788 E0.08493 ; brim
G1 X112.076 Y39.653 E0.07144 ; brim
G1 X111.567 Y37.444 E0.07106 ; brim
G1 X111.347 Y34.401 E0.09568 ; brim
G1 X111.571 Y31.881 E0.07931 ; brim
G1 X112.103 Y29.604 E0.07333 ; brim
G1 X112.910 Y27.484 E0.07112 ; brim
G1 X113.262 Y27.618 F7200.000 ; move to first brim point
G1 F1800
G1 X114.668 Y25.119 E0.08989 ; brim
G1 X116.047 Y23.360 E0.07010 ; brim
G1 X117.645 Y21.796 E0.07010 ; brim
G1 X119.848 Y20.196 E0.08536 ; brim
G1 X122.295 Y18.963 E0.08592 ; brim
G1 X124.402 Y18.263 E0.06962 ; brim
G1 X126.583 Y17.844 E0.06962 ; brim
G1 X129.524 Y17.735 E0.09227 ; brim
