; generated by Slic3r 1.37.2.1-prusa3d-win64 on 2018-02-19 at 09:13:02

; 

; external perimeters extrusion width = 0.42mm
; perimeters extrusion width = 0.45mm
; infill extrusion width = 0.45mm
; solid infill extrusion width = 0.45mm
; top infill extrusion width = 0.42mm
; support material extrusion width = 0.35mm
; first layer extrusion width = 0.42mm

M107 ; disable fan
M115 U3.1.0 ; tell printer latest fw version
M83  ; extruder relative mode
M104 S255 ; set extruder temp
M140 S100 ; set bed temp
M190 S100 ; wait for bed temp
M109 S255 ; wait for extruder temp
G28 W ; home all without mesh bed level
G80 ; mesh bed leveling
G1 Y-3.0 F1000.0 ; go outside pritn area
G1 X60.0 E9.0  F1000.0 ; intro line
G1 X100.0 E12.5  F1000.0 ; intro line
G92 E0.0
M900 K30
G21 ; set units to millimeters
G90 ; use absolute coordinates
M83 ; use relative distances for extrusion
;BEFORE_LAYER_CHANGE
;0.2


G1 E-0.80000 F2100.00000 ; retract
G1 Z0.600 F7200.000 ; lift Z
;AFTER_LAYER_CHANGE
;0.2
G1 X82.781 Y13.084 F7200.000 ; move to first skirt point
G1 Z0.200 F7200.000 ; restore layer Z
G1 E0.80000 F2100.00000 ; unretract
M204 S1000 ; adjust acceleration
G1 F1800
G1 X83.266 Y11.421 E0.05433 ; skirt
G1 X84.022 Y9.861 E0.05433 ; skirt
G1 X85.026 Y8.449 E0.05433 ; skirt
G1 X85.749 Y7.677 E0.03317 ; skirt
G1 X86.553 Y6.977 E0.03342 ; skirt
G1 X87.419 Y6.368 E0.03317 ; skirt
G1 X88.349 Y5.847 E0.03342 ; skirt
G1 X89.319 Y5.427 E0.03317 ; skirt
G1 X90.336 Y5.105 E0.03342 ; skirt
G1 X91.372 Y4.891 E0.03317 ; skirt
G1 X92.432 Y4.784 E0.03342 ; skirt
G1 X158.046 Y4.771 E2.05728 ; skirt
G1 X159.946 Y4.947 E0.05980 ; skirt
G1 X161.788 Y5.472 E0.06005 ; skirt
G1 X163.495 Y6.321 E0.05980 ; skirt
G1 X165.024 Y7.474 E0.06005 ; skirt
G1 X166.311 Y8.883 E0.05980 ; skirt
G1 X167.321 Y10.510 E0.06005 ; skirt
G1 X168.013 Y12.287 E0.05980 ; skirt
G1 X168.369 Y14.169 E0.06005 ; skirt
G1 X168.410 Y82.157 E2.13172 ; skirt
G1 X168.210 Y83.878 E0.05433 ; skirt
G1 X167.726 Y85.542 E0.05433 ; skirt
G1 X166.972 Y87.102 E0.05433 ; skirt
G1 X165.964 Y88.521 E0.05458 ; skirt
G1 X164.990 Y89.527 E0.04388 ; skirt
G1 X163.890 Y90.392 E0.04388 ; skirt
G1 X162.684 Y91.102 E0.04388 ; skirt
G1 X161.393 Y91.643 E0.04388 ; skirt
G1 X146.746 Y95.572 E0.47548 ; skirt
G1 X145.574 Y95.794 E0.03741 ; skirt
G1 X144.392 Y95.880 E0.03716 ; skirt
G1 X129.165 Y95.855 E0.47741 ; skirt
G1 X91.867 Y92.143 E1.17524 ; skirt
G1 X90.349 Y91.868 E0.04836 ; skirt
G1 X88.881 Y91.368 E0.04861 ; skirt
G1 X87.505 Y90.655 E0.04861 ; skirt
G1 X86.255 Y89.751 E0.04836 ; skirt
G1 X85.450 Y88.993 E0.03467 ; skirt
G1 X84.725 Y88.148 E0.03492 ; skirt
G1 X84.098 Y87.237 E0.03467 ; skirt
G1 X83.572 Y86.264 E0.03467 ; skirt
G1 X83.153 Y85.241 E0.03467 ; skirt
G1 X82.845 Y84.179 E0.03467 ; skirt
G1 X82.652 Y83.090 E0.03467 ; skirt
G1 X82.575 Y81.979 E0.03492 ; skirt
G1 X82.580 Y14.805 E2.10619 ; skirt
G1 X82.774 Y13.144 E0.05245 ; skirt
G1 F5760
G1 X83.266 Y11.421 E-0.62070 ; wipe and retract
G1 F5760
G1 X83.442 Y11.059 E-0.13930 ; wipe and retract
G1 E-0.04000 F2100.00000 ; retract
G1 Z0.800 F7200.000 ; lift Z
G1 X122.745 Y90.307 F7200.000 ; move to first brim point
G1 Z0.200 F7200.000 ; restore layer Z
G1 E0.80000 F2100.00000 ; unretract
G1 F1800
G1 X92.268 Y90.307 E0.95559 ; brim
G1 X89.609 Y89.658 E0.08580 ; brim
G1 X87.300 Y88.184 E0.08590 ; brim
G1 X85.658 Y86.235 E0.07992 ; brim
G1 X84.909 Y84.607 E0.05618 ; brim
G1 X84.467 Y82.547 E0.06605 ; brim
G1 X84.467 Y14.464 E2.13469 ; brim
G1 X85.116 Y11.806 E0.08580 ; brim
G1 X86.589 Y9.496 E0.08590 ; brim
G1 X88.539 Y7.854 E0.07992 ; brim
G1 X90.167 Y7.106 E0.05619 ; brim
G1 X92.227 Y6.663 E0.06606 ; brim
G1 X158.699 Y6.667 E2.08420 ; brim
G1 X160.436 Y6.974 E0.05529 ; brim
G1 X162.086 Y7.638 E0.05577 ; brim
G1 X164.199 Y9.290 E0.08409 ; brim
G1 X165.806 Y11.652 E0.08958 ; brim
G1 X166.523 Y14.393 E0.08885 ; brim
G1 X166.523 Y82.506 E2.13562 ; brim
G1 X165.873 Y85.164 E0.08580 ; brim
G1 X164.400 Y87.474 E0.08589 ; brim
G1 X162.457 Y89.113 E0.07971 ; brim
G1 X160.954 Y89.821 E0.05208 ; brim
G1 X159.344 Y90.236 E0.05214 ; brim
G1 X151.412 Y90.298 E0.24871 ; brim
G1 X150.914 Y90.995 E0.02685 ; brim
G1 X149.325 Y92.460 E0.06778 ; brim
G1 X147.152 Y93.578 E0.07660 ; brim
G1 X145.621 Y93.927 E0.04925 ; brim
G1 X144.311 Y93.975 E0.04110 ; brim
G1 X143.917 Y94.007 E0.01241 ; brim
G1 X130.223 Y94.007 E0.42935 ; brim
G1 X129.877 Y93.980 E0.01088 ; brim
G1 X128.895 Y93.968 E0.03081 ; brim
G1 X127.850 Y93.833 E0.03304 ; brim
G1 X124.725 Y92.404 E0.10773 ; brim
G1 X123.066 Y90.813 E0.07208 ; brim
G1 X122.777 Y90.358 E0.01692 ; brim
G1 F5760
G1 X120.583 Y90.354 E-0.76000 ; wipe and retract
G1 E-0.04000 F2100.00000 ; retract
G1 Z0.800 F7200.000 ; lift Z
G1 X151.216 Y89.923 F7200.000 ; move to first brim point
G1 Z0.200 F7200.000 ; restore layer Z
G1 E0.80000 F2100.00000 ; unretract
G1 F1800
G1 X150.643 Y90.731 E0.03106 ; brim
G1 X149.088 Y92.166 E0.06633 ; brim
G1 X147.003 Y93.231 E0.07343 ; brim
G1 X145.556 Y93.555 E0.04647 ; brim
G1 X144.289 Y93.599 E0.03975 ; brim
G1 X143.909 Y93.630 E0.01197 ; brim
G1 X130.231 Y93.630 E0.42886 ; brim
G1 X129.894 Y93.603 E0.01058 ; brim
G1 X128.932 Y93.593 E0.03018 ; brim
G1 X127.926 Y93.463 E0.03180 ; brim
G1 X124.963 Y92.110 E0.10213 ; brim
G1 X123.345 Y90.558 E0.07029 ; brim
G1 X122.956 Y89.930 E0.02317 ; brim
G1 X92.291 Y89.930 E0.96150 ; brim
G1 X89.730 Y89.299 E0.08268 ; brim
G1 X87.528 Y87.883 E0.08211 ; brim
G1 X85.989 Y86.054 E0.07494 ; brim
G1 X85.273 Y84.506 E0.05346 ; brim
G1 X84.844 Y82.527 E0.06351 ; brim
G1 X84.844 Y14.487 E2.13334 ; brim
G1 X85.475 Y11.927 E0.08268 ; brim
G1 X86.891 Y9.724 E0.08211 ; brim
G1 X88.720 Y8.186 E0.07494 ; brim
G1 X90.267 Y7.470 E0.05346 ; brim
G1 X92.247 Y7.040 E0.06351 ; brim
G1 X158.682 Y7.044 E2.08303 ; brim
G1 X160.350 Y7.341 E0.05310 ; brim
G1 X161.919 Y7.977 E0.05309 ; brim
G1 X163.943 Y9.568 E0.08072 ; brim
G1 X165.449 Y11.779 E0.08389 ; brim
G1 X166.146 Y14.418 E0.08556 ; brim
G1 X166.146 Y82.483 E2.13413 ; brim
G1 X165.515 Y85.043 E0.08268 ; brim
G1 X164.099 Y87.246 E0.08210 ; brim
G1 X162.274 Y88.782 E0.07479 ; brim
G1 X160.810 Y89.472 E0.05075 ; brim
G1 X159.273 Y89.865 E0.04973 ; brim
G1 X151.276 Y89.922 E0.25077 ; brim
G1 X151.018 Y89.547 F7200.000 ; move to first brim point
G1 F1800
G1 X150.372 Y90.468 E0.03527 ; brim
G1 X148.852 Y91.871 E0.06486 ; brim
G1 X146.854 Y92.884 E0.07024 ; brim
G1 X145.493 Y93.183 E0.04370 ; brim
G1 X144.267 Y93.222 E0.03845 ; brim
G1 X143.900 Y93.253 E0.01154 ; brim
G1 X130.239 Y93.253 E0.42835 ; brim
G1 X129.912 Y93.226 E0.01029 ; brim
G1 X128.969 Y93.218 E0.02956 ; brim
G1 X128.003 Y93.092 E0.03056 ; brim
G1 X125.201 Y91.816 E0.09653 ; brim
G1 X123.624 Y90.304 E0.06849 ; brim
G1 X123.170 Y89.553 E0.02752 ; brim
G1 X92.313 Y89.553 E0.96751 ; brim
G1 X89.907 Y88.964 E0.07768 ; brim
G1 X87.797 Y87.617 E0.07849 ; brim
G1 X86.320 Y85.871 E0.07170 ; brim
G1 X85.637 Y84.405 E0.05072 ; brim
G1 X85.221 Y82.506 E0.06094 ; brim
G1 X85.221 Y14.510 E2.13199 ; brim
G1 X85.809 Y12.103 E0.07768 ; brim
G1 X87.156 Y9.993 E0.07849 ; brim
G1 X88.902 Y8.517 E0.07170 ; brim
G1 X90.369 Y7.833 E0.05072 ; brim
G1 X92.267 Y7.417 E0.06094 ; brim
G1 X158.665 Y7.421 E2.08186 ; brim
G1 X160.263 Y7.709 E0.05090 ; brim
G1 X161.751 Y8.316 E0.05040 ; brim
G1 X163.686 Y9.846 E0.07732 ; brim
G1 X165.119 Y11.964 E0.08019 ; brim
G1 X165.769 Y14.442 E0.08033 ; brim
G1 X165.769 Y82.460 E2.13267 ; brim
G1 X165.180 Y84.867 E0.07768 ; brim
G1 X163.833 Y86.977 E0.07848 ; brim
G1 X162.090 Y88.452 E0.07160 ; brim
G1 X160.699 Y89.111 E0.04828 ; brim
G1 X159.202 Y89.494 E0.04844 ; brim
G1 X151.078 Y89.546 E0.25473 ; brim
G1 X150.820 Y89.171 F7200.000 ; move to first brim point
G1 F1800
G1 X150.100 Y90.206 E0.03953 ; brim
G1 X148.657 Y91.547 E0.06177 ; brim
G1 X146.749 Y92.521 E0.06718 ; brim
G1 X145.463 Y92.806 E0.04129 ; brim
G1 X144.245 Y92.846 E0.03822 ; brim
G1 X143.892 Y92.876 E0.01110 ; brim
G1 X130.247 Y92.876 E0.42783 ; brim
G1 X129.929 Y92.849 E0.01000 ; brim
G1 X129.006 Y92.842 E0.02895 ; brim
G1 X128.079 Y92.722 E0.02931 ; brim
G1 X125.439 Y91.521 E0.09093 ; brim
G1 X123.904 Y90.050 E0.06665 ; brim
G1 X123.386 Y89.176 E0.03187 ; brim
G1 X92.336 Y89.176 E0.97356 ; brim
G1 X90.027 Y88.606 E0.07457 ; brim
G1 X88.066 Y87.352 E0.07300 ; brim
G1 X86.650 Y85.688 E0.06848 ; brim
G1 X86.000 Y84.303 E0.04798 ; brim
G1 X85.598 Y82.486 E0.05835 ; brim
G1 X85.598 Y14.533 E2.13061 ; brim
G1 X86.168 Y12.224 E0.07457 ; brim
G1 X87.422 Y10.262 E0.07300 ; brim
G1 X89.086 Y8.847 E0.06848 ; brim
G1 X90.471 Y8.197 E0.04798 ; brim
G1 X92.288 Y7.795 E0.05836 ; brim
G1 X158.649 Y7.798 E2.08068 ; brim
G1 X160.139 Y8.066 E0.04747 ; brim
G1 X161.584 Y8.655 E0.04893 ; brim
G1 X163.429 Y10.123 E0.07391 ; brim
G1 X164.763 Y12.091 E0.07457 ; brim
G1 X165.392 Y14.467 E0.07704 ; brim
G1 X165.392 Y82.437 E2.13117 ; brim
G1 X164.822 Y84.746 E0.07457 ; brim
G1 X163.567 Y86.708 E0.07300 ; brim
G1 X161.906 Y88.122 E0.06840 ; brim
G1 X160.554 Y88.762 E0.04691 ; brim
G1 X159.132 Y89.123 E0.04600 ; brim
G1 X150.880 Y89.170 E0.25875 ; brim
G1 X150.621 Y88.795 F7200.000 ; move to first brim point
G1 F1800
G1 X149.828 Y89.945 E0.04381 ; brim
G1 X148.461 Y91.224 E0.05869 ; brim
G1 X146.643 Y92.158 E0.06408 ; brim
G1 X145.399 Y92.434 E0.03995 ; brim
G1 X144.223 Y92.469 E0.03690 ; brim
G1 X143.884 Y92.499 E0.01067 ; brim
G1 X130.255 Y92.499 E0.42730 ; brim
G1 X129.947 Y92.472 E0.00971 ; brim
G1 X129.043 Y92.467 E0.02835 ; brim
G1 X128.155 Y92.352 E0.02807 ; brim
G1 X125.677 Y91.227 E0.08533 ; brim
G1 X124.185 Y89.797 E0.06480 ; brim
G1 X123.604 Y88.799 E0.03621 ; brim
G1 X92.359 Y88.799 E0.97968 ; brim
G1 X90.203 Y88.271 E0.06959 ; brim
G1 X88.333 Y87.085 E0.06942 ; brim
G1 X86.980 Y85.504 E0.06525 ; brim
G1 X86.364 Y84.199 E0.04523 ; brim
G1 X85.975 Y82.465 E0.05574 ; brim
G1 X85.975 Y14.555 E2.12925 ; brim
G1 X86.503 Y12.399 E0.06959 ; brim
G1 X87.689 Y10.530 E0.06942 ; brim
G1 X89.270 Y9.177 E0.06525 ; brim
G1 X90.574 Y8.560 E0.04523 ; brim
G1 X92.309 Y8.172 E0.05574 ; brim
G1 X158.631 Y8.175 E2.07949 ; brim
G1 X160.052 Y8.433 E0.04526 ; brim
G1 X161.415 Y8.993 E0.04622 ; brim
G1 X163.170 Y10.399 E0.07050 ; brim
G1 X164.432 Y12.275 E0.07090 ; brim
G1 X165.014 Y14.491 E0.07183 ; brim
G1 X165.014 Y82.415 E2.12971 ; brim
G1 X164.487 Y84.571 E0.06959 ; brim
G1 X163.301 Y86.440 E0.06942 ; brim
G1 X161.721 Y87.792 E0.06519 ; brim
G1 X160.443 Y88.402 E0.04438 ; brim
G1 X159.062 Y88.752 E0.04469 ; brim
G1 X150.681 Y88.794 E0.26278 ; brim
G1 X150.367 Y88.419 F7200.000 ; move to first brim point
G1 F1800
G1 X150.274 Y88.633 E0.00732 ; brim
G1 X149.554 Y89.685 E0.03999 ; brim
G1 X148.263 Y90.901 E0.05560 ; brim
G1 X146.537 Y91.795 E0.06096 ; brim
G1 X145.335 Y92.062 E0.03860 ; brim
G1 X144.201 Y92.092 E0.03559 ; brim
G1 X143.875 Y92.122 E0.01025 ; brim
G1 X130.264 Y92.122 E0.42676 ; brim
G1 X129.965 Y92.095 E0.00943 ; brim
G1 X129.079 Y92.091 E0.02776 ; brim
G1 X128.231 Y91.981 E0.02682 ; brim
G1 X125.915 Y90.932 E0.07973 ; brim
G1 X124.466 Y89.544 E0.06292 ; brim
G1 X123.824 Y88.422 E0.04054 ; brim
G1 X92.382 Y88.422 E0.98584 ; brim
G1 X90.323 Y87.912 E0.06649 ; brim
G1 X88.601 Y86.817 E0.06399 ; brim
G1 X87.310 Y85.318 E0.06204 ; brim
G1 X86.726 Y84.095 E0.04248 ; brim
G1 X86.352 Y82.443 E0.05310 ; brim
G1 X86.352 Y14.578 E2.12786 ; brim
G1 X86.861 Y12.520 E0.06649 ; brim
G1 X87.956 Y10.797 E0.06399 ; brim
G1 X89.456 Y9.506 E0.06204 ; brim
G1 X90.679 Y8.923 E0.04248 ; brim
G1 X92.330 Y8.549 E0.05311 ; brim
G1 X158.614 Y8.552 E2.07828 ; brim
G1 X159.963 Y8.800 E0.04302 ; brim
G1 X161.245 Y9.331 E0.04350 ; brim
G1 X162.911 Y10.674 E0.06707 ; brim
G1 X164.101 Y12.458 E0.06724 ; brim
G1 X164.637 Y14.515 E0.06666 ; brim
G1 X164.637 Y82.392 E2.12824 ; brim
G1 X164.128 Y84.450 E0.06649 ; brim
G1 X163.033 Y86.173 E0.06399 ; brim
G1 X161.535 Y87.463 E0.06201 ; brim
G1 X160.332 Y88.041 E0.04183 ; brim
G1 X158.991 Y88.381 E0.04337 ; brim
G1 X150.427 Y88.418 E0.26852 ; brim
G1 X150.105 Y88.042 F7200.000 ; move to first brim point
G1 F1800
G1 X149.948 Y88.441 E0.01343 ; brim
G1 X149.279 Y89.426 E0.03734 ; brim
G1 X148.065 Y90.580 E0.05250 ; brim
G1 X146.431 Y91.433 E0.05780 ; brim
G1 X145.272 Y91.690 E0.03723 ; brim
G1 X144.179 Y91.716 E0.03428 ; brim
G1 X143.866 Y91.745 E0.00985 ; brim
G1 X130.273 Y91.745 E0.42619 ; brim
G1 X129.983 Y91.718 E0.00914 ; brim
G1 X129.116 Y91.716 E0.02718 ; brim
G1 X128.307 Y91.611 E0.02557 ; brim
G1 X126.152 Y90.638 E0.07413 ; brim
G1 X124.747 Y89.291 E0.06102 ; brim
G1 X124.045 Y88.044 E0.04487 ; brim
G1 X92.404 Y88.044 E0.99207 ; brim
G1 X90.498 Y87.577 E0.06154 ; brim
G1 X88.867 Y86.549 E0.06045 ; brim
G1 X87.638 Y85.131 E0.05882 ; brim
G1 X87.089 Y83.990 E0.03972 ; brim
G1 X86.729 Y82.422 E0.05044 ; brim
G1 X86.729 Y14.601 E2.12647 ; brim
G1 X87.197 Y12.695 E0.06154 ; brim
G1 X88.225 Y11.064 E0.06045 ; brim
G1 X89.642 Y9.835 E0.05882 ; brim
G1 X90.784 Y9.286 E0.03973 ; brim
G1 X92.352 Y8.926 E0.05044 ; brim
G1 X158.596 Y8.929 E2.07705 ; brim
G1 X159.874 Y9.167 E0.04075 ; brim
G1 X161.074 Y9.668 E0.04078 ; brim
G1 X162.651 Y10.948 E0.06367 ; brim
G1 X163.744 Y12.584 E0.06170 ; brim
G1 X164.260 Y14.539 E0.06339 ; brim
G1 X164.260 Y82.369 E2.12676 ; brim
G1 X163.793 Y84.275 E0.06154 ; brim
G1 X162.765 Y85.907 E0.06045 ; brim
G1 X161.348 Y87.135 E0.05880 ; brim
G1 X160.221 Y87.680 E0.03926 ; brim
G1 X158.921 Y88.009 E0.04204 ; brim
G1 X150.165 Y88.042 E0.27455 ; brim
G1 X149.841 Y87.666 F7200.000 ; move to first brim point
G1 F1800
G1 X149.623 Y88.249 E0.01952 ; brim
G1 X148.978 Y89.198 E0.03596 ; brim
G1 X147.866 Y90.259 E0.04819 ; brim
G1 X146.323 Y91.071 E0.05466 ; brim
G1 X145.244 Y91.314 E0.03469 ; brim
G1 X144.156 Y91.339 E0.03413 ; brim
G1 X143.857 Y91.368 E0.00943 ; brim
G1 X130.282 Y91.368 E0.42561 ; brim
G1 X130.001 Y91.341 E0.00886 ; brim
G1 X129.152 Y91.340 E0.02661 ; brim
G1 X128.383 Y91.241 E0.02432 ; brim
G1 X126.390 Y90.343 E0.06853 ; brim
G1 X125.029 Y89.039 E0.05910 ; brim
G1 X124.268 Y87.667 E0.04919 ; brim
G1 X92.427 Y87.667 E0.99836 ; brim
G1 X90.672 Y87.241 E0.05663 ; brim
G1 X89.132 Y86.280 E0.05690 ; brim
G1 X87.966 Y84.944 E0.05560 ; brim
G1 X87.451 Y83.883 E0.03696 ; brim
G1 X87.106 Y82.400 E0.04775 ; brim
G1 X87.106 Y14.623 E2.12509 ; brim
G1 X87.533 Y12.868 E0.05663 ; brim
G1 X88.494 Y11.329 E0.05690 ; brim
G1 X89.830 Y10.163 E0.05560 ; brim
G1 X90.891 Y9.648 E0.03696 ; brim
G1 X92.374 Y9.303 E0.04775 ; brim
G1 X158.579 Y9.307 E2.07581 ; brim
G1 X159.784 Y9.534 E0.03847 ; brim
G1 X160.902 Y10.005 E0.03804 ; brim
G1 X162.390 Y11.222 E0.06025 ; brim
G1 X163.413 Y12.766 E0.05808 ; brim
G1 X163.883 Y14.563 E0.05825 ; brim
G1 X163.883 Y82.347 E2.12531 ; brim
G1 X163.457 Y84.102 E0.05663 ; brim
G1 X162.495 Y85.641 E0.05690 ; brim
G1 X161.160 Y86.807 E0.05559 ; brim
G1 X160.109 Y87.319 E0.03665 ; brim
G1 X158.851 Y87.638 E0.04069 ; brim
G1 X149.900 Y87.666 E0.28064 ; brim
G1 X149.574 Y87.290 F7200.000 ; move to first brim point
G1 F1800
G1 X149.297 Y88.058 E0.02560 ; brim
G1 X148.677 Y88.970 E0.03457 ; brim
G1 X147.666 Y89.938 E0.04391 ; brim
G1 X146.215 Y90.708 E0.05148 ; brim
G1 X145.180 Y90.941 E0.03328 ; brim
G1 X144.134 Y90.962 E0.03282 ; brim
G1 X143.847 Y90.991 E0.00903 ; brim
G1 X130.292 Y90.991 E0.42501 ; brim
G1 X130.019 Y90.964 E0.00859 ; brim
G1 X129.188 Y90.965 E0.02606 ; brim
G1 X128.459 Y90.870 E0.02307 ; brim
G1 X126.627 Y90.049 E0.06293 ; brim
G1 X125.311 Y88.787 E0.05716 ; brim
G1 X124.492 Y87.290 E0.05351 ; brim
G1 X92.450 Y87.290 E1.00466 ; brim
G1 X90.791 Y86.882 E0.05355 ; brim
G1 X89.397 Y86.010 E0.05156 ; brim
G1 X88.293 Y84.755 E0.05240 ; brim
G1 X87.813 Y83.775 E0.03420 ; brim
G1 X87.483 Y82.378 E0.04502 ; brim
G1 X87.483 Y14.646 E2.12367 ; brim
G1 X87.892 Y12.988 E0.05355 ; brim
G1 X88.764 Y11.594 E0.05156 ; brim
G1 X90.019 Y10.490 E0.05240 ; brim
G1 X90.998 Y10.010 E0.03420 ; brim
G1 X92.396 Y9.680 E0.04503 ; brim
G1 X158.561 Y9.684 E2.07456 ; brim
G1 X159.657 Y9.889 E0.03494 ; brim
G1 X160.730 Y10.342 E0.03654 ; brim
G1 X162.128 Y11.495 E0.05681 ; brim
G1 X163.056 Y12.893 E0.05263 ; brim
G1 X163.506 Y14.588 E0.05499 ; brim
